;FLAVOR:Marlin
;TIME:1577
;Filament used: 0.887537m
;Layer height: 0.2
;MINX:100.502
;MINY:87.852
;MINZ:0.2
;MAXX:136.28
;MAXY:140.95
;MAXZ:31.2
;Generated with Cura_SteamEngine main
M140 S75
M105
M190 S75
M104 S230
M105
M109 S230
M82 ;absolute extrusion mode
; Ender 3 Custom Start G-code
G92 E0 ; Reset Extruder
G28 ; Home all axes
G29 ; BL-13 Bed Level
G92 E0 ; Reset Extruder
G1 Z2.0 F3000 ; Move Z Axis up little to prevent scratching of Heat Bed
G1 X235 Y0 Z2 F5000.0 ; Move to 235,0,2
G1 E40 F300  ;extrude 40mm for priming

G1 X235 Y0 Z0 F5000.0 ; Move to 235,0,0
G1 X225 Y10 Z0 F5000.0 ; Move to 225,10,0
G91 ;Relative positioning
G1 E-0.8 F1000 ;retract 0.8mm
G90 ;Absolute positioning
G1 X225 Y15 Z3 F5000.0 ; Move to 225,15,3
G1 X115 Y115 Z0 F5000.0 ; Move to 115,115,0
G92 E0
G92 E0
G1 F1800 E-1
;LAYER_COUNT:156
;LAYER:0
M107
G0 F12000 X110.842 Y91.62 Z0.2
G0 X103.499 Y103.662
;TYPE:SKIRT
G1 F1800 E0
G1 F600 X103.657 Y102.748 E0.03856
G1 X103.893 Y101.852 E0.07709
G1 X104.205 Y100.979 E0.11563
G1 X104.591 Y100.136 E0.15418
G1 X105.048 Y99.329 E0.19273
G1 X105.702 Y98.397 E0.24007
G1 X106.168 Y97.804 E0.27143
G1 X107.125 Y96.618 E0.33478
G1 X108.631 Y94.639 E0.43818
G1 X110.27 Y92.35 E0.55522
G1 X110.842 Y91.62 E0.59378
G1 X111.474 Y90.943 E0.63228
G1 X112.163 Y90.322 E0.67085
G1 X112.903 Y89.763 E0.7094
G1 X113.688 Y89.269 E0.74796
G1 X114.512 Y88.846 E0.78647
G1 X115.37 Y88.495 E0.82501
G1 X116.255 Y88.219 E0.86356
G1 X117.161 Y88.02 E0.90212
G1 X118.08 Y87.9 E0.94065
G1 X118.695 Y87.865 E0.96626
G1 X119.437 Y87.853 E0.99712
G1 X120.133 Y87.863 E1.02606
G1 X122.771 Y87.863 E1.13573
G1 X123.465 Y87.852 E1.16459
G1 X124.439 Y87.861 E1.20508
G1 X125.365 Y87.914 E1.24364
G1 X126.283 Y88.046 E1.2822
G1 X127.185 Y88.257 E1.32072
G1 X128.067 Y88.545 E1.35929
G1 X128.92 Y88.907 E1.39782
G1 X129.739 Y89.342 E1.43637
G1 X130.517 Y89.846 E1.47491
G1 X131.249 Y90.415 E1.51346
G1 X131.929 Y91.045 E1.552
G1 X132.553 Y91.731 E1.59055
G1 X133.115 Y92.468 E1.62908
G1 X133.611 Y93.252 E1.66765
G1 X134.038 Y94.074 E1.70616
G1 X134.393 Y94.931 E1.74473
G1 X134.672 Y95.815 E1.78327
G1 X134.875 Y96.72 E1.82183
G1 X134.972 Y97.382 E1.84965
G1 X135.034 Y97.921 E1.8722
G1 X135.238 Y99.927 E1.95603
G1 X135.289 Y100.708 E1.98857
G1 X135.302 Y101.33 E2.01444
G1 X135.302 Y105.096 E2.17101
G1 X135.32 Y107.354 E2.26489
G1 X135.353 Y109.057 E2.33571
G1 X135.378 Y109.921 E2.37164
G1 X135.475 Y112.309 E2.47101
G1 X135.641 Y115 E2.5831
G1 X135.837 Y117.419 E2.684
G1 X136.016 Y119.256 E2.76073
G1 X136.155 Y120.55 E2.81484
G1 X136.229 Y121.336 E2.84766
G1 X136.28 Y122.208 E2.88398
G1 X136.277 Y123.232 E2.92655
G1 X136.255 Y123.662 E2.94445
G1 X136.125 Y124.869 E2.99492
G1 X136.049 Y125.328 E3.01427
G1 X135.787 Y126.5 E3.0642
G1 X135.514 Y127.465 E3.10589
G1 X134.851 Y129.944 E3.21258
G1 X134.395 Y131.895 E3.29588
G1 X134.184 Y132.754 E3.33265
G1 X133.924 Y133.644 E3.3712
G1 X133.588 Y134.509 E3.40978
G1 X133.18 Y135.341 E3.44831
G1 X132.701 Y136.135 E3.48686
G1 X132.155 Y136.884 E3.52539
G1 X131.547 Y137.584 E3.56394
G1 X130.881 Y138.229 E3.60249
G1 X130.162 Y138.814 E3.64102
G1 X129.395 Y139.335 E3.67957
G1 X128.586 Y139.788 E3.71812
G1 X127.741 Y140.169 E3.75666
G1 X126.866 Y140.477 E3.79522
G1 X125.968 Y140.707 E3.83376
G1 X125.053 Y140.86 E3.87233
G1 X124.078 Y140.935 E3.91299
G1 X123.422 Y140.95 E3.94027
G1 X114.706 Y140.949 E4.30264
G1 X114.005 Y140.939 E4.33179
G1 X113.079 Y140.886 E4.37035
G1 X112.161 Y140.753 E4.40891
G1 X111.259 Y140.542 E4.44743
G1 X110.378 Y140.253 E4.48597
G1 X109.524 Y139.89 E4.52455
G1 X108.706 Y139.455 E4.56307
G1 X107.928 Y138.951 E4.60161
G1 X107.196 Y138.381 E4.64018
G1 X106.516 Y137.751 E4.67872
G1 X105.893 Y137.064 E4.71728
G1 X105.188 Y136.114 E4.76646
G1 X103.929 Y134.207 E4.86147
G1 X102.445 Y132.08 E4.96929
G1 X101.948 Y131.297 E5.00785
G1 X101.52 Y130.475 E5.04638
G1 X101.165 Y129.618 E5.08495
G1 X100.884 Y128.735 E5.12347
G1 X100.681 Y127.83 E5.16203
G1 X100.557 Y126.911 E5.20059
G1 X100.517 Y126.259 E5.22774
G1 X100.502 Y125.603 E5.25502
G1 X100.503 Y120.812 E5.45421
G1 X100.514 Y120.105 E5.48361
G1 X100.569 Y119.179 E5.52217
G1 X100.703 Y118.262 E5.5607
G1 X100.853 Y117.592 E5.58925
G1 X101.438 Y115.319 E5.68683
G1 X102.02 Y112.79 E5.79472
G1 X102.513 Y110.325 E5.89923
G1 X102.933 Y107.865 E6.00299
G1 X103.295 Y105.314 E6.11011
G1 X103.363 Y104.722 E6.13488
G1 X103.499 Y103.662 E6.17931
G1 F1800 E5.17931
G0 F12000 X103.431 Y107.92
G1 F1800 E6.17931
G1 F600 X103.783 Y105.438 E6.28354
G1 X103.995 Y103.726 E6.35526
G1 X104.15 Y102.834 E6.3929
G1 X104.383 Y101.959 E6.43054
G1 X104.692 Y101.108 E6.46818
G1 X105.075 Y100.288 E6.50581
G1 X105.529 Y99.504 E6.54348
G1 X106.096 Y98.706 E6.58417
G1 X106.558 Y98.118 E6.61526
G1 X107.495 Y96.957 E6.67729
G1 X109.031 Y94.938 E6.78276
G1 X110.676 Y92.641 E6.90022
G1 X111.235 Y91.929 E6.93786
G1 X111.855 Y91.269 E6.97551
G1 X112.531 Y90.667 E7.01314
G1 X113.257 Y90.126 E7.05078
G1 X114.028 Y89.652 E7.08841
G1 X114.838 Y89.247 E7.12606
G1 X115.68 Y88.916 E7.16368
G1 X116.549 Y88.66 E7.20134
G1 X117.436 Y88.481 E7.23896
G1 X118.71 Y88.364 E7.29215
G1 X119.43 Y88.353 E7.32209
G1 X120.126 Y88.363 E7.35103
G1 X122.779 Y88.363 E7.46133
G1 X123.473 Y88.352 E7.49018
G1 X124.432 Y88.361 E7.53005
G1 X125.336 Y88.413 E7.5677
G1 X126.232 Y88.545 E7.60535
G1 X127.112 Y88.756 E7.64298
G1 X127.971 Y89.043 E7.68063
G1 X128.801 Y89.405 E7.71828
G1 X129.595 Y89.839 E7.7559
G1 X130.349 Y90.341 E7.79356
G1 X131.055 Y90.907 E7.83118
G1 X131.708 Y91.534 E7.86881
G1 X132.303 Y92.216 E7.90644
G1 X132.836 Y92.948 E7.94409
G1 X133.303 Y93.724 E7.98174
G1 X133.699 Y94.538 E8.01938
G1 X134.021 Y95.384 E8.05701
G1 X134.268 Y96.255 E8.09465
G1 X134.475 Y97.439 E8.14462
G1 X134.552 Y98.114 E8.17287
G1 X134.741 Y99.977 E8.25072
G1 X134.789 Y100.722 E8.28176
G1 X134.802 Y101.33 E8.30704
G1 X134.802 Y105.1 E8.46378
G1 X134.82 Y107.368 E8.55808
G1 X134.853 Y109.072 E8.62893
G1 X134.878 Y109.936 E8.66487
G1 X134.946 Y111.707 E8.73855
G1 X134.98 Y112.408 E8.76773
G1 X135.091 Y114.278 E8.84561
G1 X135.146 Y115.072 E8.8787
G1 X135.343 Y117.505 E8.98019
G1 X135.519 Y119.309 E9.05554
G1 X135.657 Y120.597 E9.1094
G1 X135.731 Y121.383 E9.14222
G1 X135.766 Y121.891 E9.16339
G1 X135.781 Y122.23 E9.1775
G1 X135.778 Y123.207 E9.21812
G1 X135.756 Y123.637 E9.23602
G1 X135.631 Y124.787 E9.28411
G1 X135.555 Y125.246 E9.30346
G1 X135.305 Y126.364 E9.35109
G1 X135.053 Y127.253 E9.3895
G1 X134.364 Y129.83 E9.5004
G1 X133.937 Y131.661 E9.57857
G1 X133.698 Y132.635 E9.62027
G1 X133.444 Y133.504 E9.65791
G1 X133.113 Y134.347 E9.69556
G1 X132.71 Y135.157 E9.73317
G1 X132.237 Y135.929 E9.77081
G1 X131.697 Y136.656 E9.80847
G1 X131.096 Y137.333 E9.8461
G1 X130.437 Y137.953 E9.88372
G1 X129.726 Y138.514 E9.92137
G1 X128.968 Y139.009 E9.95901
G1 X128.169 Y139.436 E9.99668
G1 X127.336 Y139.79 E10.03431
G1 X126.475 Y140.069 E10.07194
G1 X125.593 Y140.272 E10.10956
G1 X124.696 Y140.396 E10.14721
G1 X124.062 Y140.435 E10.17362
G1 X123.422 Y140.45 E10.20023
G1 X114.713 Y140.449 E10.56231
G1 X114.012 Y140.439 E10.59146
G1 X113.108 Y140.386 E10.62911
G1 X112.212 Y140.254 E10.66676
G1 X111.332 Y140.043 E10.70439
G1 X110.474 Y139.755 E10.74201
G1 X109.644 Y139.393 E10.77966
G1 X108.85 Y138.958 E10.8173
G1 X108.097 Y138.456 E10.85492
G1 X107.391 Y137.889 E10.89257
G1 X106.738 Y137.262 E10.93021
G1 X106.143 Y136.579 E10.96787
G1 X105.605 Y135.839 E11.0059
G1 X104.334 Y133.914 E11.10181
G1 X102.855 Y131.794 E11.20928
G1 X102.37 Y131.029 E11.24694
G1 X101.955 Y130.225 E11.28455
G1 X101.612 Y129.387 E11.3222
G1 X101.345 Y128.522 E11.35983
G1 X101.155 Y127.637 E11.39747
G1 X101.044 Y126.738 E11.43513
G1 X101.017 Y126.243 E11.45574
G1 X101.002 Y125.603 E11.48235
G1 X101.003 Y120.82 E11.68121
G1 X101.014 Y120.113 E11.7106
G1 X101.068 Y119.209 E11.74825
G1 X101.202 Y118.313 E11.78592
G1 X101.337 Y117.716 E11.81137
G1 X101.934 Y115.398 E11.91088
G1 X102.503 Y112.922 E12.01651
G1 X103.007 Y110.403 E12.12331
G1 X103.431 Y107.92 E12.22804
G1 F1800 E11.22804
;MESH:Arm Shoulder R.stl
G0 F12000 X113.047 Y117.537
G0 X113.814 Y118.304
G0 X113.837 Y119.399
G1 F1800 E12.22804
G0 F12000 X113.762 Y119.693
;TYPE:WALL-INNER
G1 F600 X114.14 Y119.882 E12.24209
G1 X114.461 Y120.205 E12.25724
G1 X114.674 Y120.594 E12.27199
G1 X114.753 Y121.197 E12.29222
G1 X114.669 Y121.596 E12.30578
G1 X114.509 Y121.914 E12.31762
G1 X114.634 Y122.101 E12.3251
G1 X114.742 Y122.49 E12.33853
G1 X114.742 Y122.899 E12.35213
G1 X114.637 Y123.278 E12.36521
G1 X114.503 Y123.493 E12.37364
G1 X114.63 Y123.705 E12.38186
G1 X114.753 Y124.209 E12.39911
G1 X114.753 Y129.599 E12.57838
G1 X123.152 Y129.6 E12.85773
G1 X123.152 Y128.664 E12.88887
G1 X123.185 Y127.996 E12.91111
G1 X123.3 Y127.212 E12.93747
G1 X123.469 Y126.525 E12.961
G1 X123.71 Y125.844 E12.98502
G1 X123.88 Y125.473 E12.9986
G1 X123.995 Y125.175 E13.00981
G1 X124.069 Y124.956 E13.01919
G1 X124.211 Y124.734 E13.0306
G1 X124.353 Y124.512 E13.04158
G1 X124.558 Y124.162 E13.05814
G1 X124.71 Y123.8 E13.07417
G1 X124.821 Y123.428 E13.09005
G1 X124.882 Y123.08 E13.10448
G1 X124.902 Y122.709 E13.11971
G1 X124.879 Y122.285 E13.13715
G1 X124.845 Y122.031 E13.14782
G1 X124.811 Y121.776 E13.1588
G1 X124.828 Y121.395 E13.17348
G1 X124.73 Y120.473 E13.20463
G1 X124.631 Y119.55 E13.23558
G1 X124.386 Y116.786 E13.32787
G1 X124.196 Y114.017 E13.42018
G1 X124.061 Y111.245 E13.51249
G1 X123.98 Y108.471 E13.60479
G1 X123.952 Y105.708 E13.6967
G1 X123.952 Y101.52 E13.83599
G1 X123.6 Y101.6 E13.848
G1 X119.53 Y101.6 E13.98336
G1 X119.29 Y101.471 E13.99243
G1 X119.065 Y101.579 E14.00073
G1 X118.921 Y101.598 E14.00556
G1 X114.752 Y105.294 E14.19087
G1 X114.753 Y117.449 E14.59514
G1 X114.593 Y117.773 E14.60716
G1 X113.626 Y118.748 E14.65283
G1 X112.658 Y119.723 E14.69876
G1 X113.026 Y119.61 E14.7116
G1 X113.461 Y119.61 E14.72606
G1 X113.762 Y119.693 E14.73645
G1 F1800 E13.73645
G0 F12000 X113.837 Y119.399
G0 X112.389 Y119.841
G1 F1800 E14.73645
G0 F12000 X112.236 Y119.688
;TYPE:WALL-OUTER
G1 F600 X111.877 Y120.042 E14.76005
G1 X111.565 Y120.402 E14.78247
G1 X111.535 Y120.804 E14.80158
G1 X111.53 Y121.291 E14.82434
G1 X111.47 Y121.593 E14.83706
G1 X111.452 Y121.974 E14.85035
G1 X111.534 Y122.421 E14.86856
G1 X111.531 Y122.924 E14.89207
G1 X111.474 Y123.207 E14.90412
G1 X111.452 Y123.574 E14.91702
G1 X111.534 Y124.021 E14.93523
G1 X111.531 Y124.524 E14.95874
G1 X111.453 Y124.91 E14.97573
G1 X111.453 Y125.184 E14.98633
G1 X111.453 Y125.458 E14.99633
G1 X111.453 Y125.732 E15.00574
G1 X112.452 Y125.733 E15.03897
G1 X112.452 Y125.03 E15.06235
G1 X112.26 Y124.766 E15.07321
G1 X112.208 Y124.708 E15.07594
G1 X112.086 Y124.476 E15.08688
G1 X112.089 Y124.096 E15.10464
G1 X112.26 Y123.834 E15.11718
G1 X112.452 Y123.569 E15.12806
G1 X112.452 Y123.43 E15.13269
G1 X112.26 Y123.166 E15.14354
G1 X112.208 Y123.108 E15.14628
G1 X112.086 Y122.876 E15.15722
G1 X112.089 Y122.496 E15.17498
G1 X112.26 Y122.234 E15.18751
G1 X112.452 Y121.969 E15.1984
G1 X112.452 Y121.83 E15.20302
G1 X112.21 Y121.5 E15.21728
G1 X112.083 Y121.243 E15.22913
G1 X112.091 Y120.882 E15.246
G1 X112.144 Y120.631 E15.25852
G1 X112.303 Y120.4 E15.27212
G1 X112.576 Y120.134 E15.28996
G1 X112.866 Y120.07 E15.30191
G1 X113.117 Y120.01 E15.31052
G1 X113.408 Y120.01 E15.32019
G1 X113.702 Y120.098 E15.3304
G1 X113.922 Y120.231 E15.33895
G1 X114.131 Y120.438 E15.34874
G1 X114.285 Y120.714 E15.35925
G1 X114.346 Y121.176 E15.37475
G1 X114.287 Y121.475 E15.38488
G1 X114.159 Y121.721 E15.39411
G1 X114.052 Y121.844 E15.39953
G1 X114.052 Y121.969 E15.40369
G1 X114.261 Y122.257 E15.41552
G1 X114.339 Y122.527 E15.42487
G1 X114.343 Y122.838 E15.43522
G1 X114.26 Y123.148 E15.44589
G1 X114.052 Y123.432 E15.4576
G1 X114.052 Y123.571 E15.46222
G1 X114.249 Y123.818 E15.47273
G1 X114.352 Y124.253 E15.4876
G1 X114.353 Y129.999 E15.67871
G1 X123.552 Y130 E15.98467
G1 X123.552 Y128.684 E16.02844
G1 X123.585 Y128.016 E16.05068
G1 X123.688 Y127.308 E16.07448
G1 X123.853 Y126.637 E16.09746
G1 X124.094 Y125.96 E16.12136
G1 X124.377 Y125.353 E16.14364
G1 X124.957 Y124.362 E16.18183
G1 X125.131 Y123.952 E16.19664
G1 X125.252 Y123.545 E16.21077
G1 X125.326 Y123.132 E16.22472
G1 X125.349 Y122.734 E16.23798
G1 X125.327 Y122.27 E16.25343
G1 X125.029 Y119.515 E16.3456
G1 X124.785 Y116.758 E16.43765
G1 X124.596 Y113.997 E16.5297
G1 X124.461 Y111.233 E16.62174
G1 X124.38 Y108.467 E16.71378
G1 X124.352 Y105.704 E16.80568
G1 X124.352 Y101.181 E16.95612
G1 X124.11 Y101.09 E16.9659
G1 X124.003 Y100.951 E16.97404
G1 X123.92 Y101.082 E16.98123
G1 X123.642 Y101.2 E16.99334
G1 X123.39 Y101.2 E17.00283
G1 X123.138 Y101.2 E17.01224
G1 X122.886 Y101.2 E17.02158
G1 X122.634 Y101.2 E17.03084
G1 X122.382 Y101.2 E17.04004
G1 X122.13 Y101.2 E17.04918
G1 X121.878 Y101.2 E17.05823
G1 X121.626 Y101.2 E17.06722
G1 X121.374 Y101.2 E17.07613
G1 X121.122 Y101.2 E17.08497
G1 X120.87 Y101.2 E17.09373
G1 X120.618 Y101.2 E17.10242
G1 X120.366 Y101.2 E17.11106
G1 X120.114 Y101.2 E17.1196
G1 X119.862 Y101.2 E17.12809
G1 X119.61 Y101.2 E17.13649
G1 X119.43 Y101.109 E17.14399
G1 X119.306 Y100.951 E17.15316
G1 X119.207 Y101.092 E17.16102
G1 X118.971 Y101.189 E17.17051
G1 X118.766 Y101.2 E17.17734
G1 X114.352 Y105.114 E17.37355
G1 X114.353 Y117.37 E17.78119
G1 X114.281 Y117.523 E17.78681
G1 X112.453 Y119.357 E17.87315
G1 X112.236 Y119.688 E17.88908
G0 F12000 X112.389 Y119.841
G0 X112.003 Y120.616
G0 X111.957 Y120.956
G0 X111.955 Y121.842
;TYPE:WALL-INNER
G1 F600 X111.889 Y121.842 E17.89204
G1 X111.856 Y121.9 E17.89504
G1 X111.889 Y121.958 E17.89803
G1 X111.955 Y121.958 E17.901
G1 X111.989 Y121.9 E17.90402
G0 F12000 X111.951 Y122.425
G0 X111.955 Y123.442
G1 F600 X111.889 Y123.442 E17.90698
G1 X111.856 Y123.5 E17.90998
G1 X111.889 Y123.558 E17.91297
G1 X111.955 Y123.558 E17.91594
G1 X111.989 Y123.5 E17.91896
G0 F12000 X111.929 Y122.491
G0 X111.931 Y120.878
G0 X112.171 Y120.31
G0 X112.475 Y120.012
G0 X113.036 Y119.777
G0 X113.457 Y119.777
G0 X113.915 Y119.961
G0 X118.683 Y123.241
G0 X118.974 Y123.171
G1 F600 X118.935 Y122.674 E17.93554
G1 X118.983 Y122.19 E17.95171
G1 X119.107 Y121.738 E17.9673
G1 X119.311 Y121.321 E17.98274
G1 X119.598 Y120.915 E17.99928
G1 X119.944 Y120.582 E18.01525
G1 X120.349 Y120.313 E18.03142
G1 X120.851 Y120.101 E18.04955
G1 X121.298 Y120.002 E18.06477
G1 X121.787 Y119.983 E18.08105
G1 X122.256 Y120.048 E18.0968
G1 X122.748 Y120.209 E18.11402
G1 X123.172 Y120.445 E18.13016
G1 X123.536 Y120.732 E18.14557
G1 X123.855 Y121.101 E18.1618
G1 X124.074 Y121.467 E18.17598
G1 X124.197 Y121.69 E18.185
G1 X124.321 Y121.914 E18.19518
G1 X124.363 Y122.196 E18.20703
G1 X124.405 Y122.479 E18.21874
G1 X124.407 Y122.918 E18.23651
G1 X124.324 Y123.421 E18.25707
G1 X124.125 Y123.934 E18.27936
G1 X123.901 Y124.311 E18.2973
G1 X123.638 Y124.65 E18.31556
G1 X123.458 Y124.753 E18.32398
G1 X123.104 Y124.995 E18.33902
G1 X122.713 Y125.206 E18.3538
G1 X122.206 Y125.366 E18.37148
G1 X121.77 Y125.415 E18.38608
G1 X121.305 Y125.396 E18.40156
G1 X120.79 Y125.28 E18.41911
G1 X120.357 Y125.093 E18.4348
G1 X119.956 Y124.83 E18.45075
G1 X119.601 Y124.488 E18.46715
G1 X119.305 Y124.076 E18.48402
G1 X119.107 Y123.66 E18.49934
G1 X118.974 Y123.171 E18.5162
G0 F12000 X119.369 Y123.105
;TYPE:WALL-OUTER
G1 F600 X119.335 Y122.69 E18.53005
G1 X119.373 Y122.283 E18.54364
G1 X119.483 Y121.883 E18.55744
G1 X119.646 Y121.542 E18.57001
G1 X119.919 Y121.161 E18.5856
G1 X120.206 Y120.889 E18.59875
G1 X120.524 Y120.677 E18.61146
G1 X120.963 Y120.485 E18.6274
G1 X121.334 Y120.404 E18.64003
G1 X121.784 Y120.386 E18.65501
G1 X122.182 Y120.444 E18.66839
G1 X122.57 Y120.571 E18.68197
G1 X122.949 Y120.777 E18.69631
G1 X123.271 Y121.037 E18.71008
G1 X123.518 Y121.323 E18.72265
G1 X123.747 Y121.705 E18.73746
G1 X123.89 Y122.093 E18.75121
G1 X123.961 Y122.506 E18.76515
G1 X123.962 Y122.892 E18.77799
G1 X123.885 Y123.333 E18.79288
G1 X123.743 Y123.701 E18.806
G1 X123.527 Y124.061 E18.81996
G1 X123.283 Y124.348 E18.83249
G1 X122.946 Y124.623 E18.84696
G1 X122.57 Y124.828 E18.8612
G1 X122.137 Y124.969 E18.87635
G1 X121.738 Y125.016 E18.88971
G1 X121.339 Y124.997 E18.903
