;FLAVOR:Marlin
;TIME:1604
;Filament used: 0.890697m
;Layer height: 0.2
;MINX:98.718
;MINY:87.852
;MINZ:0.2
;MAXX:134.498
;MAXY:140.95
;MAXZ:31.2
;Generated with Cura_SteamEngine main
M140 S75
M105
M190 S75
M104 S230
M105
M109 S230
M82 ;absolute extrusion mode
; Ender 3 Custom Start G-code
G92 E0 ; Reset Extruder
G28 ; Home all axes
G29 ; BL-13 Bed Level
G92 E0 ; Reset Extruder
G1 Z2.0 F3000 ; Move Z Axis up little to prevent scratching of Heat Bed
G1 X235 Y0 Z2 F5000.0 ; Move to 235,0,2
G1 E40 F300  ;extrude 40mm for priming

G1 X235 Y0 Z0 F5000.0 ; Move to 235,0,0
G1 X225 Y10 Z0 F5000.0 ; Move to 225,10,0
G91 ;Relative positioning
G1 E-0.8 F1000 ;retract 0.8mm
G90 ;Absolute positioning
G1 X225 Y15 Z3 F5000.0 ; Move to 225,15,3
G1 X115 Y115 Z0 F5000.0 ; Move to 115,115,0
G92 E0
G92 E0
G1 F1800 E-1
;LAYER_COUNT:156
;LAYER:0
M107
G0 F12000 X102.566 Y91.591 Z0.2
G0 X99.699 Y101.553
;TYPE:SKIRT
G1 F1800 E0
G1 F600 X99.709 Y100.855 E0.02902
G1 X99.759 Y99.962 E0.06621
G1 X99.858 Y98.956 E0.10823
G1 X100.02 Y97.456 E0.17096
G1 X100.159 Y96.539 E0.20952
G1 X100.377 Y95.638 E0.24806
G1 X100.672 Y94.759 E0.28661
G1 X101.041 Y93.908 E0.32517
G1 X101.482 Y93.093 E0.3637
G1 X101.992 Y92.318 E0.40227
G1 X102.566 Y91.591 E0.44078
G1 X103.201 Y90.915 E0.47934
G1 X103.892 Y90.297 E0.51788
G1 X104.634 Y89.741 E0.55643
G1 X105.421 Y89.25 E0.59499
G1 X106.247 Y88.829 E0.63354
G1 X107.106 Y88.481 E0.67207
G1 X107.992 Y88.209 E0.7106
G1 X108.899 Y88.013 E0.74918
G1 X109.818 Y87.897 E0.78769
G1 X110.39 Y87.865 E0.81151
G1 X111.132 Y87.853 E0.84236
G1 X111.829 Y87.863 E0.87134
G1 X114.466 Y87.863 E0.98098
G1 X115.159 Y87.852 E1.00979
G1 X116.137 Y87.861 E1.05046
G1 X117.063 Y87.914 E1.08902
G1 X117.981 Y88.046 E1.12758
G1 X118.884 Y88.256 E1.16612
G1 X119.765 Y88.544 E1.20466
G1 X120.618 Y88.907 E1.2432
G1 X121.437 Y89.342 E1.28175
G1 X122.215 Y89.845 E1.32027
G1 X122.948 Y90.414 E1.35885
G1 X123.628 Y91.044 E1.39739
G1 X124.251 Y91.73 E1.43591
G1 X124.718 Y92.333 E1.46762
G1 X125.338 Y93.195 E1.51177
G1 X125.695 Y93.707 E1.53772
G1 X127.204 Y95.746 E1.64318
G1 X129.273 Y98.365 E1.78194
G1 X129.816 Y99.117 E1.82051
G1 X130.292 Y99.913 E1.85907
G1 X130.698 Y100.746 E1.89759
G1 X131.03 Y101.612 E1.93615
G1 X131.287 Y102.503 E1.97471
G1 X131.504 Y103.689 E2.02483
G1 X131.665 Y104.967 E2.07838
G1 X131.687 Y105.085 E2.08338
G1 X131.889 Y106.658 E2.14931
G1 X132.281 Y109.153 E2.25431
G1 X132.741 Y111.632 E2.35914
G1 X133.266 Y114.077 E2.46311
G1 X134.108 Y117.438 E2.60716
G1 X134.313 Y118.343 E2.64574
G1 X134.44 Y119.261 E2.68427
G1 X134.485 Y120.047 E2.717
G1 X134.498 Y120.805 E2.74852
G1 X134.497 Y125.379 E2.93868
G1 X134.487 Y126.082 E2.96791
G1 X134.434 Y127.008 E3.00647
G1 X134.301 Y127.925 E3.045
G1 X134.09 Y128.828 E3.08355
G1 X133.801 Y129.709 E3.1221
G1 X133.438 Y130.562 E3.16064
G1 X133.003 Y131.381 E3.19919
G1 X132.543 Y132.096 E3.23454
G1 X131.855 Y133.078 E3.28439
G1 X130.238 Y135.465 E3.40426
G1 X129.84 Y136.074 E3.4345
G1 X129.299 Y136.827 E3.47305
G1 X128.696 Y137.531 E3.51159
G1 X128.034 Y138.18 E3.55013
G1 X127.319 Y138.771 E3.5887
G1 X126.556 Y139.297 E3.62723
G1 X125.75 Y139.755 E3.66577
G1 X124.908 Y140.143 E3.70431
G1 X124.035 Y140.456 E3.74287
G1 X123.139 Y140.693 E3.7814
G1 X122.225 Y140.852 E3.81998
G1 X121.14 Y140.937 E3.86522
G1 X120.518 Y140.95 E3.89109
G1 X111.801 Y140.949 E4.2535
G1 X111.101 Y140.939 E4.2826
G1 X110.176 Y140.886 E4.32112
G1 X109.258 Y140.753 E4.35969
G1 X108.355 Y140.542 E4.39824
G1 X107.474 Y140.253 E4.43679
G1 X106.621 Y139.89 E4.47533
G1 X105.803 Y139.455 E4.51385
G1 X105.025 Y138.95 E4.55241
G1 X104.293 Y138.381 E4.59096
G1 X103.613 Y137.751 E4.6295
G1 X102.99 Y137.064 E4.66805
G1 X102.428 Y136.326 E4.70662
G1 X101.933 Y135.543 E4.74513
G1 X101.506 Y134.72 E4.78368
G1 X101.152 Y133.863 E4.82223
G1 X100.778 Y132.597 E4.87711
G1 X100.572 Y131.699 E4.91542
G1 X99.958 Y129.202 E5.02232
G1 X99.429 Y127.259 E5.10605
G1 X99.225 Y126.539 E5.13716
G1 X99.002 Y125.591 E5.17765
G1 X98.925 Y125.18 E5.19503
G1 X98.765 Y123.921 E5.2478
G1 X98.733 Y123.445 E5.26763
G1 X98.718 Y122.278 E5.31615
G1 X98.752 Y121.608 E5.34404
G1 X98.81 Y120.895 E5.37378
G1 X98.985 Y119.238 E5.44306
G1 X99.168 Y117.364 E5.52134
G1 X99.351 Y115.097 E5.6159
G1 X99.412 Y114.212 E5.65278
G1 X99.519 Y112.405 E5.72804
G1 X99.623 Y109.897 E5.8324
G1 X99.647 Y109.053 E5.8675
G1 X99.68 Y107.353 E5.93819
G1 X99.698 Y105.096 E6.03203
G1 X99.699 Y101.553 E6.17933
G1 F1800 E5.17933
G0 F12000 X100.122 Y109.932
G1 F1800 E6.17933
G1 F600 X100.147 Y109.068 E6.21527
G1 X100.18 Y107.367 E6.286
G1 X100.198 Y105.1 E6.38025
G1 X100.199 Y101.56 E6.52743
G1 X100.209 Y100.862 E6.55645
G1 X100.257 Y100.01 E6.59193
G1 X100.355 Y99.009 E6.63375
G1 X100.517 Y97.509 E6.69647
G1 X100.654 Y96.614 E6.73411
G1 X100.869 Y95.735 E6.77174
G1 X101.161 Y94.878 E6.80938
G1 X101.528 Y94.05 E6.84703
G1 X101.966 Y93.258 E6.88466
G1 X102.472 Y92.508 E6.92227
G1 X103.043 Y91.805 E6.95993
G1 X103.673 Y91.155 E6.99756
G1 X104.359 Y90.563 E7.03523
G1 X105.093 Y90.035 E7.07282
G1 X105.872 Y89.573 E7.11048
G1 X106.688 Y89.181 E7.14812
G1 X107.536 Y88.863 E7.18577
G1 X108.408 Y88.621 E7.22339
G1 X109.299 Y88.457 E7.26106
G1 X110.404 Y88.364 E7.30716
G1 X111.125 Y88.353 E7.33714
G1 X111.822 Y88.363 E7.36612
G1 X114.474 Y88.363 E7.47638
G1 X115.167 Y88.352 E7.50519
G1 X116.131 Y88.361 E7.54527
G1 X117.034 Y88.413 E7.58288
G1 X117.93 Y88.545 E7.62053
G1 X118.811 Y88.755 E7.65819
G1 X119.669 Y89.043 E7.69581
G1 X120.499 Y89.405 E7.73346
G1 X121.294 Y89.838 E7.7711
G1 X122.047 Y90.34 E7.80872
G1 X122.753 Y90.907 E7.84637
G1 X123.406 Y91.534 E7.88401
G1 X124.002 Y92.216 E7.92166
G1 X124.312 Y92.625 E7.943
G1 X125.023 Y93.615 E7.99367
G1 X125.311 Y94.029 E8.01464
G1 X126.794 Y96.034 E8.11832
G1 X128.881 Y98.675 E8.25827
G1 X129.41 Y99.41 E8.29592
G1 X129.872 Y100.188 E8.33354
G1 X130.264 Y101.004 E8.37117
G1 X130.583 Y101.852 E8.40884
G1 X130.825 Y102.724 E8.44646
G1 X131.008 Y103.752 E8.48988
G1 X131.163 Y104.984 E8.5415
G1 X131.191 Y105.148 E8.54842
G1 X131.394 Y106.727 E8.6146
G1 X131.792 Y109.264 E8.72137
G1 X132.249 Y111.723 E8.82535
G1 X132.777 Y114.181 E8.92988
G1 X133.626 Y117.57 E9.07513
G1 X133.825 Y118.453 E9.11276
G1 X133.946 Y119.35 E9.15039
G1 X133.985 Y120.057 E9.17983
G1 X133.998 Y120.805 E9.21093
G1 X133.997 Y125.372 E9.40081
G1 X133.987 Y126.075 E9.43004
G1 X133.934 Y126.979 E9.46769
G1 X133.802 Y127.874 E9.5053
G1 X133.591 Y128.755 E9.54296
G1 X133.303 Y129.613 E9.58059
G1 X132.941 Y130.443 E9.61824
G1 X132.507 Y131.237 E9.65586
G1 X132.134 Y131.809 E9.68425
G1 X131.438 Y132.802 E9.73466
G1 X129.793 Y135.231 E9.85663
G1 X129.421 Y135.8 E9.88489
G1 X128.893 Y136.535 E9.92252
G1 X128.302 Y137.221 E9.96016
G1 X127.652 Y137.852 E9.99782
G1 X126.95 Y138.423 E10.03544
G1 X126.2 Y138.929 E10.07306
G1 X125.408 Y139.368 E10.11071
G1 X124.58 Y139.735 E10.14836
G1 X123.723 Y140.028 E10.18602
G1 X122.844 Y140.244 E10.22365
G1 X121.949 Y140.381 E10.26129
G1 X121.127 Y140.437 E10.29554
G1 X120.518 Y140.45 E10.32087
G1 X111.809 Y140.449 E10.68295
G1 X111.109 Y140.439 E10.71205
G1 X110.205 Y140.386 E10.7497
G1 X109.309 Y140.254 E10.78736
G1 X108.429 Y140.043 E10.82498
G1 X107.57 Y139.755 E10.86265
G1 X106.741 Y139.392 E10.90027
G1 X105.946 Y138.958 E10.93793
G1 X105.193 Y138.456 E10.97555
G1 X104.488 Y137.889 E11.01317
G1 X103.835 Y137.261 E11.05083
G1 X103.24 Y136.579 E11.08846
G1 X102.707 Y135.847 E11.12611
G1 X102.242 Y135.071 E11.16372
G1 X101.846 Y134.256 E11.20139
G1 X101.524 Y133.41 E11.23902
G1 X101.265 Y132.485 E11.27896
G1 X101.063 Y131.605 E11.3165
G1 X100.438 Y129.063 E11.42533
G1 X99.911 Y127.127 E11.50875
G1 X99.706 Y126.403 E11.54003
G1 X99.493 Y125.498 E11.57868
G1 X99.416 Y125.087 E11.59607
G1 X99.264 Y123.888 E11.64632
G1 X99.232 Y123.412 E11.66615
G1 X99.218 Y122.299 E11.71243
G1 X99.251 Y121.645 E11.73965
G1 X99.308 Y120.947 E11.76877
G1 X99.483 Y119.29 E11.83804
G1 X99.662 Y117.455 E11.91469
G1 X99.853 Y115.087 E12.01346
G1 X99.911 Y114.246 E12.04851
G1 X100.016 Y112.464 E12.12273
G1 X100.052 Y111.73 E12.15328
G1 X100.122 Y109.932 E12.22809
G1 F1800 E11.22809
;MESH:Arm Shoulder R.stl
G0 F12000 X109.783 Y105.695
G0 X111.001 Y100.951
;TYPE:WALL-OUTER
G1 F1800 E12.22809
G1 F600 X110.999 Y99.249 E12.31357
G1 X111.066 Y98.967 E12.32964
G1 F1800 E11.32964
G0 F12000 X112.263 Y98.967
G0 X114.433 Y98.969
G0 X115.627 Y98.969
G1 F1800 E12.32964
G1 F600 X115.696 Y99.3 E12.34851
G1 X115.699 Y100.951 E12.43129
G0 F12000 X115.687 Y101.801
G0 X119.973 Y117.566
G0 X120.25 Y117.454
;TYPE:WALL-INNER
G1 F600 X120.248 Y105.294 E12.83573
G1 X116.061 Y101.583 E13.02182
G1 X115.895 Y101.562 E13.02738
G1 X115.694 Y101.47 E13.03474
G1 X115.416 Y101.601 E13.04496
G1 X111.349 Y101.6 E13.18023
G1 X111.049 Y101.488 E13.19088
G1 X111.049 Y105.71 E13.3313
G1 X111.02 Y108.482 E13.4235
G1 X110.939 Y111.257 E13.51584
G1 X110.803 Y114.027 E13.60808
G1 X110.607 Y116.872 E13.70293
G1 X110.369 Y119.56 E13.79268
G1 X110.271 Y120.463 E13.82297
G1 X110.173 Y121.367 E13.85352
G1 X110.19 Y121.769 E13.86901
G1 X110.149 Y122.111 E13.88367
G1 X110.107 Y122.453 E13.89788
G1 X110.097 Y122.713 E13.9085
G1 X110.12 Y123.095 E13.92419
G1 X110.182 Y123.442 E13.93861
G1 X110.29 Y123.8 E13.95391
G1 X110.442 Y124.163 E13.96998
G1 X110.733 Y124.655 E13.9935
G1 X110.696 Y124.686 E13.99531
G1 X110.967 Y125.147 E14.0131
G1 X111.268 Y125.788 E14.03665
G1 X111.524 Y126.501 E14.06185
G1 X111.702 Y127.212 E14.08622
G1 X111.814 Y127.986 E14.11224
G1 X111.848 Y128.665 E14.13485
G1 X111.848 Y129.6 E14.16595
G1 X120.248 Y129.599 E14.44533
G1 X120.255 Y124.043 E14.63012
G1 X120.387 Y123.665 E14.64344
G1 X120.499 Y123.496 E14.65018
G1 X120.367 Y123.3 E14.65804
G1 X120.259 Y122.918 E14.67125
G1 X120.257 Y122.503 E14.68505
G1 X120.374 Y122.105 E14.69885
G1 X120.506 Y121.898 E14.70701
G1 X120.344 Y121.626 E14.71754
G1 X120.243 Y121.195 E14.73227
G1 X120.327 Y120.597 E14.75235
G1 X120.529 Y120.217 E14.76667
G1 X120.86 Y119.882 E14.78233
G1 X121.238 Y119.692 E14.7964
G1 X121.628 Y119.609 E14.80966
G1 X121.981 Y119.612 E14.8214
G1 X122.369 Y119.741 E14.835
G1 X120.405 Y117.771 E14.92752
G1 X120.25 Y117.454 E14.93926
G0 F12000 X120.648 Y117.371
;TYPE:WALL-OUTER
G1 F600 X120.648 Y105.114 E15.34693
G1 X116.227 Y101.195 E15.54343
G1 X115.976 Y101.17 E15.55182
G1 X115.806 Y101.09 E15.55891
G1 X115.699 Y100.951 E15.56702
G1 X115.615 Y101.082 E15.57422
G1 X115.337 Y101.201 E15.58563
G1 X111.349 Y101.2 E15.71827
G1 X111.126 Y101.11 E15.72721
G1 X111.001 Y100.951 E15.73646
G1 X110.902 Y101.093 E15.74438
G1 X110.648 Y101.189 E15.75447
G1 X110.649 Y105.706 E15.90471
G1 X110.62 Y108.47 E15.99664
G1 X110.539 Y111.237 E16.08871
G1 X110.404 Y114 E16.18072
G1 X110.209 Y116.836 E16.27527
G1 X109.971 Y119.517 E16.36479
G1 X109.674 Y122.27 E16.45689
G1 X109.649 Y122.7 E16.47121
G1 X109.674 Y123.132 E16.4856
G1 X109.747 Y123.545 E16.49955
G1 X109.869 Y123.952 E16.51368
G1 X110.043 Y124.363 E16.52853
G1 X110.618 Y125.344 E16.56635
G1 X110.912 Y125.975 E16.5895
G1 X111.147 Y126.636 E16.61284
G1 X111.319 Y127.336 E16.63681
G1 X111.414 Y128.006 E16.65932
G1 X111.448 Y128.685 E16.68193
G1 X111.448 Y130 E16.72567
G1 X120.648 Y129.999 E17.03166
G1 X120.653 Y124.124 E17.22706
G1 X120.75 Y123.833 E17.23727
G1 X120.948 Y123.572 E17.24816
G1 X120.948 Y123.432 E17.25282
G1 X120.735 Y123.142 E17.26479
G1 X120.658 Y122.853 E17.27473
G1 X120.657 Y122.57 E17.28415
G1 X120.748 Y122.241 E17.2955
G1 X120.948 Y121.974 E17.30659
G1 X120.948 Y121.83 E17.31138
G1 X120.73 Y121.517 E17.32407
G1 X120.65 Y121.182 E17.33553
G1 X120.713 Y120.734 E17.35057
G1 X120.855 Y120.458 E17.3609
G1 X121.098 Y120.211 E17.37242
G1 X121.345 Y120.078 E17.38175
G1 X121.595 Y120.009 E17.39038
G1 X121.885 Y120.011 E17.40002
G1 X122.134 Y120.072 E17.40855
G1 X122.196 Y120.07 E17.41075
G1 X122.477 Y120.165 E17.42352
G1 X122.667 Y120.398 E17.43825
G1 X122.857 Y120.631 E17.45327
G1 X122.909 Y120.881 E17.46574
G1 X122.916 Y121.242 E17.48261
G1 X122.807 Y121.477 E17.49346
G1 X122.751 Y121.542 E17.4965
G1 X122.549 Y121.829 E17.50817
G1 X122.549 Y121.969 E17.51283
G1 X122.74 Y122.234 E17.52369
G1 X122.911 Y122.496 E17.53623
G1 X122.914 Y122.876 E17.55399
G1 X122.792 Y123.108 E17.56493
G1 X122.739 Y123.166 E17.56769
G1 X122.549 Y123.431 E17.57853
G1 X122.549 Y123.569 E17.58312
G1 X122.74 Y123.834 E17.59399
G1 X122.911 Y124.096 E17.60653
G1 X122.914 Y124.476 E17.62428
G1 X122.792 Y124.708 E17.63523
G1 X122.739 Y124.766 E17.63798
G1 X122.548 Y125.03 E17.64882
G1 X122.548 Y125.733 E17.6722
G1 X123.548 Y125.733 E17.70546
G1 X123.548 Y125.461 E17.7148
G1 X123.548 Y125.189 E17.72473
G1 X123.548 Y124.917 E17.73525
G1 X123.469 Y124.524 E17.75255
G1 X123.466 Y124.021 E17.77605
G1 X123.548 Y123.574 E17.79427
G1 X123.526 Y123.207 E17.80717
G1 X123.469 Y122.924 E17.81922
G1 X123.466 Y122.421 E17.84272
G1 X123.548 Y121.974 E17.86094
G1 X123.523 Y121.559 E17.87563
G1 X123.47 Y121.29 E17.88712
G1 X123.465 Y120.802 E17.90993
G1 X123.445 Y120.524 E17.92353
G1 X123.445 Y120.399 E17.92984
G1 X123.264 Y120.205 E17.94303
G1 X123.082 Y120.01 E17.9559
G1 X122.9 Y119.815 E17.96836
G1 X122.796 Y119.718 E17.97496
G1 X122.549 Y119.357 E17.99245
G1 X120.719 Y117.523 E18.07863
G1 X120.648 Y117.371 E18.08421
G0 F12000 X119.948 Y117.371
G0 X122.828 Y120.31
G0 X123.045 Y120.823
G0 X123.11 Y121.839
;TYPE:WALL-INNER
G1 F600 X123.044 Y121.839 E18.08718
G1 X123.011 Y121.897 E18.09019
G1 X123.044 Y121.955 E18.09319
G1 X123.11 Y121.955 E18.09617
G1 X123.144 Y121.897 E18.0992
G0 F12000 X123.111 Y123.442
G1 F600 X123.045 Y123.442 E18.10216
G1 X123.012 Y123.5 E18.10516
G1 X123.045 Y123.558 E18.10816
G1 X123.111 Y123.558 E18.11112
G1 X123.145 Y123.5 E18.11414
G0 F12000 X123.07 Y120.88
G0 X122.828 Y120.31
G0 X122.527 Y120.013
G0 X121.966 Y119.778
G0 X112.18 Y119.919
G0 X112.293 Y120.192
G1 F600 X112.794 Y120.034 E18.13161
G1 X113.261 Y119.981 E18.14724
G1 X113.729 Y120.006 E18.16283
G1 X114.188 Y120.116 E18.17853
G1 X114.641 Y120.306 E18.19487
G1 X115.042 Y120.572 E18.21087
G1 X115.398 Y120.909 E18.22718
G1 X115.695 Y121.323 E18.24412
G1 X115.892 Y121.745 E18.25961
G1 X116.023 Y122.212 E18.27574
G1 X116.066 Y122.688 E18.29164
G1 X116.023 Y123.171 E18.30777
G1 X115.895 Y123.657 E18.32448
G1 X115.691 Y124.079 E18.34007
G1 X115.399 Y124.487 E18.35676
G1 X115.056 Y124.817 E18.37259
G1 X114.658 Y125.083 E18.38851
G1 X114.163 Y125.298 E18.40646
G1 X113.679 Y125.398 E18.4229
G1 X113.204 Y125.414 E18.43871
G1 X112.733 Y125.347 E18.45453
G1 X112.255 Y125.192 E18.47125
G1 X111.827 Y124.957 E18.48749
G1 X111.486 Y124.684 E18.50201
G1 X111.18 Y124.34 E18.51733
G1 X111.138 Y124.368 E18.51922
G1 X110.859 Y123.908 E18.54132
G1 X110.675 Y123.416 E18.56263
G1 X110.594 Y122.919 E18.58306
G1 X110.595 Y122.481 E18.60087
G1 X110.637 Y122.196 E18.61266
G1 X110.679 Y121.91 E18.62468
G1 X110.83 Y121.648 E18.6369
G1 X110.981 Y121.385 E18.64829
G1 X111.132 Y121.123 E18.65878
G1 X111.448 Y120.749 E18.67506
G1 X111.85 Y120.432 E18.69209
G1 X112.293 Y120.192 E18.70885
G0 F12000 X112.43 Y120.572
;TYPE:WALL-OUTER
G1 F600 X112.855 Y120.434 E18.72371
G1 X113.29 Y120.384 E18.73827
G1 X113.691 Y120.408 E18.75164
G1 X114.08 Y120.501 E18.76494
G1 X114.464 Y120.668 E18.77887
G1 X114.794 Y120.886 E18.79202
G1 X115.085 Y121.164 E18.80541
G1 X115.346 Y121.525 E18.82022
G1 X115.516 Y121.881 E18.83334
G1 X115.63 Y122.289 E18.84743
G1 X115.666 Y122.69 E18.86082
G1 X115.629 Y123.104 E18.87465
G1 X115.509 Y123.536 E18.88956
G1 X115.354 Y123.858 E18.90145
G1 X115.081 Y124.239 E18.91704
G1 X114.794 Y124.511 E18.93019
G1 X114.478 Y124.722 E18.94283
G1 X114.061 Y124.906 E18.95799
G1 X113.658 Y124.998 E18.97174
G1 X113.23 Y125.015 E18.98598
G1 X112.818 Y124.956 E18.99982
G1 X112.43 Y124.829 E19.0134
G1 X112.066 Y124.632 E19.02717
G1 X111.729 Y124.363 E19.04151
G1 X111.481 Y124.076 E19.05413
G1 X111.264 Y123.719 E19.06802
G1 X111.109 Y123.304 E19.08276
G1 X111.04 Y122.918 E19.0958
G1 X111.041 Y122.485 E19.1102
G1 X111.11 Y122.09 E19.12354
G1 X111.261 Y121.693 E19.13766
G1 X111.473 Y121.339 E19.15139
G1 X111.744 Y121.025 E19.16518
G1 X112.07 Y120.766 E19.17903
