;FLAVOR:Marlin
;TIME:3210
;Filament used: 1.93519m
;Layer height: 0.2
;MINX:83.845
;MINY:89.217
;MINZ:0.2
;MAXX:159.325
;MAXY:145.843
;MAXZ:22.8
;Generated with Cura_SteamEngine main
M140 S75
M105
M190 S75
M104 S230
M105
M109 S230
M82 ;absolute extrusion mode
; Ender 3 Custom Start G-code
G92 E0 ; Reset Extruder
G28 ; Home all axes
G29 ; BL-13 Bed Level
G92 E0 ; Reset Extruder
G1 Z2.0 F3000 ; Move Z Axis up little to prevent scratching of Heat Bed
G1 X235 Y0 Z2 F5000.0 ; Move to 235,0,2
G1 E40 F300  ;extrude 40mm for priming

G1 X235 Y0 Z0 F5000.0 ; Move to 235,0,0
G1 X225 Y10 Z0 F5000.0 ; Move to 225,10,0
G91 ;Relative positioning
G1 E-0.8 F1000 ;retract 0.8mm
G90 ;Absolute positioning
G1 X225 Y15 Z3 F5000.0 ; Move to 225,15,3
G1 X115 Y115 Z0 F5000.0 ; Move to 115,115,0
G92 E0
G92 E0
G1 F1800 E-1
;LAYER_COUNT:114
;LAYER:0
M107
G0 F12000 X91.827 Y92.321 Z0.2
G0 X88.625 Y100.483
;TYPE:SKIRT
G1 F1800 E0
G1 F600 X88.635 Y99.808 E0.02807
G1 X88.689 Y98.882 E0.06663
G1 X88.822 Y97.965 E0.10515
G1 X89.034 Y97.062 E0.14372
G1 X89.323 Y96.181 E0.18226
G1 X89.686 Y95.328 E0.22081
G1 X90.122 Y94.51 E0.25934
G1 X90.627 Y93.732 E0.29791
G1 X91.197 Y93.001 E0.33644
G1 X91.827 Y92.321 E0.37498
G1 X92.514 Y91.698 E0.41354
G1 X93.252 Y91.137 E0.45208
G1 X94.036 Y90.642 E0.49063
G1 X94.859 Y90.216 E0.52916
G1 X95.716 Y89.862 E0.56771
G1 X96.601 Y89.584 E0.60628
G1 X97.506 Y89.382 E0.64483
G1 X98.425 Y89.26 E0.68337
G1 X99.351 Y89.217 E0.72191
G1 X100.344 Y89.26 E0.76323
G1 X101.552 Y89.37 E0.81366
G1 X114.46 Y90.776 E1.35349
G1 X117.054 Y91.022 E1.46182
G1 X119.55 Y91.188 E1.56582
G1 X122.087 Y91.284 E1.67137
G1 X124.234 Y91.309 E1.76064
G1 X146.38 Y91.31 E2.68136
G1 X147.078 Y91.321 E2.71039
G1 X148.004 Y91.376 E2.74895
G1 X148.921 Y91.51 E2.78748
G1 X149.824 Y91.723 E2.82606
G1 X150.704 Y92.012 E2.86456
G1 X151.557 Y92.377 E2.90314
G1 X152.375 Y92.813 E2.94168
G1 X153.152 Y93.319 E2.98023
G1 X153.883 Y93.889 E3.01876
G1 X154.562 Y94.521 E3.05733
G1 X155.184 Y95.208 E3.09586
G1 X155.745 Y95.947 E3.13443
G1 X156.239 Y96.731 E3.17296
G1 X156.665 Y97.555 E3.21152
G1 X157.017 Y98.412 E3.25004
G1 X157.295 Y99.297 E3.28861
G1 X157.495 Y100.202 E3.32714
G1 X157.641 Y101.454 E3.37955
G1 X157.702 Y102.524 E3.42411
G1 X157.735 Y103.273 E3.45528
G1 X157.915 Y105.809 E3.56098
G1 X158.164 Y108.291 E3.66468
G1 X158.487 Y110.798 E3.76977
G1 X158.894 Y113.381 E3.87849
G1 X159.143 Y114.807 E3.93867
G1 X159.264 Y115.726 E3.97721
G1 X159.299 Y116.338 E4.00269
G1 X159.314 Y116.986 E4.02964
G1 X159.314 Y118.483 E4.09188
G1 X159.307 Y118.967 E4.112
G1 X159.325 Y121.203 E4.20497
G1 X159.308 Y121.692 E4.22531
G1 X159.315 Y123.716 E4.30946
G1 X159.304 Y124.604 E4.34638
G1 X159.251 Y125.529 E4.3849
G1 X159.118 Y126.447 E4.42347
G1 X158.906 Y127.35 E4.46203
G1 X158.618 Y128.231 E4.50056
G1 X158.254 Y129.084 E4.53912
G1 X157.819 Y129.902 E4.57764
G1 X157.315 Y130.68 E4.61618
G1 X156.745 Y131.412 E4.65475
G1 X156.115 Y132.092 E4.69329
G1 X155.428 Y132.715 E4.73185
G1 X154.69 Y133.276 E4.77039
G1 X153.907 Y133.772 E4.80892
G1 X153.084 Y134.199 E4.84747
G1 X152.227 Y134.553 E4.88602
G1 X151.342 Y134.831 E4.92459
G1 X150.437 Y135.033 E4.96314
G1 X149.519 Y135.156 E5.00165
G1 X148.903 Y135.193 E5.0273
G1 X148.246 Y135.209 E5.05463
G1 X144.336 Y135.209 E5.21719
G1 X141.717 Y135.246 E5.32608
G1 X139.22 Y135.352 E5.42999
G1 X136.706 Y135.53 E5.53477
G1 X134.165 Y135.782 E5.64093
G1 X131.689 Y136.099 E5.74471
G1 X129.175 Y136.494 E5.85051
G1 X126.684 Y136.957 E5.95585
G1 X124.233 Y137.484 E6.06008
G1 X121.817 Y138.076 E6.1635
G1 X119.347 Y138.756 E6.27001
G1 X116.923 Y139.498 E6.3754
G1 X114.549 Y140.299 E6.47957
G1 X112.176 Y141.174 E6.58472
G1 X109.826 Y142.118 E6.69001
G1 X107.544 Y143.111 E6.79348
G1 X104.576 Y144.515 E6.92998
G1 X104.17 Y144.717 E6.94884
G1 X103.324 Y145.095 E6.98736
G1 X102.447 Y145.398 E7.02594
G1 X101.548 Y145.625 E7.06448
G1 X100.633 Y145.774 E7.10303
G1 X99.709 Y145.843 E7.14155
G1 X98.782 Y145.832 E7.18009
G1 X97.859 Y145.741 E7.21865
G1 X96.948 Y145.571 E7.25718
G1 X96.054 Y145.324 E7.29574
G1 X95.185 Y145 E7.3343
G1 X94.348 Y144.603 E7.37281
G1 X93.547 Y144.135 E7.41138
G1 X92.79 Y143.599 E7.44995
G1 X92.082 Y143.001 E7.48848
G1 X91.428 Y142.343 E7.52705
G1 X90.834 Y141.632 E7.56557
G1 X90.302 Y140.872 E7.60413
G1 X89.839 Y140.069 E7.64267
G1 X89.446 Y139.23 E7.68119
G1 X89.127 Y138.359 E7.71975
G1 X88.884 Y137.464 E7.75831
G1 X88.719 Y136.552 E7.79684
G1 X88.626 Y135.455 E7.84261
G1 X88.551 Y133.112 E7.94008
G1 X88.542 Y132.05 E7.98423
G1 X88.553 Y131.094 E8.02398
G1 X88.609 Y129.691 E8.08235
G1 X88.649 Y128.968 E8.11246
G1 X88.728 Y125.125 E8.27227
G1 X88.729 Y106.358 E9.05251
G1 X88.692 Y103.71 E9.16261
G1 X88.63 Y101.762 E9.24364
G1 X88.625 Y100.483 E9.29681
G0 F12000 X89.125 Y100.49
G1 F600 X89.135 Y99.815 E9.32488
G1 X89.188 Y98.911 E9.36253
G1 X89.321 Y98.016 E9.40015
G1 X89.533 Y97.136 E9.43778
G1 X89.821 Y96.277 E9.47545
G1 X90.184 Y95.448 E9.51307
G1 X90.619 Y94.654 E9.55071
G1 X91.122 Y93.901 E9.58836
G1 X91.689 Y93.196 E9.62597
G1 X92.317 Y92.543 E9.66364
G1 X92.999 Y91.949 E9.70124
G1 X93.732 Y91.416 E9.73892
G1 X94.508 Y90.951 E9.77653
G1 X95.323 Y90.556 E9.81419
G1 X96.169 Y90.234 E9.85182
G1 X97.04 Y89.989 E9.88944
G1 X97.93 Y89.821 E9.92709
G1 X98.831 Y89.732 E9.96473
G1 X99.736 Y89.723 E10.00236
G1 X100.299 Y89.758 E10.02581
G1 X101.498 Y89.867 E10.07587
G1 X114.43 Y91.276 E10.6167
G1 X116.977 Y91.517 E10.72306
G1 X119.531 Y91.687 E10.82948
G1 X122.101 Y91.784 E10.93641
G1 X124.228 Y91.809 E11.02484
G1 X146.373 Y91.81 E11.94553
G1 X147.071 Y91.821 E11.97455
G1 X147.974 Y91.875 E12.01216
G1 X148.87 Y92.009 E12.04982
G1 X149.75 Y92.221 E12.08746
G1 X150.608 Y92.511 E12.12511
G1 X151.437 Y92.874 E12.16274
G1 X152.23 Y93.31 E12.20036
G1 X152.983 Y93.813 E12.23801
G1 X153.688 Y94.381 E12.27565
G1 X154.34 Y95.01 E12.31331
G1 X154.934 Y95.693 E12.35094
G1 X155.465 Y96.426 E12.38858
G1 X155.93 Y97.203 E12.42622
G1 X156.324 Y98.018 E12.46386
G1 X156.645 Y98.864 E12.50148
G1 X156.89 Y99.736 E12.53913
G1 X157.057 Y100.625 E12.57674
G1 X157.142 Y101.483 E12.61259
G1 X157.202 Y102.546 E12.65685
G1 X157.235 Y103.295 E12.68802
G1 X157.415 Y105.825 E12.79347
G1 X157.67 Y108.369 E12.89977
G1 X157.991 Y110.863 E13.00431
G1 X158.396 Y113.433 E13.11248
G1 X158.651 Y114.893 E13.1741
G1 X158.767 Y115.791 E13.21174
G1 X158.799 Y116.353 E13.23515
G1 X158.814 Y116.986 E13.26147
G1 X158.814 Y118.476 E13.32342
G1 X158.807 Y118.967 E13.34383
G1 X158.825 Y121.207 E13.43697
G1 X158.808 Y121.685 E13.45685
G1 X158.815 Y123.718 E13.54137
G1 X158.804 Y124.597 E13.57792
G1 X158.751 Y125.5 E13.61553
G1 X158.618 Y126.396 E13.65319
G1 X158.407 Y127.276 E13.69081
G1 X158.119 Y128.135 E13.72848
G1 X157.757 Y128.964 E13.76609
G1 X157.323 Y129.759 E13.80374
G1 X156.82 Y130.512 E13.84139
G1 X156.253 Y131.217 E13.87901
G1 X155.625 Y131.87 E13.91667
G1 X154.943 Y132.465 E13.9543
G1 X154.211 Y132.997 E13.99192
G1 X153.435 Y133.463 E14.02955
G1 X152.62 Y133.858 E14.06721
G1 X151.774 Y134.18 E14.10484
G1 X150.903 Y134.426 E14.14247
G1 X150.013 Y134.595 E14.18013
G1 X148.887 Y134.694 E14.22713
G1 X148.246 Y134.709 E14.25378
G1 X144.329 Y134.709 E14.41663
G1 X141.724 Y134.746 E14.52495
G1 X139.161 Y134.855 E14.6316
G1 X136.66 Y135.032 E14.73584
G1 X134.118 Y135.284 E14.84204
G1 X131.618 Y135.604 E14.94683
G1 X129.076 Y136.003 E15.05381
G1 X126.625 Y136.459 E15.15746
G1 X124.121 Y136.998 E15.26395
G1 X121.67 Y137.598 E15.36886
G1 X119.205 Y138.276 E15.47514
G1 X116.764 Y139.024 E15.58129
G1 X114.395 Y139.823 E15.68523
G1 X111.984 Y140.712 E15.79206
G1 X109.632 Y141.657 E15.89745
G1 X107.343 Y142.653 E16.00123
G1 X104.343 Y144.071 E16.13919
G1 X103.947 Y144.269 E16.15759
G1 X103.12 Y144.637 E16.19523
G1 X102.263 Y144.931 E16.2329
G1 X101.385 Y145.148 E16.2705
G1 X100.49 Y145.287 E16.30815
G1 X99.586 Y145.346 E16.34582
G1 X98.681 Y145.325 E16.38345
G1 X97.782 Y145.224 E16.42106
G1 X96.894 Y145.045 E16.45873
G1 X96.026 Y144.787 E16.49637
G1 X95.184 Y144.454 E16.53402
G1 X94.375 Y144.049 E16.57163
G1 X93.605 Y143.573 E16.60927
G1 X92.88 Y143.031 E16.6469
G1 X92.205 Y142.428 E16.68453
G1 X91.586 Y141.767 E16.72218
G1 X91.028 Y141.054 E16.75982
G1 X90.535 Y140.295 E16.79745
G1 X90.111 Y139.495 E16.83509
G1 X89.759 Y138.661 E16.87273
G1 X89.482 Y137.799 E16.91037
G1 X89.282 Y136.916 E16.94801
G1 X89.161 Y136.018 E16.98568
G1 X89.126 Y135.438 E17.00984
G1 X89.051 Y133.108 E17.10676
G1 X89.042 Y132.046 E17.15092
G1 X89.053 Y131.101 E17.19021
G1 X89.102 Y129.846 E17.24242
G1 X89.148 Y129.005 E17.27744
G1 X89.228 Y125.135 E17.43837
G1 X89.229 Y106.351 E18.21932
G1 X89.191 Y103.689 E18.33
G1 X89.13 Y101.747 E18.41078
G1 X89.125 Y100.49 E18.46304
G1 F1800 E17.46304
;MESH:Arm_a R 50mm.stl
G0 F12000 X98.71 Y101.764
G0 X99.898 Y101.763
G0 X107.756 Y107.685
G0 X107.921 Y107.913
G0 X109.005 Y112.791
G1 F1800 E18.46304
G0 F12000 X108.706 Y112.81
;TYPE:WALL-INNER
G1 F600 X108.796 Y113.834 E18.49723
G1 X108.701 Y114.391 E18.51603
G1 X108.595 Y114.572 E18.523
G1 X108.448 Y114.703 E18.52955
G1 X108.102 Y114.836 E18.54188
G1 X105.287 Y114.849 E18.63551
G1 X104.754 Y114.859 E18.65324
G1 X104.49 Y114.764 E18.66257
G1 X104.315 Y114.619 E18.67013
G1 X104.165 Y114.267 E18.68286
G1 X104.156 Y113.738 E18.70045
G1 X104.155 Y111.611 E18.7712
G1 X104.139 Y110.75 E18.79984
G1 X104.139 Y108.613 E18.87092
G1 X104.129 Y108.001 E18.89128
G1 X104.235 Y107.781 E18.8994
G1 X104.346 Y107.659 E18.90488
G1 X104.62 Y107.509 E18.91527
G1 X104.793 Y107.472 E18.92116
G1 X107.553 Y107.461 E19.01296
G1 X107.721 Y107.505 E19.01873
G1 X107.911 Y107.632 E19.02633
G1 X108.11 Y107.913 E19.03779
G1 X108.189 Y108.336 E19.0521
G1 X108.311 Y108.896 E19.07116
G1 X108.4 Y109.458 E19.09009
G1 X108.471 Y109.996 E19.10813
G1 X108.541 Y110.64 E19.12968
G1 X108.634 Y111.742 E19.16646
G1 X108.706 Y112.81 E19.20207
G0 F12000 X108.315 Y112.942
;TYPE:WALL-OUTER
G1 F600 X108.391 Y113.824 E19.23151
G1 X108.314 Y114.287 E19.24712
G1 X108.079 Y114.435 E19.25636
G1 X104.783 Y114.456 E19.36599
G1 X104.705 Y114.427 E19.36875
G1 X104.568 Y114.207 E19.37737
G1 X104.556 Y113.732 E19.39318
G1 X104.555 Y111.604 E19.46395
G1 X104.539 Y110.743 E19.4926
G1 X104.539 Y108.606 E19.56367
G1 X104.53 Y108.079 E19.5812
G1 X104.602 Y107.966 E19.58566
G1 X104.795 Y107.874 E19.59277
G1 X107.527 Y107.861 E19.68364
G1 X107.629 Y107.916 E19.68749
G1 X107.738 Y108.07 E19.69377
G1 X107.796 Y108.412 E19.70531
G1 X107.922 Y108.992 E19.72505
G1 X108.004 Y109.51 E19.74249
G1 X108.073 Y110.04 E19.76027
G1 X108.143 Y110.674 E19.78148
G1 X108.235 Y111.769 E19.81803
G1 X108.315 Y112.942 E19.85713
G0 F12000 X109.011 Y112.88
G0 X118.35 Y123.645
G0 X118.495 Y123.91
;TYPE:WALL-INNER
G1 F600 X118.695 Y123.86 E19.86399
G1 X147.965 Y123.859 E20.83752
G1 X147.965 Y123.259 E20.85747
G1 X147.964 Y122.659 E20.87743
G1 X146.966 Y122.659 E20.91062
G1 X146.624 Y122.553 E20.92253
G1 X146.392 Y122.283 E20.93437
G1 X146.317 Y121.958 E20.94546
G1 X146.318 Y119.015 E21.04335
G1 X146.459 Y118.72 E21.05422
G1 X146.653 Y118.569 E21.0624
G1 X146.907 Y118.459 E21.07161
G1 X147.965 Y118.459 E21.1068
G1 X147.964 Y117.259 E21.14671
G1 X146.872 Y117.258 E21.18303
G1 X146.681 Y117.188 E21.18979
G1 X146.493 Y117.029 E21.19798
G1 X146.358 Y116.779 E21.20743
G1 X146.319 Y116.615 E21.21304
G1 X146.317 Y102.659 E21.67722
G1 X118.73 Y102.659 E22.59477
G1 X99.975 Y100.615 E23.22225
G1 X99.975 Y101.513 E23.25212
G1 X100.079 Y101.859 E23.26414
G1 X100.079 Y131.216 E24.24056
G1 X100.019 Y131.478 E24.24949
G1 X99.893 Y131.579 E24.25487
G1 X99.893 Y132.905 E24.29897
G1 X99.958 Y133.158 E24.30766
G1 X99.959 Y134.104 E24.33912
G1 X108.492 Y129.414 E24.66297
G1 X109.148 Y129.047 E24.68797
G1 X118.495 Y123.91 E25.04271
G0 F12000 X118.686 Y124.259
;TYPE:WALL-OUTER
G1 F600 X148.365 Y124.259 E26.02984
G1 X148.365 Y123.259 E26.0631
G1 X148.364 Y122.259 E26.09636
G1 X146.966 Y122.259 E26.14286
G1 X146.852 Y122.224 E26.14683
G1 X146.717 Y121.958 E26.15675
G1 X146.723 Y119.06 E26.25314
G1 X146.765 Y118.978 E26.2562
G1 X146.979 Y118.859 E26.26434
G1 X148.365 Y118.859 E26.31044
G1 X148.364 Y116.859 E26.37696
G1 X146.923 Y116.855 E26.42489
G1 X146.808 Y116.783 E26.4294
G1 X146.717 Y116.578 E26.43686
G1 X146.717 Y102.259 E26.91311
G1 X118.742 Y102.258 E27.84357
G1 X99.575 Y100.169 E28.48484
G1 X99.575 Y101.652 E28.53416
G1 X99.679 Y101.859 E28.54187
G1 X99.679 Y131.29 E29.52075
G1 X99.492 Y131.419 E29.5283
G1 X99.493 Y133.004 E29.58102
G1 X99.558 Y133.114 E29.58527
G1 X99.559 Y134.78 E29.64068
G1 X108.688 Y129.763 E29.98715
G1 X109.341 Y129.397 E30.01204
G1 X118.686 Y124.259 E30.36674
G0 F12000 X118.645 Y123.508
;TYPE:SKIN
G1 F600 X146.374 Y123.503 E31.17373
G1 X146.843 Y123.464 E31.18895
G1 X147.574 Y123.468 E31.21472
G1 X147.574 Y123.259 E31.22202
G1 X147.573 Y123.05 E31.22932
G1 X146.906 Y123.045 E31.25284
G1 X146.661 Y122.947 E31.26201
G1 X146.415 Y122.848 E31.27078
G1 X146.242 Y122.647 E31.27914
G1 X146.069 Y122.446 E31.28706
G1 X145.965 Y121.996 E31.3005
G1 X145.966 Y118.933 E31.38964
G1 X146.116 Y118.543 E31.4018
G1 X146.467 Y118.267 E31.41479
G1 X146.862 Y118.068 E31.42895
G1 X147.574 Y118.068 E31.45382
G1 X147.573 Y117.65 E31.46842
G1 X146.844 Y117.649 E31.49388
G1 X146.498 Y117.496 E31.50652
G1 X146.207 Y117.24 E31.51835
G1 X146.007 Y116.859 E31.53087
G1 X145.964 Y116.653 E31.537
G1 X145.961 Y103.016 E31.93387
G1 X118.66 Y103.01 E32.7284
G1 X100.331 Y101.012 E33.26498
G1 X100.332 Y101.421 E33.27688
G1 X100.367 Y101.506 E33.27956
G1 X100.432 Y101.83 E33.28918
G1 X100.431 Y131.253 E34.14546
G1 X100.341 Y131.632 E34.1568
G1 X100.25 Y131.726 E34.16061
G1 X100.249 Y132.847 E34.19323
G1 X100.311 Y133.117 E34.20129
G1 X100.315 Y133.502 E34.2125
G1 X108.297 Y129.115 E34.47757
G1 X108.971 Y128.737 E34.50006
G1 X118.294 Y123.611 E34.80969
G1 X118.645 Y123.508 E34.82034
G0 F12000 X109.069 Y112.883
G1 F600 X109.152 Y113.84 E34.84829
G1 X109.051 Y114.442 E34.86606
G1 X108.982 Y114.627 E34.8718
G1 X108.735 Y114.94 E34.88341
G1 X108.354 Y115.141 E34.89594
G1 X108.121 Y115.192 E34.90288
G1 X105.328 Y115.204 E34.98417
G1 X104.703 Y115.214 E35.00236
G1 X104.331 Y115.081 E35.01386
G1 X104.098 Y114.889 E35.02264
G1 X103.969 Y114.705 E35.02918
G1 X103.811 Y114.328 E35.04108
G1 X103.8 Y113.745 E35.05805
G1 X103.8 Y111.632 E35.11954
G1 X103.783 Y110.758 E35.14498
G1 X103.783 Y108.618 E35.20726
G1 X103.776 Y108.098 E35.2224
G1 X103.81 Y107.863 E35.22931
G1 X103.928 Y107.602 E35.23764
G1 X104.119 Y107.382 E35.24612
G1 X104.495 Y107.172 E35.25866
G1 X104.746 Y107.119 E35.26612
G1 X107.591 Y107.106 E35.34892
G1 X107.865 Y107.175 E35.35714
G1 X108.163 Y107.376 E35.3676
G1 X108.455 Y107.796 E35.38249
G1 X108.539 Y108.268 E35.39644
G1 X108.664 Y108.84 E35.41348
G1 X108.754 Y109.411 E35.43031
G1 X108.823 Y109.939 E35.4458
G1 X108.895 Y110.59 E35.46486
G1 X108.989 Y111.705 E35.49743
G1 X109.069 Y112.883 E35.53179
G0 F12000 X109.023 Y113.941
G0 X108.959 Y114.308
G0 X100.839 Y133.013
G1 F600 X100.424 Y132.597 E35.54889
G0 F12000 X100.424 Y132.102
G1 F600 X101.159 Y132.837 E35.57914
G0 F12000 X101.479 Y132.662
G1 F600 X100.509 Y131.692 E35.61906
G0 F12000 X100.601 Y131.289
G1 F600 X101.797 Y132.486 E35.66831
G0 F12000 X102.117 Y132.31
G1 F600 X100.609 Y130.803 E35.73035
G0 F12000 X100.609 Y130.308
G1 F600 X102.437 Y132.135 E35.80557
G0 F12000 X102.756 Y131.96
G1 F600 X100.609 Y129.813 E35.89393
G0 F12000 X100.609 Y129.318
G1 F600 X103.075 Y131.784 E35.99543
G0 F12000 X103.395 Y131.608
G1 F600 X100.609 Y128.823 E36.11007
G0 F12000 X100.609 Y128.328
G1 F600 X103.714 Y131.433 E36.23786
G0 F12000 X104.034 Y131.258
G1 F600 X100.609 Y127.833 E36.37883
G0 F12000 X100.609 Y127.338
G1 F600 X104.353 Y131.082 E36.53292
G0 F12000 X104.673 Y130.906
G1 F600 X100.609 Y126.843 E36.70016
G0 F12000 X100.609 Y126.348
G1 F600 X104.992 Y130.731 E36.88056
G0 F12000 X105.312 Y130.555
G1 F600 X100.609 Y125.853 E37.0741
G0 F12000 X100.609 Y125.358
G1 F600 X105.631 Y130.379 E37.28077
G0 F12000 X105.95 Y130.204
G1 F600 X100.609 Y124.863 E37.50059
G0 F12000 X100.609 Y124.368
G1 F600 X106.27 Y130.029 E37.73358
G0 F12000 X106.589 Y129.853
