;FLAVOR:Marlin
;TIME:3860
;Filament used: 1.99228m
;Layer height: 0.2
;MINX:101.68
;MINY:89.117
;MINZ:0.2
;MAXX:142.284
;MAXY:145.817
;MAXZ:68.4
;Generated with Cura_SteamEngine main
M140 S75
M105
M190 S75
M104 S230
M105
M109 S230
M82 ;absolute extrusion mode
; Ender 3 Custom Start G-code
G92 E0 ; Reset Extruder
G28 ; Home all axes
G29 ; BL-13 Bed Level
G92 E0 ; Reset Extruder
G1 Z2.0 F3000 ; Move Z Axis up little to prevent scratching of Heat Bed
G1 X235 Y0 Z2 F5000.0 ; Move to 235,0,2
G1 E40 F300  ;extrude 40mm for priming

G1 X235 Y0 Z0 F5000.0 ; Move to 235,0,0
G1 X225 Y10 Z0 F5000.0 ; Move to 225,10,0
G91 ;Relative positioning
G1 E-0.8 F1000 ;retract 0.8mm
G90 ;Absolute positioning
G1 X225 Y15 Z3 F5000.0 ; Move to 225,15,3
G1 X115 Y115 Z0 F5000.0 ; Move to 115,115,0
G92 E0
G92 E0
G1 F1800 E-1
;LAYER_COUNT:342
;LAYER:0
M107
G0 F12000 X105.799 Y92.906 Z0.2
G0 X103.222 Y100.423
;TYPE:SKIRT
G1 F1800 E0
G1 F600 X103.233 Y99.712 E0.02956
G1 X103.288 Y98.786 E0.06813
G1 X103.421 Y97.869 E0.10665
G1 X103.634 Y96.966 E0.14523
G1 X103.923 Y96.085 E0.18377
G1 X104.287 Y95.233 E0.22229
G1 X104.724 Y94.415 E0.26085
G1 X105.229 Y93.637 E0.29941
G1 X105.799 Y92.906 E0.33795
G1 X106.43 Y92.227 E0.37649
G1 X107.118 Y91.605 E0.41505
G1 X107.856 Y91.044 E0.45359
G1 X108.64 Y90.549 E0.49214
G1 X109.464 Y90.124 E0.53068
G1 X110.321 Y89.771 E0.56922
G1 X111.206 Y89.493 E0.60779
G1 X112.111 Y89.292 E0.64633
G1 X113.03 Y89.17 E0.68487
G1 X113.755 Y89.13 E0.71506
G1 X114.502 Y89.117 E0.74612
G1 X130.827 Y89.117 E1.42483
G1 X131.679 Y89.128 E1.46026
G1 X132.605 Y89.181 E1.49882
G1 X133.522 Y89.314 E1.53734
G1 X134.425 Y89.526 E1.57591
G1 X135.306 Y89.814 E1.61444
G1 X136.159 Y90.177 E1.65298
G1 X136.978 Y90.613 E1.69156
G1 X137.756 Y91.117 E1.7301
G1 X138.487 Y91.686 E1.76861
G1 X139.167 Y92.317 E1.80718
G1 X139.79 Y93.003 E1.84571
G1 X140.352 Y93.741 E1.88427
G1 X140.848 Y94.524 E1.92281
G1 X141.274 Y95.348 E1.96137
G1 X141.628 Y96.204 E1.99988
G1 X141.907 Y97.089 E2.03846
G1 X142.109 Y97.994 E2.07701
G1 X142.232 Y98.913 E2.11556
G1 X142.271 Y99.575 E2.14313
G1 X142.284 Y100.197 E2.169
G1 X142.283 Y104.313 E2.34012
G1 X142.273 Y105.014 E2.36927
G1 X142.22 Y105.94 E2.40783
G1 X142.067 Y106.96 E2.45071
G1 X141.585 Y109.382 E2.55338
G1 X141.157 Y111.883 E2.65887
G1 X140.801 Y114.387 E2.76402
G1 X140.52 Y116.86 E2.8675
G1 X140.304 Y119.41 E2.9739
G1 X140.162 Y121.923 E3.07854
G1 X140.091 Y124.452 E3.18373
G1 X140.091 Y126.956 E3.28783
G1 X140.164 Y129.511 E3.3941
G1 X140.345 Y132.649 E3.52478
G1 X140.368 Y133.271 E3.55066
G1 X140.373 Y134.45 E3.59967
G1 X140.363 Y135.2 E3.63086
G1 X140.311 Y136.126 E3.66942
G1 X140.179 Y137.044 E3.70798
G1 X139.968 Y137.947 E3.74653
G1 X139.681 Y138.828 E3.78505
G1 X139.318 Y139.681 E3.82359
G1 X138.884 Y140.5 E3.86213
G1 X138.38 Y141.279 E3.9007
G1 X137.812 Y142.011 E3.93922
G1 X137.182 Y142.692 E3.97779
G1 X136.496 Y143.315 E4.01632
G1 X135.759 Y143.878 E4.05488
G1 X134.976 Y144.374 E4.09341
G1 X134.153 Y144.802 E4.13198
G1 X133.297 Y145.157 E4.17051
G1 X132.413 Y145.436 E4.20905
G1 X131.508 Y145.639 E4.24761
G1 X130.589 Y145.763 E4.28616
G1 X129.954 Y145.802 E4.31261
G1 X129.298 Y145.817 E4.33989
G1 X114.564 Y145.816 E4.95246
G1 X113.823 Y145.805 E4.98327
G1 X112.898 Y145.751 E5.02179
G1 X111.98 Y145.618 E5.06036
G1 X111.078 Y145.406 E5.09888
G1 X110.197 Y145.117 E5.13743
G1 X109.344 Y144.753 E5.17599
G1 X108.526 Y144.318 E5.2145
G1 X107.748 Y143.813 E5.25307
G1 X107.016 Y143.243 E5.29164
G1 X106.337 Y142.612 E5.33018
G1 X105.714 Y141.925 E5.36873
G1 X105.153 Y141.187 E5.40727
G1 X104.658 Y140.404 E5.44579
G1 X104.231 Y139.58 E5.48437
G1 X103.878 Y138.723 E5.5229
G1 X103.599 Y137.839 E5.56144
G1 X103.398 Y136.934 E5.59999
G1 X103.276 Y136.015 E5.63853
G1 X103.234 Y135.231 E5.67117
G1 X103.223 Y134.555 E5.69928
G1 X103.222 Y100.423 E7.11832
G0 F12000 X103.722 Y100.43
G1 F600 X103.733 Y99.719 E7.14789
G1 X103.787 Y98.816 E7.1855
G1 X103.921 Y97.92 E7.22316
G1 X104.133 Y97.04 E7.26079
G1 X104.421 Y96.182 E7.29842
G1 X104.785 Y95.353 E7.33606
G1 X105.22 Y94.559 E7.3737
G1 X105.724 Y93.807 E7.41134
G1 X106.291 Y93.102 E7.44895
G1 X106.919 Y92.45 E7.48659
G1 X107.602 Y91.855 E7.52425
G1 X108.335 Y91.324 E7.56188
G1 X109.112 Y90.859 E7.59953
G1 X109.927 Y90.464 E7.63718
G1 X110.773 Y90.143 E7.6748
G1 X111.645 Y89.898 E7.71246
G1 X112.535 Y89.731 E7.75011
G1 X113.765 Y89.63 E7.80142
G1 X114.502 Y89.617 E7.83206
G1 X130.827 Y89.617 E8.51078
G1 X131.672 Y89.628 E8.54591
G1 X132.576 Y89.681 E8.58356
G1 X133.471 Y89.813 E8.62117
G1 X134.352 Y90.024 E8.65883
G1 X135.21 Y90.312 E8.69646
G1 X136.04 Y90.675 E8.73413
G1 X136.834 Y91.109 E8.77175
G1 X137.587 Y91.612 E8.80939
G1 X138.293 Y92.179 E8.84704
G1 X138.945 Y92.806 E8.88465
G1 X139.54 Y93.488 E8.92228
G1 X140.073 Y94.22 E8.95992
G1 X140.539 Y94.997 E8.99759
G1 X140.934 Y95.811 E9.03521
G1 X141.256 Y96.657 E9.07284
G1 X141.502 Y97.528 E9.11047
G1 X141.671 Y98.418 E9.14813
G1 X141.771 Y99.589 E9.19699
G1 X141.784 Y100.197 E9.22228
G1 X141.783 Y104.306 E9.39311
G1 X141.773 Y105.007 E9.42226
G1 X141.72 Y105.911 E9.45991
G1 X141.577 Y106.862 E9.49989
G1 X141.091 Y109.305 E9.60345
G1 X140.664 Y111.799 E9.70864
G1 X140.309 Y114.297 E9.81354
G1 X140.017 Y116.868 E9.92112
G1 X139.807 Y119.34 E10.02426
G1 X139.661 Y121.916 E10.13153
G1 X139.591 Y124.438 E10.23642
G1 X139.591 Y126.971 E10.34173
G1 X139.664 Y129.517 E10.44763
G1 X139.846 Y132.677 E10.57922
G1 X139.868 Y133.287 E10.6046
G1 X139.873 Y134.444 E10.6527
G1 X139.863 Y135.194 E10.68389
G1 X139.811 Y136.097 E10.72149
G1 X139.679 Y136.993 E10.75915
G1 X139.469 Y137.874 E10.7968
G1 X139.182 Y138.732 E10.83441
G1 X138.821 Y139.562 E10.87204
G1 X138.387 Y140.357 E10.9097
G1 X137.885 Y141.111 E10.94736
G1 X137.319 Y141.817 E10.98498
G1 X136.692 Y142.47 E11.02262
G1 X136.011 Y143.066 E11.06024
G1 X135.279 Y143.599 E11.09789
G1 X134.503 Y144.066 E11.13554
G1 X133.689 Y144.462 E11.17318
G1 X132.843 Y144.785 E11.21083
G1 X131.972 Y145.032 E11.24847
G1 X131.083 Y145.201 E11.28609
G1 X129.938 Y145.302 E11.33388
G1 X129.298 Y145.317 E11.36049
G1 X114.572 Y145.316 E11.97273
G1 X113.831 Y145.305 E12.00354
G1 X112.927 Y145.251 E12.04119
G1 X112.032 Y145.119 E12.0788
G1 X111.151 Y144.907 E12.11648
G1 X110.293 Y144.619 E12.1541
G1 X109.464 Y144.256 E12.19173
G1 X108.67 Y143.821 E12.22937
G1 X107.917 Y143.318 E12.26702
G1 X107.212 Y142.751 E12.30463
G1 X106.559 Y142.123 E12.3423
G1 X105.964 Y141.441 E12.37992
G1 X105.432 Y140.708 E12.41758
G1 X104.967 Y139.932 E12.45519
G1 X104.572 Y139.117 E12.49284
G1 X104.25 Y138.271 E12.53048
G1 X104.004 Y137.399 E12.56815
G1 X103.837 Y136.51 E12.60575
G1 X103.734 Y135.223 E12.65943
G1 X103.723 Y134.547 E12.68754
G1 X103.722 Y100.43 E14.10596
G1 F1800 E13.10596
;MESH:Arm_b R 70mm.stl
G0 F12000 X113.307 Y100.431
G0 X114.305 Y103.716
;TYPE:WALL-OUTER
G1 F1800 E14.10596
G1 F600 X114.305 Y104.999 E14.17722
G1 X114.305 Y106.282 E14.24849
G1 X114.305 Y107.565 E14.31975
G1 X114.305 Y108.848 E14.39101
G1 X114.305 Y110.131 E14.46239
G1 X114.305 Y111.414 E14.53376
G1 X114.305 Y112.697 E14.60513
G1 X114.305 Y113.98 E14.6765
G1 X114.305 Y115.263 E14.74797
G1 X114.305 Y116.546 E14.81945
G1 X114.305 Y117.829 E14.89093
G1 X114.306 Y119.112 E14.96251
G1 X114.306 Y120.395 E15.03409
G1 X114.306 Y121.678 E15.10568
G1 X114.306 Y122.961 E15.17726
G1 X114.306 Y124.244 E15.24895
G1 X114.306 Y125.527 E15.32064
G1 X114.306 Y126.81 E15.39233
G1 X114.306 Y128.093 E15.46402
G1 X114.306 Y129.376 E15.53582
G1 X114.306 Y130.659 E15.60762
G1 X114.306 Y131.942 E15.67941
G1 X114.307 Y133.225 E15.75121
G0 F12000 X114.622 Y133.876
;TYPE:WALL-INNER
G1 F600 X114.622 Y134.417 E15.7737
G1 X121.798 Y134.417 E16.07204
G1 X128.974 Y134.417 E16.37039
G1 X128.973 Y133.917 E16.39122
G1 X121.83 Y133.917 E16.68819
G1 X114.687 Y133.917 E16.98516
G1 X114.622 Y133.876 E16.98836
G0 F12000 X114.236 Y133.433
;TYPE:WALL-OUTER
G1 F600 X114.204 Y133.708 E16.99977
G1 X114.172 Y133.983 E17.00972
G1 X114.172 Y134.867 E17.03912
G1 X129.424 Y134.867 E17.5464
G1 X129.423 Y133.467 E17.59297
G1 X114.688 Y133.467 E18.08306
G1 X114.45 Y133.384 E18.09278
G1 X114.307 Y133.225 E18.10347
G1 X114.236 Y133.433 E18.11445
G1 F1800 E17.11445
G0 F12000 X114.389 Y133.63
G0 X126.027 Y133.687
G0 X126.027 Y132.602
G0 X125.423 Y104.32
G0 X126.495 Y103.671
G0 X126.027 Y102.767
G1 F1800 E18.11445
G0 F12000 X126.027 Y103.067
;TYPE:WALL-INNER
G1 F600 X126.245 Y103.107 E18.12182
G1 X126.422 Y103.214 E18.1287
G1 X126.615 Y103.503 E18.14026
G1 X126.676 Y103.767 E18.14927
G1 X126.676 Y104.267 E18.1659
G1 X130.934 Y104.267 E18.30752
G1 X130.934 Y102.367 E18.37072
G1 X130.934 Y100.467 E18.43391
G1 X114.571 Y100.467 E18.97815
G1 X114.571 Y103.105 E19.06589
G1 X114.739 Y103.067 E19.07162
G1 X126.027 Y103.067 E19.44706
G0 F12000 X126.159 Y103.516
;TYPE:WALL-OUTER
G1 F600 X126.276 Y103.713 E19.45468
G1 X126.276 Y104.667 E19.48641
G1 X131.334 Y104.667 E19.65464
G1 X131.334 Y102.367 E19.73114
G1 X131.334 Y100.067 E19.80763
G1 X114.171 Y100.067 E20.37848
G1 X114.171 Y103.299 E20.48598
G1 X114.305 Y103.716 E20.50542
G1 X114.551 Y103.536 E20.51896
G1 X114.739 Y103.467 E20.52562
G1 X126.079 Y103.467 E20.90279
G1 X126.159 Y103.516 E20.90591
G0 F12000 X126.374 Y102.772
;TYPE:SKIN
G1 F600 X126.664 Y102.949 E20.9158
G1 X126.94 Y103.35 E20.92996
G1 X127.028 Y103.729 E20.94129
G1 X127.032 Y103.911 E20.94659
G1 X130.578 Y103.911 E21.04978
G1 X130.578 Y102.367 E21.09472
G1 X130.578 Y100.823 E21.13965
G1 X114.927 Y100.823 E21.59514
G1 X114.927 Y102.711 E21.65008
G1 X126.055 Y102.713 E21.97394
G1 X126.374 Y102.772 E21.98338
G0 F12000 X130.402 Y101.199
G1 F600 X130.201 Y100.998 E21.99165
G0 F12000 X129.706 Y100.998
G1 F600 X130.402 Y101.693 E22.02028
G0 F12000 X130.402 Y102.188
G1 F600 X129.211 Y100.998 E22.06927
G0 F12000 X128.716 Y100.998
G1 F600 X130.402 Y102.683 E22.13864
G0 F12000 X130.402 Y103.178
G1 F600 X128.221 Y100.998 E22.22839
G0 F12000 X127.726 Y100.998
G1 F600 X130.402 Y103.673 E22.3385
G0 F12000 X129.969 Y103.736
G1 F600 X127.231 Y100.998 E22.45119
G0 F12000 X126.736 Y100.998
G1 F600 X129.474 Y103.736 E22.56388
G0 F12000 X128.979 Y103.736
G1 F600 X126.241 Y100.998 E22.67657
G0 F12000 X125.746 Y100.998
G1 F600 X128.484 Y103.736 E22.78926
G0 F12000 X127.989 Y103.736
G1 F600 X125.251 Y100.998 E22.90195
G0 F12000 X124.756 Y100.998
G1 F600 X126.348 Y102.589 E22.96745
G0 F12000 X125.804 Y102.54
G1 F600 X124.261 Y100.998 E23.03093
G0 F12000 X123.767 Y100.998
G1 F600 X125.309 Y102.54 E23.0944
G0 F12000 X124.814 Y102.54
G1 F600 X123.272 Y100.998 E23.15786
G0 F12000 X122.777 Y100.998
G1 F600 X124.318 Y102.539 E23.22129
G0 F12000 X123.823 Y102.539
G1 F600 X122.282 Y100.998 E23.28471
G0 F12000 X121.787 Y100.998
G1 F600 X123.328 Y102.539 E23.34813
G0 F12000 X122.832 Y102.538
G1 F600 X121.292 Y100.998 E23.41152
G0 F12000 X120.797 Y100.998
G1 F600 X122.337 Y102.538 E23.4749
G0 F12000 X121.842 Y102.538
G1 F600 X120.302 Y100.998 E23.53828
G0 F12000 X119.807 Y100.998
G1 F600 X121.347 Y102.538 E23.60166
G0 F12000 X120.852 Y102.538
G1 F600 X119.312 Y100.998 E23.66505
G0 F12000 X118.817 Y100.998
G1 F600 X120.357 Y102.538 E23.72843
G0 F12000 X119.862 Y102.538
G1 F600 X118.322 Y100.998 E23.79181
G0 F12000 X117.827 Y100.998
G1 F600 X119.366 Y102.537 E23.85515
G0 F12000 X118.871 Y102.537
G1 F600 X117.332 Y100.998 E23.91849
G0 F12000 X116.837 Y100.998
G1 F600 X118.376 Y102.537 E23.98183
G0 F12000 X117.881 Y102.536
G1 F600 X116.342 Y100.998 E24.04515
G0 F12000 X115.847 Y100.998
G1 F600 X117.386 Y102.536 E24.10847
G0 F12000 X116.891 Y102.536
G1 F600 X115.352 Y100.998 E24.17179
G0 F12000 X115.101 Y101.242
G1 F600 X116.395 Y102.536 E24.22505
G0 F12000 X115.9 Y102.536
G1 F600 X115.101 Y101.737 E24.25794
G0 F12000 X115.101 Y102.232
G1 F600 X115.405 Y102.536 E24.27045
G0 F12000 X126.12 Y102.828
G0 X126.541 Y102.979
G0 X127.122 Y103.363
G1 F600 X127.494 Y103.736 E24.28578
G0 F12000 X127.494 Y103.667
;MESH:NONMESH
G0 F600 X127.494 Y103.667 Z0.4
G0 F12000 X126.404 Y102.864
G0 X126.247 Y103.308
;TIME_ELAPSED:72.241461
;LAYER:1
M140 S80
M106 S127.5
;TYPE:WALL-INNER
;MESH:Arm_b R 70mm.stl
G1 F3251.7 X126.366 Y103.443 E24.29177
G1 X126.46 Y103.767 E24.30299
G1 X126.46 Y104.367 E24.32294
G1 X131.149 Y104.367 E24.4789
G1 X131.149 Y102.367 E24.54542
G1 X131.149 Y100.367 E24.61194
G1 X114.336 Y100.367 E25.17114
G1 X114.337 Y103.569 E25.27764
G1 X114.739 Y103.167 E25.29655
G1 X125.86 Y103.167 E25.66644
G1 X126.073 Y103.205 E25.67363
G1 X126.247 Y103.308 E25.68036
G1 F1800 E24.68036
G0 F13800 X126.247 Y102.867
G0 X114.311 Y103.339
G0 X114.311 Y133.595
G0 X114.607 Y134.037
G1 F1800 E25.68036
G0 F13800 X114.337 Y133.43
G1 F3251.7 X114.338 Y134.567 E25.71817
G1 X129.841 Y134.567 E26.23381
G1 X129.84 Y133.767 E26.26041
G1 X114.739 Y133.767 E26.76268
G1 X114.337 Y133.43 E26.78012
G1 F1800 E25.78012
G0 F13800 X114.607 Y134.037
G0 X114.311 Y133.595
G0 X114.237 Y103.767
G1 F1800 E26.78012
G0 F13800 X113.987 Y103.767
;TYPE:WALL-OUTER
G1 F3251.7 X113.987 Y105.733 E26.86202
G1 X113.987 Y107.699 E26.94392
G1 X113.987 Y109.665 E27.02582
G1 X113.987 Y111.631 E27.10772
G1 X113.987 Y113.597 E27.18979
G1 X113.987 Y115.563 E27.27185
G1 X113.987 Y117.529 E27.35392
G1 X113.987 Y119.495 E27.43614
G1 X113.987 Y121.461 E27.51837
G1 X113.987 Y123.427 E27.6006
G1 X113.987 Y125.393 E27.68282
G1 X113.987 Y127.359 E27.76521
G1 X113.987 Y129.325 E27.84761
G1 X113.987 Y131.291 E27.93
G1 X113.988 Y133.257 E28.01239
G1 X113.971 Y133.558 E28.02459
G1 X113.954 Y133.863 E28.03608
G1 X113.937 Y134.167 E28.04663
G1 X113.937 Y134.792 E28.06742
G1 X114.135 Y134.967 E28.07621
G1 X130.241 Y134.967 E28.6119
G1 X130.24 Y133.367 E28.66511
G1 X114.739 Y133.367 E29.18068
G1 X114.49 Y133.211 E29.19172
G1 X114.49 Y131.248 E29.27399
G1 X114.49 Y129.285 E29.35625
G1 X114.49 Y127.322 E29.43852
G1 X114.49 Y125.359 E29.52078
G1 X114.49 Y123.396 E29.60288
G1 X114.49 Y121.433 E29.68499
G1 X114.49 Y119.47 E29.76709
G1 X114.49 Y117.507 E29.84919
G1 X114.49 Y115.544 E29.93113
G1 X114.49 Y113.581 E30.01307
G1 X114.49 Y111.618 E30.095
G1 X114.49 Y109.655 E30.17678
G1 X114.49 Y107.692 E30.25856
G1 X114.49 Y105.729 E30.34033
G1 X114.489 Y103.766 E30.42211
G1 X114.739 Y103.567 E30.43406
G1 X125.916 Y103.567 E30.80581
G1 X126.029 Y103.659 E30.81066
G1 X126.06 Y103.767 E30.81439
G1 X126.06 Y104.767 E30.84765
G1 X131.549 Y104.767 E31.03022
G1 X131.549 Y102.367 E31.11004
G1 X131.549 Y99.967 E31.18987
G1 X114.135 Y99.967 E31.76906
G1 X113.936 Y100.143 E31.7779
G1 X113.936 Y102.764 E31.86507
G1 X113.948 Y103.014 E31.87364
G1 X113.961 Y103.265 E31.88278
G1 X113.974 Y103.516 E31.89245
G1 X113.987 Y103.767 E31.90265
G0 F13800 X114.237 Y103.767
G0 X114.311 Y103.339
G0 X126.198 Y102.867
G0 X126.198 Y102.871
;TYPE:SKIN
G1 F1625.8 X126.477 Y103.031 E31.91201
G1 X126.677 Y103.263 E31.92093
G1 X126.81 Y103.717 E31.93469
G1 X126.816 Y104.011 E31.94325
G1 X130.793 Y104.011 E32.05899
G1 X130.793 Y102.367 E32.10684
G1 X130.793 Y100.723 E32.15468
G1 X114.692 Y100.723 E32.62326
G1 X114.694 Y102.811 E32.68403
G1 X125.888 Y102.813 E33.00981
G1 X126.198 Y102.871 E33.01898
G0 F13800 X126.198 Y102.867
G0 X130.617 Y103.505
G1 F1625.8 X130.286 Y103.836 E33.03261
G0 F13800 X129.791 Y103.836
G1 F1625.8 X130.617 Y103.01 E33.0666
G0 F13800 X130.617 Y102.515
G1 F1625.8 X129.296 Y103.836 E33.12097
G0 F13800 X128.801 Y103.836
G1 F1625.8 X130.617 Y102.02 E33.19571
G0 F13800 X130.617 Y101.525
G1 F1625.8 X128.306 Y103.836 E33.29083
G0 F13800 X127.811 Y103.836
G1 F1625.8 X130.617 Y101.03 E33.40632
G0 F13800 X130.255 Y100.897
G1 F1625.8 X127.316 Y103.836 E33.52728
G0 F13800 X126.978 Y103.679
G1 F1625.8 X129.76 Y100.897 E33.64178
G0 F13800 X129.265 Y100.897
G1 F1625.8 X126.868 Y103.294 E33.74043
G0 F13800 X126.674 Y102.993
G1 F1625.8 X128.77 Y100.897 E33.8267
G0 F13800 X128.275 Y100.897
G1 F1625.8 X126.391 Y102.781 E33.90424
G0 F13800 X126.017 Y102.66
G1 F1625.8 X127.78 Y100.897 E33.9768
G0 F13800 X127.285 Y100.897
G1 F1625.8 X125.541 Y102.641 E34.04858
G0 F13800 X125.046 Y102.641
G1 F1625.8 X126.79 Y100.897 E34.12035
G0 F13800 X126.295 Y100.897
G1 F1625.8 X124.551 Y102.641 E34.19213
G0 F13800 X124.057 Y102.64
