;FLAVOR:Marlin
;TIME:3262
;Filament used: 1.93829m
;Layer height: 0.2
;MINX:83.845
;MINY:89.128
;MINZ:0.2
;MAXX:159.314
;MAXY:145.76
;MAXZ:22.8
;Generated with Cura_SteamEngine main
M140 S75
M105
M190 S75
M104 S230
M105
M109 S230
M82 ;absolute extrusion mode
; Ender 3 Custom Start G-code
G92 E0 ; Reset Extruder
G28 ; Home all axes
G29 ; BL-13 Bed Level
G92 E0 ; Reset Extruder
G1 Z2.0 F3000 ; Move Z Axis up little to prevent scratching of Heat Bed
G1 X235 Y0 Z2 F5000.0 ; Move to 235,0,2
G1 E40 F300  ;extrude 40mm for priming

G1 X235 Y0 Z0 F5000.0 ; Move to 235,0,0
G1 X225 Y10 Z0 F5000.0 ; Move to 225,10,0
G91 ;Relative positioning
G1 E-0.8 F1000 ;retract 0.8mm
G90 ;Absolute positioning
G1 X225 Y15 Z3 F5000.0 ; Move to 225,15,3
G1 X115 Y115 Z0 F5000.0 ; Move to 115,115,0
G92 E0
G92 E0
G1 F1800 E-1
;LAYER_COUNT:114
;LAYER:0
M107
G0 F12000 X92.031 Y92.021 Z0.2
G0 X88.543 Y103.373
;TYPE:SKIRT
G1 F1800 E0
G1 F600 X88.544 Y102.442 E0.03871
G1 X88.558 Y101.547 E0.07592
G1 X88.591 Y100.368 E0.12496
G1 X88.631 Y99.415 E0.16461
G1 X88.71 Y98.491 E0.20317
G1 X88.869 Y97.578 E0.2417
G1 X89.106 Y96.682 E0.28023
G1 X89.42 Y95.809 E0.3188
G1 X89.807 Y94.967 E0.35733
G1 X90.265 Y94.161 E0.39587
G1 X90.792 Y93.397 E0.43446
G1 X91.382 Y92.682 E0.473
G1 X92.031 Y92.021 E0.51151
G1 X92.735 Y91.417 E0.55008
G1 X93.489 Y90.877 E0.58863
G1 X94.286 Y90.404 E0.62717
G1 X95.121 Y90.001 E0.66571
G1 X95.988 Y89.671 E0.70428
G1 X96.879 Y89.418 E0.74279
G1 X97.79 Y89.242 E0.78136
G1 X98.712 Y89.145 E0.81991
G1 X99.639 Y89.128 E0.85845
G1 X100.564 Y89.191 E0.897
G1 X101.48 Y89.334 E0.93554
G1 X102.38 Y89.555 E0.97407
G1 X103.258 Y89.852 E1.01261
G1 X104.057 Y90.2 E1.04884
G1 X106.346 Y91.309 E1.15459
G1 X108.68 Y92.362 E1.26104
G1 X111.036 Y93.346 E1.36719
G1 X113.354 Y94.24 E1.47048
G1 X115.703 Y95.069 E1.57405
G1 X118.157 Y95.858 E1.68122
G1 X120.555 Y96.555 E1.78504
G1 X122.996 Y97.189 E1.88989
G1 X125.498 Y97.766 E1.99664
G1 X127.91 Y98.249 E2.09891
G1 X130.443 Y98.683 E2.20576
G1 X132.925 Y99.036 E2.30999
G1 X135.416 Y99.32 E2.41422
G1 X137.957 Y99.535 E2.52024
G1 X140.425 Y99.675 E2.62301
G1 X144.385 Y99.759 E2.78769
G1 X148.011 Y99.76 E2.93844
G1 X148.709 Y99.77 E2.96746
G1 X149.635 Y99.823 E3.00602
G1 X150.552 Y99.956 E3.04455
G1 X151.455 Y100.168 E3.08311
G1 X152.336 Y100.456 E3.12165
G1 X153.189 Y100.819 E3.16019
G1 X154.008 Y101.255 E3.19876
G1 X154.786 Y101.759 E3.2373
G1 X155.517 Y102.328 E3.27581
G1 X156.197 Y102.959 E3.31438
G1 X156.82 Y103.645 E3.35291
G1 X157.382 Y104.383 E3.39147
G1 X157.878 Y105.166 E3.43001
G1 X158.304 Y105.99 E3.46857
G1 X158.658 Y106.846 E3.50709
G1 X158.937 Y107.731 E3.54567
G1 X159.139 Y108.636 E3.58422
G1 X159.262 Y109.555 E3.62276
G1 X159.301 Y110.217 E3.65034
G1 X159.314 Y110.839 E3.6762
G1 X159.313 Y112.326 E3.73802
G1 X159.306 Y112.814 E3.75831
G1 X159.306 Y115.511 E3.87044
G1 X159.314 Y116.222 E3.9
G1 X159.313 Y117.769 E3.96432
G1 X159.302 Y118.478 E3.9938
G1 X159.247 Y119.403 E4.03233
G1 X159.147 Y120.135 E4.06304
G1 X158.665 Y122.936 E4.18121
G1 X158.303 Y125.477 E4.28791
G1 X158.024 Y127.928 E4.39047
G1 X157.809 Y130.464 E4.49629
G1 X157.642 Y133.493 E4.62241
G1 X157.551 Y134.415 E4.66093
G1 X157.381 Y135.327 E4.6995
G1 X157.132 Y136.22 E4.73804
G1 X156.808 Y137.089 E4.7766
G1 X156.411 Y137.926 E4.81511
G1 X155.942 Y138.726 E4.85367
G1 X155.407 Y139.483 E4.89221
G1 X154.808 Y140.191 E4.93076
G1 X154.15 Y140.844 E4.9693
G1 X153.439 Y141.439 E5.00785
G1 X152.679 Y141.97 E5.04639
G1 X151.876 Y142.433 E5.08493
G1 X151.036 Y142.826 E5.12349
G1 X150.165 Y143.145 E5.16205
G1 X149.27 Y143.387 E5.2006
G1 X148.358 Y143.552 E5.23913
G1 X147.21 Y143.646 E5.28702
G1 X146.588 Y143.659 E5.31288
G1 X124.274 Y143.659 E6.24059
G1 X121.655 Y143.696 E6.34949
G1 X119.158 Y143.802 E6.45339
G1 X116.628 Y143.981 E6.55884
G1 X114.466 Y144.191 E6.64915
G1 X101.291 Y145.627 E7.20015
G1 X100.415 Y145.711 E7.23673
G1 X99.489 Y145.76 E7.27529
G1 X98.562 Y145.728 E7.31385
G1 X97.642 Y145.616 E7.35238
G1 X96.735 Y145.426 E7.39091
G1 X95.847 Y145.158 E7.42947
G1 X94.986 Y144.815 E7.468
G1 X94.157 Y144.399 E7.50657
G1 X93.368 Y143.913 E7.54509
G1 X92.623 Y143.36 E7.58367
G1 X91.929 Y142.746 E7.62219
G1 X91.29 Y142.074 E7.66074
G1 X90.711 Y141.35 E7.69929
G1 X90.197 Y140.578 E7.73785
G1 X89.752 Y139.765 E7.77638
G1 X89.378 Y138.917 E7.81491
G1 X89.079 Y138.039 E7.85347
G1 X88.856 Y137.139 E7.89202
G1 X88.712 Y136.223 E7.93057
G1 X88.645 Y135.213 E7.97266
G1 X88.626 Y133.929 E8.02604
G1 X88.639 Y132.902 E8.06874
G1 X88.719 Y130.112 E8.18479
G1 X88.728 Y128.821 E8.23846
G1 X88.728 Y109.7 E9.03342
G1 X88.691 Y107.086 E9.14211
G1 X88.553 Y103.827 E9.27772
G1 X88.543 Y103.373 E9.2966
G0 F12000 X89.043 Y103.373
G1 F600 X89.044 Y102.449 E9.33502
G1 X89.058 Y101.561 E9.37194
G1 X89.096 Y100.23 E9.4273
G1 X89.13 Y99.436 E9.46034
G1 X89.209 Y98.535 E9.49795
G1 X89.367 Y97.643 E9.53561
G1 X89.603 Y96.769 E9.57325
G1 X89.915 Y95.919 E9.61089
G1 X90.301 Y95.1 E9.64853
G1 X90.758 Y94.319 E9.68615
G1 X91.282 Y93.58 E9.72382
G1 X91.868 Y92.891 E9.76142
G1 X92.514 Y92.256 E9.79908
G1 X93.213 Y91.681 E9.83671
G1 X93.96 Y91.17 E9.87434
G1 X94.749 Y90.726 E9.91198
G1 X95.575 Y90.354 E9.94964
G1 X96.43 Y90.056 E9.98729
G1 X97.307 Y89.835 E10.02489
G1 X98.201 Y89.692 E10.06253
G1 X99.104 Y89.628 E10.10017
G1 X100.01 Y89.645 E10.13784
G1 X100.91 Y89.741 E10.17547
G1 X101.798 Y89.916 E10.2131
G1 X102.667 Y90.169 E10.25073
G1 X103.839 Y90.65 E10.3034
G1 X106.146 Y91.767 E10.40996
G1 X108.461 Y92.813 E10.51558
G1 X110.842 Y93.807 E10.62285
G1 X113.187 Y94.711 E10.72734
G1 X115.552 Y95.545 E10.8316
G1 X118.011 Y96.336 E10.93899
G1 X120.418 Y97.036 E11.0432
G1 X122.871 Y97.673 E11.14857
G1 X125.4 Y98.256 E11.25647
G1 X127.831 Y98.743 E11.35955
G1 X130.353 Y99.175 E11.46593
G1 X132.874 Y99.534 E11.5718
G1 X135.384 Y99.819 E11.67682
G1 X137.887 Y100.032 E11.78126
G1 X140.415 Y100.175 E11.88653
G1 X144.375 Y100.259 E12.05121
G1 X148.004 Y100.26 E12.20208
G1 X148.702 Y100.27 E12.2311
G1 X149.606 Y100.323 E12.26875
G1 X150.501 Y100.455 E12.30637
G1 X151.382 Y100.666 E12.34403
G1 X152.24 Y100.954 E12.38166
G1 X153.07 Y101.317 E12.41932
G1 X153.864 Y101.751 E12.45694
G1 X154.617 Y102.254 E12.49459
G1 X155.323 Y102.821 E12.53223
G1 X155.975 Y103.448 E12.56984
G1 X156.57 Y104.13 E12.60747
G1 X157.103 Y104.862 E12.64512
G1 X157.569 Y105.639 E12.68278
G1 X157.964 Y106.453 E12.7204
G1 X158.286 Y107.299 E12.75803
G1 X158.532 Y108.17 E12.79566
G1 X158.701 Y109.06 E12.83333
G1 X158.801 Y110.231 E12.88219
G1 X158.814 Y110.839 E12.90747
G1 X158.813 Y112.319 E12.969
G1 X158.806 Y112.807 E12.98929
G1 X158.806 Y115.558 E13.10367
G1 X158.814 Y116.222 E13.13127
G1 X158.813 Y117.761 E13.19526
G1 X158.802 Y118.47 E13.22474
G1 X158.748 Y119.374 E13.26239
G1 X158.654 Y120.051 E13.29081
G1 X158.172 Y122.852 E13.40897
G1 X157.811 Y125.386 E13.51539
G1 X157.521 Y127.936 E13.62209
G1 X157.31 Y130.43 E13.72614
G1 X157.142 Y133.465 E13.85252
G1 X157.053 Y134.366 E13.89016
G1 X156.884 Y135.255 E13.92778
G1 X156.637 Y136.126 E13.96542
G1 X156.314 Y136.972 E14.00307
G1 X155.918 Y137.786 E14.0407
G1 X155.452 Y138.562 E14.07834
G1 X154.919 Y139.294 E14.11598
G1 X154.324 Y139.976 E14.15361
G1 X153.67 Y140.603 E14.19128
G1 X152.964 Y141.169 E14.2289
G1 X152.211 Y141.672 E14.26655
G1 X151.416 Y142.105 E14.30418
G1 X150.586 Y142.467 E14.34183
G1 X149.728 Y142.754 E14.37945
G1 X148.847 Y142.965 E14.41711
G1 X147.952 Y143.097 E14.45472
G1 X147.196 Y143.146 E14.48622
G1 X146.588 Y143.159 E14.5115
G1 X124.267 Y143.159 E15.4395
G1 X121.662 Y143.196 E15.54782
G1 X119.099 Y143.305 E15.65447
G1 X116.586 Y143.483 E15.75921
G1 X114.438 Y143.691 E15.84893
G1 X101.1 Y145.144 E16.40674
G1 X100.367 Y145.214 E16.43735
G1 X99.463 Y145.26 E16.47499
G1 X98.559 Y145.226 E16.5126
G1 X97.66 Y145.113 E16.55027
G1 X96.776 Y144.92 E16.58788
G1 X95.912 Y144.651 E16.62551
G1 X95.074 Y144.306 E16.66318
G1 X94.271 Y143.889 E16.7008
G1 X93.508 Y143.402 E16.73843
G1 X92.79 Y142.85 E16.77609
G1 X92.124 Y142.237 E16.81372
G1 X91.515 Y141.567 E16.85136
G1 X90.967 Y140.846 E16.88901
G1 X90.485 Y140.08 E16.92664
G1 X90.072 Y139.274 E16.96429
G1 X89.732 Y138.435 E17.00193
G1 X89.468 Y137.569 E17.03957
G1 X89.281 Y136.684 E17.07718
G1 X89.172 Y135.785 E17.11483
G1 X89.145 Y135.203 E17.13905
G1 X89.126 Y133.935 E17.19177
G1 X89.139 Y132.917 E17.2341
G1 X89.219 Y130.131 E17.34998
G1 X89.228 Y128.825 E17.40427
G1 X89.228 Y109.7 E18.1994
G1 X89.191 Y107.094 E18.30775
G1 X89.052 Y103.806 E18.44458
G1 X89.043 Y103.373 E18.46258
G1 F1800 E17.46258
;MESH:Arm_a R 50mm.stl
G0 F12000 X98.628 Y103.713
G0 X99.897 Y103.713
G0 X108.548 Y120.638
G0 X109.012 Y122.085
G1 F1800 E18.46258
G0 F12000 X108.715 Y122.059
;TYPE:WALL-INNER
G1 F600 X108.634 Y123.235 E18.50179
G1 X108.549 Y124.253 E18.53577
G1 X108.47 Y124.984 E18.56022
G1 X108.399 Y125.531 E18.57857
G1 X108.31 Y126.075 E18.5969
G1 X108.187 Y126.634 E18.61594
G1 X108.121 Y127.03 E18.62929
G1 X107.913 Y127.336 E18.6416
G1 X107.571 Y127.508 E18.65433
G1 X104.705 Y127.497 E18.74965
G1 X104.451 Y127.4 E18.7587
G1 X104.236 Y127.153 E18.76959
G1 X104.132 Y126.873 E18.77952
G1 X104.14 Y124.22 E18.86776
G1 X104.156 Y123.321 E18.89767
G1 X104.155 Y121.23 E18.96721
G1 X104.166 Y120.617 E18.98761
G1 X104.279 Y120.403 E18.99565
G1 X104.515 Y120.21 E19.00579
G1 X104.798 Y120.114 E19.01573
G1 X105.377 Y120.12 E19.03499
G1 X106.711 Y120.119 E19.07936
G1 X108.143 Y120.132 E19.12699
G1 X108.386 Y120.214 E19.13552
G1 X108.533 Y120.339 E19.14194
G1 X108.707 Y120.612 E19.15271
G1 X108.796 Y121.136 E19.17039
G1 X108.715 Y122.059 E19.2012
G0 F12000 X108.316 Y122.028
;TYPE:WALL-OUTER
G1 F600 X108.236 Y123.201 E19.24031
G1 X108.151 Y124.21 E19.27399
G1 X108.074 Y124.932 E19.29814
G1 X108.004 Y125.467 E19.31608
G1 X107.919 Y125.989 E19.33367
G1 X107.794 Y126.558 E19.35305
G1 X107.721 Y126.978 E19.36723
G1 X107.489 Y127.107 E19.37606
G1 X104.744 Y127.094 E19.46736
G1 X104.67 Y127.065 E19.47
G1 X104.534 Y126.83 E19.47903
G1 X104.54 Y124.227 E19.56561
G1 X104.556 Y123.321 E19.59575
G1 X104.555 Y121.238 E19.66503
G1 X104.565 Y120.704 E19.68279
G1 X104.64 Y120.599 E19.68708
G1 X104.824 Y120.512 E19.69385
G1 X105.32 Y120.52 E19.71035
G1 X106.708 Y120.519 E19.75652
G1 X108.099 Y120.53 E19.80278
G1 X108.202 Y120.572 E19.80648
G1 X108.319 Y120.736 E19.81318
G1 X108.391 Y121.142 E19.8269
G1 X108.316 Y122.028 E19.85647
G0 F12000 X109.012 Y122.089
G0 X118.443 Y111.356
G0 X118.514 Y111.071
;TYPE:WALL-INNER
G1 F600 X109.143 Y105.918 E20.21217
G1 X108.473 Y105.542 E20.23772
G1 X99.96 Y100.865 E20.56078
G1 X99.96 Y102.006 E20.59873
G1 X99.894 Y102.084 E20.60213
G1 X99.894 Y103.404 E20.64603
G1 X100.006 Y103.488 E20.65069
G1 X100.078 Y103.809 E20.66163
G1 X100.078 Y133.16 E21.63785
G1 X100.029 Y133.401 E21.64603
G1 X99.976 Y133.456 E21.64857
G1 X99.976 Y134.352 E21.67837
G1 X118.72 Y132.31 E22.30549
G1 X146.318 Y132.309 E23.2234
G1 X146.32 Y118.302 E23.68927
G1 X146.347 Y118.17 E23.69376
G1 X146.46 Y117.969 E23.70142
G1 X146.653 Y117.819 E23.70955
G1 X146.908 Y117.709 E23.71879
G1 X147.964 Y117.709 E23.75391
G1 X147.964 Y117.109 E23.77387
G1 X147.964 Y116.509 E23.79383
G1 X146.927 Y116.508 E23.82832
G1 X146.681 Y116.438 E23.83682
G1 X146.493 Y116.279 E23.84501
G1 X146.359 Y116.029 E23.85445
G1 X146.318 Y115.809 E23.86189
G1 X146.318 Y112.958 E23.95672
G1 X146.382 Y112.687 E23.96598
G1 X146.653 Y112.418 E23.97868
G1 X146.939 Y112.309 E23.98886
G1 X147.964 Y112.309 E24.02295
G1 X147.964 Y111.109 E24.06286
G1 X118.695 Y111.108 E25.03635
G1 X118.514 Y111.071 E25.0425
G0 F12000 X118.68 Y110.706
;TYPE:WALL-OUTER
G1 F600 X109.339 Y105.569 E25.39706
G1 X108.643 Y105.18 E25.42358
G1 X99.56 Y100.19 E25.76827
G1 X99.56 Y101.91 E25.82548
G1 X99.494 Y101.986 E25.82882
G1 X99.494 Y103.549 E25.88081
G1 X99.62 Y103.643 E25.88604
G1 X99.678 Y103.809 E25.89189
G1 X99.678 Y133.224 E26.87023
G1 X99.576 Y133.331 E26.87515
G1 X99.576 Y134.798 E26.92394
G1 X118.742 Y132.71 E27.56518
G1 X146.718 Y132.709 E28.49566
G1 X146.718 Y118.339 E28.97361
G1 X146.765 Y118.228 E28.97762
G1 X146.979 Y118.109 E28.98577
G1 X148.364 Y118.109 E29.03183
G1 X148.364 Y117.109 E29.06509
G1 X148.364 Y116.109 E29.09835
G1 X146.924 Y116.105 E29.14625
G1 X146.809 Y116.033 E29.15076
G1 X146.721 Y115.848 E29.15757
G1 X146.718 Y112.888 E29.25602
G1 X146.829 Y112.778 E29.26122
G1 X146.983 Y112.711 E29.26681
G1 X148.364 Y112.709 E29.31274
G1 X148.364 Y110.709 E29.37926
G1 X118.68 Y110.706 E30.36655
G0 F12000 X118.368 Y111.39
;TYPE:SKIN
G1 F600 X108.975 Y106.232 E30.67842
G1 X108.302 Y105.856 E30.70085
G1 X100.316 Y101.468 E30.96604
G1 X100.316 Y101.856 E30.97733
G1 X100.25 Y102.147 E30.98602
G1 X100.25 Y103.251 E31.01814
G1 X100.328 Y103.336 E31.0215
G1 X100.43 Y103.772 E31.03453
G1 X100.431 Y133.19 E31.89067
G1 X100.355 Y133.541 E31.90113
G1 X100.333 Y133.575 E31.9023
G1 X100.333 Y133.952 E31.91328
G1 X118.702 Y131.955 E32.45101
G1 X145.96 Y131.953 E33.24429
G1 X145.965 Y118.187 E33.64492
G1 X146.184 Y117.738 E33.65946
G1 X146.467 Y117.517 E33.66991
G1 X146.847 Y117.324 E33.68348
G1 X147.573 Y117.319 E33.70871
G1 X147.573 Y117.11 E33.71601
G1 X147.573 Y116.9 E33.72335
G1 X146.844 Y116.9 E33.74881
G1 X146.497 Y116.745 E33.76097
G1 X146.162 Y116.458 E33.77381
G1 X145.997 Y116.075 E33.78595
G1 X145.963 Y115.834 E33.79303
G1 X145.966 Y112.916 E33.87795
G1 X146.058 Y112.519 E33.88981
G1 X146.279 Y112.302 E33.89906
G1 X146.5 Y112.084 E33.90879
G1 X146.881 Y111.92 E33.92272
G1 X147.574 Y111.919 E33.94692
G1 X147.574 Y111.499 E33.96156
G1 X146.845 Y111.501 E33.98702
G1 X146.449 Y111.465 E33.99978
G1 X118.697 Y111.465 E34.80743
G1 X118.368 Y111.39 E34.81725
G0 F12000 X109.07 Y122.089
G1 F600 X108.991 Y123.252 E34.85118
G1 X108.906 Y124.273 E34.881
G1 X108.826 Y125.012 E34.90263
G1 X108.754 Y125.563 E34.9188
G1 X108.658 Y126.153 E34.9362
G1 X108.537 Y126.704 E34.95261
G1 X108.465 Y127.137 E34.96539
G1 X108.283 Y127.472 E34.97648
G1 X108.106 Y127.634 E34.98347
G1 X107.715 Y127.831 E34.99621
G1 X107.545 Y127.863 E35.00124
G1 X104.646 Y127.854 E35.08561
G1 X104.254 Y127.699 E35.09788
G1 X104.053 Y127.516 E35.10579
G1 X103.906 Y127.289 E35.11366
G1 X103.778 Y126.931 E35.12472
G1 X103.784 Y124.224 E35.20351
G1 X103.799 Y123.352 E35.22889
G1 X103.799 Y121.239 E35.29038
G1 X103.81 Y120.717 E35.30558
G1 X103.857 Y120.438 E35.31381
G1 X104.004 Y120.175 E35.32258
G1 X104.154 Y120.019 E35.32888
G1 X104.385 Y119.878 E35.33675
G1 X104.757 Y119.76 E35.34811
G1 X106.708 Y119.763 E35.40489
G1 X108.185 Y119.778 E35.44788
G1 X108.494 Y119.867 E35.45723
G1 X108.728 Y120.026 E35.46547
G1 X109.032 Y120.433 E35.48025
G1 X109.154 Y121.135 E35.50099
G1 X109.07 Y122.089 E35.52886
G0 F12000 X108.546 Y126.118
G0 X108.356 Y127.074
G0 X108.199 Y127.415
G0 X100.584 Y133.747
G1 F600 X100.518 Y133.681 E35.53158
G0 F12000 X100.594 Y133.262
G1 F600 X101.03 Y133.699 E35.54954
G0 F12000 X101.476 Y133.65
G1 F600 X100.609 Y132.782 E35.58525
G0 F12000 X100.609 Y132.287
G1 F600 X101.923 Y133.602 E35.63935
G0 F12000 X102.369 Y133.553
G1 F600 X100.609 Y131.792 E35.7118
G0 F12000 X100.609 Y131.297
G1 F600 X102.816 Y133.505 E35.80266
G0 F12000 X103.263 Y133.456
G1 F600 X100.609 Y130.802 E35.91189
G0 F12000 X100.609 Y130.307
G1 F600 X103.709 Y133.407 E36.03948
G0 F12000 X104.156 Y133.359
G1 F600 X100.609 Y129.812 E36.18546
G0 F12000 X100.609 Y129.317
G1 F600 X104.602 Y133.31 E36.3498
G0 F12000 X105.048 Y133.262
G1 F600 X100.609 Y128.822 E36.53252
G0 F12000 X100.609 Y128.327
G1 F600 X105.495 Y133.213 E36.73362
G0 F12000 X105.941 Y133.165
G1 F600 X100.609 Y127.832 E36.95309
G0 F12000 X100.609 Y127.337
G1 F600 X106.387 Y133.116 E37.19092
G0 F12000 X106.834 Y133.068
G1 F600 X100.609 Y126.842 E37.44714
G0 F12000 X100.609 Y126.347
G1 F600 X107.28 Y133.019 E37.72172
G0 F12000 X107.727 Y132.97
G1 F600 X100.609 Y125.852 E38.01468
G0 F12000 X100.609 Y125.358
G1 F600 X108.173 Y132.922 E38.32599
G0 F12000 X108.62 Y132.873
G1 F600 X100.609 Y124.863 E38.65568
G0 F12000 X100.609 Y124.368
G1 F600 X109.066 Y132.825 E39.00375
G0 F12000 X109.513 Y132.776
G1 F600 X104.765 Y128.029 E39.19915
G0 F12000 X105.262 Y128.03
