;FLAVOR:Marlin
;TIME:3875
;Filament used: 1.99209m
;Layer height: 0.2
;MINX:101.68
;MINY:89.117
;MINZ:0.2
;MAXX:142.284
;MAXY:145.817
;MAXZ:68.4
;Generated with Cura_SteamEngine main
M140 S75
M105
M190 S75
M104 S230
M105
M109 S230
M82 ;absolute extrusion mode
; Ender 3 Custom Start G-code
G92 E0 ; Reset Extruder
G28 ; Home all axes
G29 ; BL-13 Bed Level
G92 E0 ; Reset Extruder
G1 Z2.0 F3000 ; Move Z Axis up little to prevent scratching of Heat Bed
G1 X235 Y0 Z2 F5000.0 ; Move to 235,0,2
G1 E40 F300  ;extrude 40mm for priming

G1 X235 Y0 Z0 F5000.0 ; Move to 235,0,0
G1 X225 Y10 Z0 F5000.0 ; Move to 225,10,0
G91 ;Relative positioning
G1 E-0.8 F1000 ;retract 0.8mm
G90 ;Absolute positioning
G1 X225 Y15 Z3 F5000.0 ; Move to 225,15,3
G1 X115 Y115 Z0 F5000.0 ; Move to 115,115,0
G92 E0
G92 E0
G1 F1800 E-1
;LAYER_COUNT:342
;LAYER:0
M107
G0 F12000 X105.799 Y92.906 Z0.2
G0 X103.222 Y100.423
;TYPE:SKIRT
G1 F1800 E0
G1 F600 X103.233 Y99.712 E0.02956
G1 X103.288 Y98.786 E0.06813
G1 X103.421 Y97.869 E0.10665
G1 X103.634 Y96.966 E0.14523
G1 X103.923 Y96.085 E0.18377
G1 X104.287 Y95.233 E0.22229
G1 X104.724 Y94.415 E0.26085
G1 X105.229 Y93.637 E0.29941
G1 X105.799 Y92.906 E0.33795
G1 X106.43 Y92.227 E0.37649
G1 X107.118 Y91.605 E0.41505
G1 X107.856 Y91.044 E0.45359
G1 X108.64 Y90.549 E0.49214
G1 X109.464 Y90.124 E0.53068
G1 X110.321 Y89.771 E0.56922
G1 X111.206 Y89.493 E0.60779
G1 X112.111 Y89.292 E0.64633
G1 X113.03 Y89.17 E0.68487
G1 X113.755 Y89.13 E0.71506
G1 X114.502 Y89.117 E0.74612
G1 X128.916 Y89.117 E1.34538
G1 X129.768 Y89.128 E1.38081
G1 X130.694 Y89.181 E1.41937
G1 X131.611 Y89.314 E1.45789
G1 X132.514 Y89.526 E1.49646
G1 X133.395 Y89.814 E1.53499
G1 X134.248 Y90.177 E1.57353
G1 X135.067 Y90.613 E1.61211
G1 X135.845 Y91.117 E1.65065
G1 X136.576 Y91.686 E1.68916
G1 X137.256 Y92.317 E1.72773
G1 X137.879 Y93.003 E1.76626
G1 X138.441 Y93.741 E1.80482
G1 X138.937 Y94.524 E1.84336
G1 X139.363 Y95.348 E1.88192
G1 X139.717 Y96.204 E1.92043
G1 X139.996 Y97.089 E1.95901
G1 X140.198 Y97.994 E1.99756
G1 X140.321 Y98.913 E2.03611
G1 X140.36 Y99.575 E2.06368
G1 X140.373 Y100.197 E2.08955
G1 X140.372 Y101.114 E2.12767
G1 X140.362 Y101.808 E2.15653
G1 X140.336 Y102.41 E2.18158
G1 X140.162 Y105.39 E2.30569
G1 X140.089 Y107.925 E2.41112
G1 X140.089 Y110.428 E2.51518
G1 X140.16 Y112.966 E2.62074
G1 X140.301 Y115.477 E2.7253
G1 X140.516 Y118.017 E2.83128
G1 X140.795 Y120.472 E2.93401
G1 X141.156 Y123.019 E3.04096
G1 X141.586 Y125.537 E3.14716
G1 X141.853 Y126.917 E3.2056
G1 X142.061 Y127.943 E3.24912
G1 X142.206 Y128.858 E3.28764
G1 X142.271 Y129.775 E3.32586
G1 X142.284 Y130.397 E3.35172
G1 X142.283 Y134.464 E3.52081
G1 X142.274 Y135.191 E3.55103
G1 X142.223 Y136.117 E3.58959
G1 X142.092 Y137.035 E3.62814
G1 X141.882 Y137.938 E3.66669
G1 X141.595 Y138.819 E3.70521
G1 X141.234 Y139.673 E3.74376
G1 X140.8 Y140.493 E3.78233
G1 X140.297 Y141.272 E3.82088
G1 X139.729 Y142.004 E3.8594
G1 X139.1 Y142.685 E3.89794
G1 X138.415 Y143.31 E3.9365
G1 X137.678 Y143.873 E3.97505
G1 X136.896 Y144.37 E4.01358
G1 X136.073 Y144.798 E4.05214
G1 X135.217 Y145.154 E4.09069
G1 X134.334 Y145.435 E4.12921
G1 X133.429 Y145.638 E4.16777
G1 X132.51 Y145.763 E4.20633
G1 X131.826 Y145.804 E4.23482
G1 X131.204 Y145.817 E4.26069
G1 X114.565 Y145.816 E4.95245
G1 X113.823 Y145.805 E4.98331
G1 X112.897 Y145.751 E5.02187
G1 X111.98 Y145.618 E5.06039
G1 X111.077 Y145.406 E5.09896
G1 X110.196 Y145.117 E5.13751
G1 X109.343 Y144.754 E5.17605
G1 X108.525 Y144.318 E5.21458
G1 X107.747 Y143.813 E5.25315
G1 X107.016 Y143.243 E5.29169
G1 X106.336 Y142.613 E5.33022
G1 X105.713 Y141.926 E5.36878
G1 X105.152 Y141.188 E5.40732
G1 X104.657 Y140.404 E5.44587
G1 X104.231 Y139.581 E5.4844
G1 X103.877 Y138.723 E5.52299
G1 X103.599 Y137.839 E5.56152
G1 X103.397 Y136.934 E5.60007
G1 X103.275 Y136.015 E5.63861
G1 X103.233 Y135.212 E5.67204
G1 X103.223 Y134.525 E5.7006
G1 X103.222 Y100.423 E7.1184
G0 F12000 X103.722 Y100.43
G1 F600 X103.733 Y99.719 E7.14796
G1 X103.787 Y98.816 E7.18557
G1 X103.921 Y97.92 E7.22324
G1 X104.133 Y97.04 E7.26087
G1 X104.421 Y96.182 E7.2985
G1 X104.785 Y95.353 E7.33614
G1 X105.22 Y94.559 E7.37378
G1 X105.724 Y93.807 E7.41142
G1 X106.291 Y93.102 E7.44903
G1 X106.919 Y92.45 E7.48667
G1 X107.602 Y91.855 E7.52433
G1 X108.335 Y91.324 E7.56196
G1 X109.112 Y90.859 E7.59961
G1 X109.927 Y90.464 E7.63726
G1 X110.773 Y90.143 E7.67488
G1 X111.645 Y89.898 E7.71254
G1 X112.535 Y89.731 E7.75018
G1 X113.765 Y89.63 E7.80149
G1 X114.502 Y89.617 E7.83214
G1 X128.916 Y89.617 E8.4314
G1 X129.761 Y89.628 E8.46654
G1 X130.665 Y89.681 E8.50419
G1 X131.56 Y89.813 E8.5418
G1 X132.441 Y90.024 E8.57946
G1 X133.299 Y90.312 E8.61709
G1 X134.129 Y90.675 E8.65475
G1 X134.923 Y91.109 E8.69237
G1 X135.676 Y91.612 E8.73002
G1 X136.382 Y92.179 E8.76767
G1 X137.034 Y92.806 E8.80528
G1 X137.629 Y93.488 E8.8429
G1 X138.162 Y94.22 E8.88055
G1 X138.628 Y94.997 E8.91822
G1 X139.023 Y95.811 E8.95583
G1 X139.345 Y96.657 E8.99347
G1 X139.591 Y97.528 E9.0311
G1 X139.76 Y98.418 E9.06876
G1 X139.86 Y99.589 E9.11762
G1 X139.873 Y100.197 E9.1429
G1 X139.872 Y101.107 E9.18074
G1 X139.862 Y101.801 E9.20959
G1 X139.838 Y102.375 E9.23348
G1 X139.806 Y102.828 E9.25236
G1 X139.662 Y105.349 E9.35734
G1 X139.589 Y107.91 E9.46386
G1 X139.589 Y110.442 E9.56913
G1 X139.66 Y112.974 E9.67444
G1 X139.803 Y115.509 E9.78
G1 X140.017 Y118.045 E9.88581
G1 X140.306 Y120.599 E9.99267
G1 X140.657 Y123.068 E10.09635
G1 X141.094 Y125.627 E10.20428
G1 X141.35 Y126.95 E10.2603
G1 X141.571 Y128.042 E10.30662
G1 X141.712 Y128.936 E10.34425
G1 X141.771 Y129.789 E10.3798
G1 X141.784 Y130.397 E10.40508
G1 X141.783 Y134.458 E10.57392
G1 X141.774 Y135.185 E10.60415
G1 X141.723 Y136.089 E10.64179
G1 X141.592 Y136.985 E10.67944
G1 X141.383 Y137.865 E10.71704
G1 X141.097 Y138.724 E10.75468
G1 X140.736 Y139.555 E10.79235
G1 X140.303 Y140.35 E10.82999
G1 X139.802 Y141.104 E10.86763
G1 X139.236 Y141.811 E10.90528
G1 X138.611 Y142.465 E10.94289
G1 X137.929 Y143.061 E10.98054
G1 X137.198 Y143.595 E11.01818
G1 X136.423 Y144.062 E11.0558
G1 X135.609 Y144.459 E11.09345
G1 X134.764 Y144.783 E11.13108
G1 X133.893 Y145.031 E11.16873
G1 X133.004 Y145.201 E11.20636
G1 X131.812 Y145.304 E11.2561
G1 X131.204 Y145.317 E11.28138
G1 X114.572 Y145.316 E11.97286
G1 X113.83 Y145.305 E12.00371
G1 X112.926 Y145.251 E12.04136
G1 X112.031 Y145.119 E12.07898
G1 X111.151 Y144.907 E12.11661
G1 X110.292 Y144.619 E12.15428
G1 X109.463 Y144.256 E12.1919
G1 X108.669 Y143.821 E12.22954
G1 X107.916 Y143.318 E12.26719
G1 X107.211 Y142.751 E12.3048
G1 X106.558 Y142.123 E12.34247
G1 X105.963 Y141.441 E12.3801
G1 X105.431 Y140.708 E12.41775
G1 X104.966 Y139.932 E12.45536
G1 X104.571 Y139.117 E12.49302
G1 X104.249 Y138.271 E12.53065
G1 X104.004 Y137.4 E12.56827
G1 X103.836 Y136.51 E12.60593
G1 X103.733 Y135.205 E12.66035
G1 X103.722 Y134.369 E12.69511
G1 X103.722 Y100.43 E14.10613
G1 F1800 E13.10613
;MESH:Arm_b R 70mm.stl
G0 F12000 X113.307 Y100.431
G0 X114.305 Y101.716
;TYPE:WALL-OUTER
G1 F1800 E14.10613
G1 F600 X114.305 Y102.999 E14.17739
G1 X114.305 Y104.282 E14.24866
G1 X114.305 Y105.565 E14.31992
G1 X114.305 Y106.848 E14.39118
G1 X114.305 Y108.131 E14.46255
G1 X114.305 Y109.414 E14.53392
G1 X114.305 Y110.697 E14.60529
G1 X114.305 Y111.98 E14.67666
G1 X114.305 Y113.263 E14.74814
G1 X114.305 Y114.546 E14.81962
G1 X114.305 Y115.829 E14.89109
G1 X114.306 Y117.112 E14.96268
G1 X114.306 Y118.395 E15.03426
G1 X114.306 Y119.678 E15.10585
G1 X114.306 Y120.961 E15.17743
G1 X114.306 Y122.244 E15.24912
G1 X114.306 Y123.527 E15.32081
G1 X114.306 Y124.81 E15.3925
G1 X114.306 Y126.093 E15.46419
G1 X114.306 Y127.376 E15.53599
G1 X114.306 Y128.659 E15.60778
G1 X114.306 Y129.942 E15.67958
G1 X114.307 Y131.225 E15.75138
G0 F12000 X114.389 Y131.63
G0 X126.47 Y132.026
G0 X126.34 Y131.758
;TYPE:WALL-INNER
G1 F600 X126.055 Y131.867 E15.76153
G1 X114.688 Y131.867 E16.13959
G1 X114.572 Y131.795 E16.14413
G1 X114.572 Y134.467 E16.23301
G1 X130.934 Y134.467 E16.77721
G1 X130.934 Y132.567 E16.8404
G1 X130.934 Y130.667 E16.9036
G1 X126.675 Y130.667 E17.04525
G1 X126.675 Y131.218 E17.06358
G1 X126.581 Y131.542 E17.0748
G1 X126.34 Y131.758 E17.08556
G0 F12000 X126.244 Y131.326
;TYPE:WALL-OUTER
G1 F600 X126.01 Y131.465 E17.09462
G1 X114.688 Y131.467 E17.47119
G1 X114.45 Y131.384 E17.48091
G1 X114.307 Y131.225 E17.4916
G1 X114.236 Y131.433 E17.50258
G1 X114.204 Y131.708 E17.514
G1 X114.172 Y131.983 E17.52394
G1 X114.172 Y134.867 E17.61987
G1 X131.334 Y134.867 E18.19068
G1 X131.334 Y132.567 E18.26718
G1 X131.334 Y130.267 E18.34367
G1 X126.275 Y130.267 E18.51194
G1 X126.275 Y131.218 E18.54357
G1 X126.244 Y131.326 E18.5473
G1 F1800 E17.5473
G0 F12000 X126.892 Y131.556
G0 X126.489 Y130.481
G0 X126.489 Y129.402
G0 X126.489 Y102.332
G0 X126.489 Y101.247
G0 X114.841 Y100.737
G1 F1800 E18.5473
G0 F12000 X114.621 Y100.517
;TYPE:WALL-INNER
G1 F600 X114.621 Y101.044 E18.56921
G1 X114.739 Y101.017 E18.57425
G1 X128.973 Y101.017 E19.16603
G1 X128.973 Y100.517 E19.18682
G1 X114.621 Y100.517 E19.7835
G0 F12000 X114.171 Y101.299
;TYPE:WALL-OUTER
G1 F600 X114.305 Y101.716 E19.80295
G1 X114.551 Y101.536 E19.81649
G1 X114.739 Y101.467 E19.82315
G1 X129.423 Y101.467 E20.31154
G1 X129.423 Y100.067 E20.3581
G1 X114.171 Y100.067 E20.86539
G1 X114.171 Y101.299 E20.90636
G1 F1800 E19.90636
G0 F12000 X114.841 Y100.797
G0 X126.111 Y101.247
G0 X126.111 Y102.332
G0 X125.448 Y129.481
G0 X125.422 Y130.614
G0 X126.494 Y131.239
G0 X126.111 Y132.221
;TYPE:SKIN
G1 F1800 E20.90636
G1 F600 X114.928 Y132.223 E21.23182
G1 X114.928 Y134.111 E21.28676
G1 X130.578 Y134.111 E21.74222
G1 X130.578 Y132.567 E21.78715
G1 X130.578 Y131.023 E21.83209
G1 X127.031 Y131.023 E21.93531
G1 X127.024 Y131.269 E21.94248
G1 X126.891 Y131.722 E21.95622
G1 X126.705 Y131.936 E21.96447
G1 X126.52 Y132.065 E21.97103
G1 X126.111 Y132.221 E21.98377
G0 F12000 X130.402 Y131.392
G1 F600 X130.207 Y131.197 E21.9918
G0 F12000 X129.712 Y131.197
G1 F600 X130.402 Y131.887 E22.0202
G0 F12000 X130.402 Y132.382
G1 F600 X129.217 Y131.197 E22.06897
G0 F12000 X128.722 Y131.197
G1 F600 X130.402 Y132.877 E22.13811
G0 F12000 X130.402 Y133.372
G1 F600 X128.227 Y131.197 E22.22763
G0 F12000 X127.732 Y131.197
G1 F600 X130.402 Y133.867 E22.33752
G0 F12000 X129.975 Y133.935
G1 F600 X127.237 Y131.197 E22.45021
G0 F12000 X127.117 Y131.572
G1 F600 X129.48 Y133.935 E22.54746
G0 F12000 X128.985 Y133.935
G1 F600 X126.956 Y131.906 E22.63097
G0 F12000 X126.701 Y132.146
G1 F600 X128.49 Y133.935 E22.7046
G0 F12000 X127.995 Y133.935
G1 F600 X126.37 Y132.31 E22.77148
G0 F12000 X125.959 Y132.393
G1 F600 X127.5 Y133.935 E22.83493
G0 F12000 X127.005 Y133.935
G1 F600 X125.464 Y132.393 E22.89837
G0 F12000 X124.969 Y132.393
G1 F600 X126.51 Y133.935 E22.96181
G0 F12000 X126.015 Y133.935
G1 F600 X124.474 Y132.393 E23.02526
G0 F12000 X123.979 Y132.394
G1 F600 X125.52 Y133.935 E23.08868
G0 F12000 X125.025 Y133.935
G1 F600 X123.484 Y132.394 E23.1521
G0 F12000 X122.989 Y132.394
G1 F600 X124.53 Y133.935 E23.21553
G0 F12000 X124.035 Y133.935
G1 F600 X122.494 Y132.394 E23.27895
G0 F12000 X122 Y132.395
G1 F600 X123.54 Y133.935 E23.34233
G0 F12000 X123.045 Y133.935
G1 F600 X121.505 Y132.395 E23.40572
G0 F12000 X121.01 Y132.395
G1 F600 X122.55 Y133.935 E23.4691
G0 F12000 X122.055 Y133.935
G1 F600 X120.516 Y132.395 E23.53246
G0 F12000 X120.021 Y132.395
G1 F600 X121.56 Y133.935 E23.59582
G0 F12000 X121.065 Y133.935
G1 F600 X119.526 Y132.395 E23.65918
G0 F12000 X119.031 Y132.395
G1 F600 X120.57 Y133.935 E23.72254
G0 F12000 X120.075 Y133.935
G1 F600 X118.537 Y132.396 E23.78586
G0 F12000 X118.042 Y132.396
G1 F600 X119.58 Y133.935 E23.84919
G0 F12000 X119.085 Y133.935
G1 F600 X117.547 Y132.396 E23.91251
G0 F12000 X117.052 Y132.396
G1 F600 X118.59 Y133.935 E23.97583
G0 F12000 X118.096 Y133.935
G1 F600 X116.558 Y132.397 E24.03913
G0 F12000 X116.063 Y132.397
G1 F600 X117.601 Y133.935 E24.10243
G0 F12000 X117.106 Y133.935
G1 F600 X115.568 Y132.397 E24.16573
G0 F12000 X115.102 Y132.426
G1 F600 X116.611 Y133.935 E24.22783
G0 F12000 X116.116 Y133.935
G1 F600 X115.102 Y132.921 E24.26957
G0 F12000 X115.102 Y133.416
G1 F600 X115.621 Y133.935 E24.29093
G0 F12000 X115.621 Y133.867
G1 F1800 E23.29093
;MESH:NONMESH
G0 F600 X115.621 Y133.867 Z0.4
G0 F12000 X114.841 Y131.687
G0 X115.292 Y130.614
G0 X115.292 Y102.32
G0 X114.381 Y101.385
G0 X114.841 Y100.797
G1 F1800 E24.29093
G0 F12000 X114.737 Y101.167
;TIME_ELAPSED:73.982344
;LAYER:1
M140 S80
M106 S127.5
;TYPE:WALL-INNER
;MESH:Arm_b R 70mm.stl
G1 F3272.6 X129.84 Y101.167 E24.79325
G1 X129.84 Y100.367 E24.81986
G1 X114.336 Y100.367 E25.33553
G1 X114.337 Y101.568 E25.37547
G1 X114.737 Y101.167 E25.39431
G1 F1800 E24.39431
G0 F13800 X114.737 Y100.867
G0 X114.311 Y101.339
G0 X114.311 Y131.595
G0 X126.246 Y132.067
G1 F1800 E25.39431
G0 F13800 X126.246 Y131.627
G1 F3272.6 X125.934 Y131.767 E25.40569
G1 X114.739 Y131.767 E25.77803
G1 X114.337 Y131.429 E25.7955
G1 X114.337 Y134.567 E25.89987
G1 X131.15 Y134.567 E26.45907
G1 X131.15 Y132.567 E26.52559
G1 X131.149 Y130.567 E26.59212
G1 X126.459 Y130.567 E26.74811
G1 X126.459 Y131.167 E26.76806
G1 X126.365 Y131.491 E26.77928
G1 X126.246 Y131.627 E26.78529
G1 F1800 E25.78529
G0 F13800 X126.246 Y132.067
G0 X114.311 Y131.595
G0 X114.237 Y131.254
G1 F1800 E26.78529
G0 F13800 X113.988 Y131.254
;TYPE:WALL-OUTER
G1 F3272.6 X113.972 Y131.558 E26.79762
G1 X113.955 Y131.863 E26.8091
G1 X113.938 Y132.168 E26.81969
G1 X113.937 Y134.792 E26.90697
G1 X114.135 Y134.967 E26.91576
G1 X131.55 Y134.967 E27.49498
G1 X131.55 Y132.567 E27.57481
G1 X131.549 Y130.167 E27.65463
G1 X126.059 Y130.167 E27.83723
G1 X126.059 Y131.167 E27.87049
G1 X126.028 Y131.275 E27.87423
G1 X125.894 Y131.365 E27.87959
G1 X114.739 Y131.367 E28.25061
G1 X114.49 Y131.211 E28.26165
G1 X114.49 Y129.248 E28.34392
G1 X114.49 Y127.285 E28.42618
G1 X114.49 Y125.322 E28.50845
G1 X114.49 Y123.359 E28.59071
G1 X114.49 Y121.396 E28.67282
G1 X114.49 Y119.433 E28.75492
G1 X114.49 Y117.47 E28.83702
G1 X114.49 Y115.507 E28.91912
G1 X114.49 Y113.544 E29.00106
G1 X114.49 Y111.581 E29.083
G1 X114.49 Y109.618 E29.16494
G1 X114.49 Y107.655 E29.24671
G1 X114.49 Y105.692 E29.32849
G1 X114.49 Y103.729 E29.41026
G1 X114.489 Y101.766 E29.49204
G1 X114.738 Y101.567 E29.50396
G1 X130.24 Y101.567 E30.01956
G1 X130.24 Y99.967 E30.07278
G1 X114.135 Y99.967 E30.60843
G1 X113.936 Y100.143 E30.61727
G1 X113.936 Y100.767 E30.63802
G1 X113.948 Y101.016 E30.64656
G1 X113.961 Y101.266 E30.65566
G1 X113.974 Y101.516 E30.6653
G1 X113.986 Y101.766 E30.67545
G1 X113.987 Y103.733 E30.7574
G1 X113.987 Y105.699 E30.8393
G1 X113.987 Y107.665 E30.9212
G1 X113.987 Y109.631 E31.0031
G1 X113.987 Y111.597 E31.08516
G1 X113.987 Y113.563 E31.16722
G1 X113.987 Y115.529 E31.24929
G1 X113.987 Y117.495 E31.33152
G1 X113.987 Y119.461 E31.41374
G1 X113.987 Y121.427 E31.49597
G1 X113.987 Y123.393 E31.5782
G1 X113.987 Y125.359 E31.66059
G1 X113.987 Y127.325 E31.74298
G1 X113.987 Y129.291 E31.82537
G1 X113.988 Y131.257 E31.90776
G0 F13800 X114.237 Y131.257
G0 X114.311 Y131.595
G0 X125.99 Y132.121
;TYPE:SKIN
G1 F1636.3 X114.694 Y132.123 E32.2365
G1 X114.693 Y134.211 E32.29727
G1 X130.794 Y134.211 E32.76585
G1 X130.794 Y132.567 E32.8137
G1 X130.793 Y130.923 E32.86154
G1 X126.815 Y130.923 E32.97731
G1 X126.808 Y131.218 E32.9859
G1 X126.675 Y131.67 E32.99961
G1 X126.476 Y131.905 E33.00857
G1 X126.181 Y132.068 E33.01838
G1 X125.99 Y132.121 E33.02415
G0 F13800 X130.618 Y133.698
G1 F1636.3 X130.28 Y134.035 E33.03804
G0 F13800 X129.785 Y134.035
G1 F1636.3 X130.618 Y133.203 E33.0723
G0 F13800 X130.618 Y132.708
G1 F1636.3 X129.29 Y134.035 E33.12694
G0 F13800 X128.795 Y134.035
G1 F1636.3 X130.618 Y132.213 E33.20195
G0 F13800 X130.618 Y131.718
G1 F1636.3 X128.3 Y134.035 E33.29733
G0 F13800 X127.806 Y134.035
G1 F1636.3 X130.618 Y131.223 E33.41307
G0 F13800 X130.249 Y131.096
G1 F1636.3 X127.311 Y134.035 E33.53401
G0 F13800 X126.816 Y134.035
G1 F1636.3 X129.754 Y131.096 E33.65495
G0 F13800 X129.259 Y131.096
G1 F1636.3 X126.321 Y134.035 E33.77589
G0 F13800 X125.826 Y134.035
G1 F1636.3 X128.764 Y131.096 E33.89683
G0 F13800 X128.269 Y131.096
