;FLAVOR:Marlin
;TIME:381
;Filament used: 0.204404m
;Layer height: 0.2
;MINX:98.6
;MINY:92.35
;MINZ:0.2
;MAXX:136.4
;MAXY:144.35
;MAXZ:1.6
;Generated with Cura_SteamEngine main
M140 S75
M105
M190 S75
M104 S230
M105
M109 S230
M82 ;absolute extrusion mode
; Ender 3 Custom Start G-code
G92 E0 ; Reset Extruder
G28 ; Home all axes
G29 ; BL-13 Bed Level
G92 E0 ; Reset Extruder
G1 Z2.0 F3000 ; Move Z Axis up little to prevent scratching of Heat Bed
G1 X235 Y0 Z2 F5000.0 ; Move to 235,0,2
G1 E40 F300  ;extrude 40mm for priming

G1 X235 Y0 Z0 F5000.0 ; Move to 235,0,0
G1 X225 Y10 Z0 F5000.0 ; Move to 225,10,0
G91 ;Relative positioning
G1 E-0.8 F1000 ;retract 0.8mm
G90 ;Absolute positioning
G1 X225 Y15 Z3 F5000.0 ; Move to 225,15,3
G1 X115 Y115 Z0 F5000.0 ; Move to 115,115,0
G92 E0
G92 E0
G1 F1800 E-1
;LAYER_COUNT:9
;LAYER:0
M107
G0 F12000 X101.805 Y98.36 Z0.2
G0 X98.601 Y106.513
;TYPE:SKIRT
G1 F1800 E0
G1 F600 X98.611 Y105.846 E0.02773
G1 X98.665 Y104.92 E0.0663
G1 X98.798 Y104.003 E0.10482
G1 X99.01 Y103.1 E0.14338
G1 X99.299 Y102.219 E0.18193
G1 X99.663 Y101.366 E0.22049
G1 X100.099 Y100.548 E0.25903
G1 X100.604 Y99.77 E0.29759
G1 X101.174 Y99.039 E0.33613
G1 X101.805 Y98.36 E0.37467
G1 X102.492 Y97.737 E0.41322
G1 X103.23 Y97.176 E0.45176
G1 X104.014 Y96.681 E0.49031
G1 X104.908 Y96.222 E0.53209
G1 X105.432 Y95.985 E0.556
G1 X107.158 Y95.233 E0.63428
G1 X109.525 Y94.12 E0.74302
G1 X110.856 Y93.465 E0.8047
G1 X111.704 Y93.091 E0.84323
G1 X112.582 Y92.793 E0.88178
G1 X113.482 Y92.571 E0.92032
G1 X114.398 Y92.428 E0.95886
G1 X115.274 Y92.365 E0.99537
G1 X115.93 Y92.35 E1.02265
G1 X118.693 Y92.35 E1.13753
G1 X119.548 Y92.361 E1.17308
G1 X120.474 Y92.414 E1.21164
G1 X121.391 Y92.547 E1.25016
G1 X122.294 Y92.758 E1.28871
G1 X123.175 Y93.047 E1.32726
G1 X124.095 Y93.442 E1.36889
G1 X126.638 Y94.678 E1.48644
G1 X128.975 Y95.734 E1.59306
G1 X129.931 Y96.15 E1.63641
G1 X130.765 Y96.557 E1.67499
G1 X131.56 Y97.033 E1.71351
G1 X132.311 Y97.577 E1.75207
G1 X133.013 Y98.183 E1.79062
G1 X133.66 Y98.847 E1.82917
G1 X134.247 Y99.565 E1.86772
G1 X134.77 Y100.33 E1.90625
G1 X135.225 Y101.138 E1.9448
G1 X135.609 Y101.982 E1.98335
G1 X135.919 Y102.856 E2.02191
G1 X136.152 Y103.753 E2.06044
G1 X136.307 Y104.667 E2.09898
G1 X136.387 Y105.708 E2.14239
G1 X136.4 Y106.33 E2.16825
G1 X136.399 Y132.997 E3.27694
G1 X136.39 Y133.724 E3.30717
G1 X136.339 Y134.65 E3.34572
G1 X136.208 Y135.568 E3.38428
G1 X135.998 Y136.471 E3.42282
G1 X135.711 Y137.352 E3.46134
G1 X135.35 Y138.206 E3.49989
G1 X134.916 Y139.026 E3.53846
G1 X134.413 Y139.805 E3.57701
G1 X133.845 Y140.537 E3.61553
G1 X133.216 Y141.218 E3.65408
G1 X132.531 Y141.843 E3.69263
G1 X131.794 Y142.406 E3.73119
G1 X131.012 Y142.903 E3.76971
G1 X130.189 Y143.331 E3.80828
G1 X129.333 Y143.687 E3.84682
G1 X128.45 Y143.968 E3.88534
G1 X127.545 Y144.171 E3.9239
G1 X126.626 Y144.296 E3.96246
G1 X125.942 Y144.337 E3.99095
G1 X125.32 Y144.35 E4.01682
G1 X109.918 Y144.349 E4.65716
G1 X109.22 Y144.34 E4.68618
G1 X108.295 Y144.288 E4.7247
G1 X107.377 Y144.157 E4.76325
G1 X106.474 Y143.947 E4.80179
G1 X105.592 Y143.66 E4.84036
G1 X104.739 Y143.297 E4.8789
G1 X103.92 Y142.863 E4.91743
G1 X103.141 Y142.36 E4.95599
G1 X102.408 Y141.792 E4.99454
G1 X101.728 Y141.162 E5.03308
G1 X101.104 Y140.477 E5.0716
G1 X100.541 Y139.74 E5.11016
G1 X100.044 Y138.957 E5.14872
G1 X99.616 Y138.134 E5.18728
G1 X99.261 Y137.278 E5.22581
G1 X98.981 Y136.394 E5.26436
G1 X98.778 Y135.49 E5.30288
G1 X98.654 Y134.571 E5.34144
G1 X98.613 Y133.881 E5.37018
G1 X98.6 Y133.258 E5.39608
G1 X98.601 Y106.513 E6.50801
G0 F12000 X99.101 Y106.52
G1 F600 X99.111 Y105.853 E6.53574
G1 X99.165 Y104.95 E6.57335
G1 X99.298 Y104.054 E6.61101
G1 X99.509 Y103.174 E6.64864
G1 X99.798 Y102.316 E6.68628
G1 X100.161 Y101.486 E6.72394
G1 X100.596 Y100.692 E6.76158
G1 X101.099 Y99.94 E6.79919
G1 X101.666 Y99.234 E6.83684
G1 X102.294 Y98.582 E6.87448
G1 X102.977 Y97.987 E6.91214
G1 X103.709 Y97.455 E6.94976
G1 X104.486 Y96.99 E6.9874
G1 X105.115 Y96.677 E7.01661
G1 X105.482 Y96.51 E7.03338
G1 X107.348 Y95.696 E7.11802
G1 X109.688 Y94.596 E7.22552
G1 X111.076 Y93.913 E7.28983
G1 X111.906 Y93.55 E7.32749
G1 X112.764 Y93.261 E7.36513
G1 X113.644 Y93.049 E7.40277
G1 X114.539 Y92.915 E7.44039
G1 X115.29 Y92.865 E7.47168
G1 X115.93 Y92.85 E7.4983
G1 X118.693 Y92.85 E7.61317
G1 X119.541 Y92.861 E7.64843
G1 X120.445 Y92.914 E7.68608
G1 X121.34 Y93.046 E7.72369
G1 X122.221 Y93.257 E7.76135
G1 X123.079 Y93.545 E7.79898
G1 X123.876 Y93.891 E7.8351
G1 X126.452 Y95.143 E7.95418
G1 X128.766 Y96.189 E8.05976
G1 X129.732 Y96.609 E8.10355
G1 X130.545 Y97.006 E8.14117
G1 X131.32 Y97.474 E8.17881
G1 X132.051 Y98.009 E8.21647
G1 X132.732 Y98.605 E8.25409
G1 X133.357 Y99.26 E8.29173
G1 X133.922 Y99.967 E8.32936
G1 X134.423 Y100.721 E8.367
G1 X134.855 Y101.517 E8.40465
G1 X135.215 Y102.348 E8.4423
G1 X135.501 Y103.207 E8.47994
G1 X135.71 Y104.088 E8.51759
G1 X135.84 Y104.984 E8.55523
G1 X135.887 Y105.722 E8.58597
G1 X135.9 Y106.33 E8.61126
G1 X135.899 Y132.991 E9.71969
G1 X135.89 Y133.718 E9.74992
G1 X135.839 Y134.622 E9.78756
G1 X135.708 Y135.518 E9.82521
G1 X135.499 Y136.398 E9.86281
G1 X135.213 Y137.257 E9.90045
G1 X134.852 Y138.088 E9.93812
G1 X134.419 Y138.883 E9.97576
G1 X133.918 Y139.637 E10.0134
G1 X133.352 Y140.344 E10.05105
G1 X132.727 Y140.998 E10.08866
G1 X132.045 Y141.594 E10.12631
G1 X131.314 Y142.128 E10.16395
G1 X130.539 Y142.595 E10.20157
G1 X129.725 Y142.992 E10.23922
G1 X128.88 Y143.316 E10.27685
G1 X128.009 Y143.564 E10.3145
G1 X127.12 Y143.734 E10.35213
G1 X125.928 Y143.837 E10.40187
G1 X125.32 Y143.85 E10.42715
G1 X109.925 Y143.849 E11.0672
G1 X109.227 Y143.84 E11.09623
G1 X108.323 Y143.789 E11.13387
G1 X107.427 Y143.657 E11.17152
G1 X106.547 Y143.448 E11.20913
G1 X105.688 Y143.161 E11.24678
G1 X104.858 Y142.8 E11.28441
G1 X104.063 Y142.367 E11.32205
G1 X103.309 Y141.865 E11.35971
G1 X102.603 Y141.299 E11.39733
G1 X101.949 Y140.673 E11.43497
G1 X101.353 Y139.991 E11.47262
G1 X100.819 Y139.26 E11.51026
G1 X100.352 Y138.484 E11.54791
G1 X99.956 Y137.67 E11.58555
G1 X99.632 Y136.825 E11.62317
G1 X99.385 Y135.954 E11.66081
G1 X99.215 Y135.065 E11.69844
G1 X99.113 Y133.868 E11.74839
G1 X99.1 Y133.258 E11.77375
G1 X99.101 Y106.52 E12.88539
G1 F1800 E11.88539
;MESH:Battery Cover.stl
G0 F12000 X108.685 Y106.52
G0 X109.77 Y106.52
G0 X113.5 Y110.58
G1 F1800 E12.88539
G0 F12000 X113.8 Y110.58
;TYPE:WALL-INNER
G1 F600 X113.8 Y106.6 E13.01777
G1 X109.95 Y106.6 E13.14582
G1 X109.95 Y133 E14.02389
G1 X125.05 Y133 E14.52611
G1 X125.05 Y108.525 E15.34016
G1 X125.05 Y106.6 E15.40418
G1 X121.2 Y106.6 E15.53223
G1 X121.2 Y110.623 E15.66604
G1 X121.094 Y110.892 E15.67565
G1 X120.986 Y111.012 E15.68102
G1 X120.658 Y111.2 E15.6936
G1 X119.371 Y111.196 E15.7364
G1 X119.171 Y111.133 E15.74338
G1 X118.992 Y110.989 E15.75102
G1 X118.909 Y110.865 E15.75598
G1 X118.802 Y110.561 E15.7667
G1 X118.8 Y103.7 E15.9949
G1 X116.2 Y103.7 E16.08138
G1 X116.199 Y110.596 E16.31074
G1 X116.133 Y110.829 E16.31879
G1 X115.911 Y111.065 E16.32957
G1 X115.608 Y111.2 E16.3406
G1 X114.379 Y111.2 E16.38148
G1 X114.118 Y111.102 E16.39075
G1 X114.003 Y111.003 E16.3958
G1 X113.861 Y110.765 E16.40502
G1 X113.8 Y110.58 E16.41149
G0 F12000 X114.3 Y110.735
;TYPE:WALL-OUTER
G1 F600 X114.202 Y110.535 E16.4189
G1 X114.2 Y106.2 E16.56308
G1 X109.55 Y106.2 E16.71774
G1 X109.55 Y133.4 E17.62242
G1 X125.45 Y133.4 E18.15126
G1 X125.45 Y108.525 E18.9786
G1 X125.45 Y106.2 E19.05593
G1 X120.8 Y106.2 E19.21059
G1 X120.798 Y110.586 E19.35647
G1 X120.729 Y110.705 E19.36105
G1 X120.542 Y110.796 E19.36796
G1 X119.423 Y110.799 E19.40518
G1 X119.321 Y110.755 E19.40888
G1 X119.2 Y110.521 E19.41764
G1 X119.2 Y103.3 E19.65781
G1 X115.8 Y103.3 E19.77089
G1 X115.8 Y110.621 E20.01439
G1 X115.704 Y110.723 E20.01905
G1 X115.527 Y110.799 E20.02546
G1 X114.415 Y110.798 E20.06244
G1 X114.3 Y110.735 E20.0668
G0 F12000 X113.952 Y111.415
;TYPE:SKIN
G1 F600 X113.725 Y111.224 E20.07544
G1 X113.601 Y111.044 E20.0818
G1 X113.446 Y110.636 E20.0945
G1 X113.444 Y106.956 E20.2016
G1 X110.306 Y106.956 E20.29292
G1 X110.306 Y132.644 E21.04051
G1 X124.694 Y132.644 E21.45924
G1 X124.694 Y108.525 E22.16116
G1 X124.694 Y106.956 E22.20683
G1 X121.556 Y106.956 E22.29815
G1 X121.555 Y110.576 E22.4035
G1 X121.519 Y110.816 E22.41056
G1 X121.401 Y111.073 E22.41879
G1 X121.23 Y111.27 E22.42639
G1 X121.037 Y111.404 E22.43322
G1 X120.646 Y111.554 E22.44541
G1 X119.362 Y111.555 E22.48278
G1 X119.063 Y111.479 E22.49176
G1 X118.733 Y111.235 E22.5037
G1 X118.579 Y111.005 E22.51176
G1 X118.451 Y110.685 E22.52179
G1 X118.444 Y104.056 E22.71471
G1 X116.558 Y104.056 E22.7696
G1 X116.554 Y110.625 E22.96077
G1 X116.453 Y110.996 E22.97196
G1 X116.196 Y111.305 E22.98366
G1 X115.917 Y111.462 E22.99298
G1 X115.591 Y111.555 E23.00284
G1 X114.32 Y111.554 E23.03983
G1 X113.952 Y111.415 E23.05128
G0 F12000 X120.693 Y111.438
G0 X121.196 Y111.192
G0 X124.455 Y107.13
G1 F600 X124.518 Y107.194 E23.05389
G0 F12000 X124.518 Y107.689
G1 F600 X123.96 Y107.13 E23.07688
G0 F12000 X123.465 Y107.13
G1 F600 X124.518 Y108.184 E23.12024
G0 F12000 X124.518 Y108.679
G1 F600 X122.97 Y107.13 E23.18397
G0 F12000 X122.475 Y107.13
G1 F600 X124.518 Y109.174 E23.26808
G0 F12000 X124.518 Y109.669
G1 F600 X121.98 Y107.13 E23.37255
G0 F12000 X121.729 Y107.374
G1 F600 X124.518 Y110.164 E23.48736
G0 F12000 X124.518 Y110.659
G1 F600 X121.729 Y107.869 E23.60217
G0 F12000 X121.728 Y108.364
G1 F600 X124.518 Y111.154 E23.717
G0 F12000 X124.518 Y111.649
G1 F600 X121.728 Y108.859 E23.83183
G0 F12000 X121.728 Y109.354
G1 F600 X124.518 Y112.144 E23.94666
G0 F12000 X124.518 Y112.639
G1 F600 X121.727 Y109.848 E24.06153
G0 F12000 X121.727 Y110.343
G1 F600 X124.518 Y113.134 E24.1764
G0 F12000 X124.518 Y113.629
G1 F600 X121.696 Y110.807 E24.29254
G0 F12000 X121.553 Y111.158
G1 F600 X124.518 Y114.124 E24.41459
G0 F12000 X124.518 Y114.619
G1 F600 X121.316 Y111.417 E24.54638
G0 F12000 X121.01 Y111.605
G1 F600 X124.518 Y115.114 E24.69078
G0 F12000 X124.518 Y115.609
G1 F600 X120.637 Y111.727 E24.85053
G0 F12000 X120.143 Y111.729
G1 F600 X124.518 Y116.104 E25.0306
G0 F12000 X124.518 Y116.599
G1 F600 X119.649 Y111.729 E25.23101
G0 F12000 X119.09 Y111.666
G1 F600 X124.518 Y117.094 E25.45441
G0 F12000 X124.518 Y117.589
G1 F600 X116.727 Y109.798 E25.77507
G0 F12000 X116.727 Y110.292
G1 F600 X124.518 Y118.084 E26.09575
G0 F12000 X124.518 Y118.578
G1 F600 X116.695 Y110.756 E26.4177
G0 F12000 X116.57 Y111.125
G1 F600 X124.518 Y119.073 E26.74482
G0 F12000 X124.518 Y119.568
G1 F600 X116.346 Y111.396 E27.08116
G0 F12000 X116.042 Y111.587
G1 F600 X124.518 Y120.063 E27.43001
G0 F12000 X124.518 Y120.558
G1 F600 X115.672 Y111.712 E27.79408
G0 F12000 X115.192 Y111.727
G1 F600 X124.518 Y121.053 E28.17792
G0 F12000 X124.518 Y121.548
G1 F600 X114.696 Y111.726 E28.58216
G0 F12000 X114.157 Y111.682
G1 F600 X124.518 Y122.043 E29.00859
G0 F12000 X124.518 Y122.538
G1 F600 X110.479 Y108.499 E29.5864
G0 F12000 X110.479 Y108.994
G1 F600 X124.518 Y123.033 E30.16421
G0 F12000 X124.518 Y123.528
G1 F600 X110.479 Y109.489 E30.74202
G0 F12000 X110.479 Y109.984
G1 F600 X124.518 Y124.023 E31.31983
G0 F12000 X124.518 Y124.518
G1 F600 X110.479 Y110.479 E31.89763
G0 F12000 X110.479 Y110.974
G1 F600 X124.518 Y125.013 E32.47544
G0 F12000 X124.518 Y125.508
G1 F600 X110.479 Y111.469 E33.05325
G0 F12000 X110.479 Y111.964
G1 F600 X124.518 Y126.003 E33.63106
G0 F12000 X124.518 Y126.498
G1 F600 X110.479 Y112.459 E34.20886
G0 F12000 X110.479 Y112.954
G1 F600 X124.518 Y126.993 E34.78667
G0 F12000 X124.518 Y127.488
G1 F600 X110.479 Y113.449 E35.36448
G0 F12000 X110.479 Y113.944
G1 F600 X124.518 Y127.983 E35.94229
G0 F12000 X124.518 Y128.478
G1 F600 X110.479 Y114.439 E36.52009
G0 F12000 X110.479 Y114.934
G1 F600 X124.518 Y128.973 E37.0979
G0 F12000 X124.518 Y129.468
G1 F600 X110.479 Y115.429 E37.67571
G0 F12000 X110.479 Y115.924
G1 F600 X124.518 Y129.963 E38.25352
G0 F12000 X124.518 Y130.458
G1 F600 X110.479 Y116.419 E38.83132
G0 F12000 X110.479 Y116.914
G1 F600 X124.518 Y130.953 E39.40913
G0 F12000 X124.518 Y131.448
G1 F600 X110.479 Y117.409 E39.98694
G0 F12000 X110.479 Y117.904
G1 F600 X124.518 Y131.943 E40.56475
G0 F12000 X124.518 Y132.438
G1 F600 X110.479 Y118.399 E41.14255
G0 F12000 X110.479 Y118.894
G1 F600 X124.053 Y132.467 E41.7012
G0 F12000 X123.558 Y132.467
G1 F600 X110.479 Y119.389 E42.23948
G0 F12000 X110.48 Y119.885
G1 F600 X123.063 Y132.467 E42.75734
G0 F12000 X122.568 Y132.467
G1 F600 X110.48 Y120.379 E43.25485
G0 F12000 X110.48 Y120.874
G1 F600 X122.073 Y132.467 E43.73199
G0 F12000 X121.578 Y132.467
G1 F600 X110.48 Y121.369 E44.18875
G0 F12000 X110.48 Y121.864
G1 F600 X121.083 Y132.467 E44.62514
G0 F12000 X120.588 Y132.467
G1 F600 X110.48 Y122.359 E45.04116
G0 F12000 X110.48 Y122.854
G1 F600 X120.093 Y132.467 E45.43681
G0 F12000 X119.598 Y132.467
G1 F600 X110.48 Y123.349 E45.81208
G0 F12000 X110.48 Y123.844
G1 F600 X119.103 Y132.467 E46.16698
G0 F12000 X118.608 Y132.467
G1 F600 X110.48 Y124.339 E46.5015
G0 F12000 X110.48 Y124.834
G1 F600 X118.113 Y132.467 E46.81566
G0 F12000 X117.618 Y132.467
G1 F600 X110.48 Y125.329 E47.10944
G0 F12000 X110.48 Y125.824
G1 F600 X117.123 Y132.467 E47.38285
G0 F12000 X116.628 Y132.467
G1 F600 X110.48 Y126.319 E47.63588
G0 F12000 X110.48 Y126.814
G1 F600 X116.133 Y132.467 E47.86854
G0 F12000 X115.638 Y132.467
G1 F600 X110.48 Y127.309 E48.08083
G0 F12000 X110.48 Y127.804
G1 F600 X115.143 Y132.467 E48.27275
G0 F12000 X114.648 Y132.467
G1 F600 X110.48 Y128.299 E48.44429
G0 F12000 X110.48 Y128.794
G1 F600 X114.153 Y132.467 E48.59547
G0 F12000 X113.658 Y132.467
G1 F600 X110.48 Y129.289 E48.72626
G0 F12000 X110.48 Y129.784
G1 F600 X113.163 Y132.467 E48.83669
G0 F12000 X112.668 Y132.467
G1 F600 X110.48 Y130.279 E48.92674
G0 F12000 X110.48 Y130.774
G1 F600 X112.174 Y132.467 E48.99644
G0 F12000 X111.679 Y132.467
G1 F600 X110.48 Y131.269 E49.04577
G0 F12000 X110.48 Y131.764
G1 F600 X111.184 Y132.467 E49.07472
G0 F12000 X110.689 Y132.467
G1 F600 X110.48 Y132.259 E49.0833
G0 F12000 X113.347 Y110.872
G1 F600 X110.479 Y108.004 E49.20134
G0 F12000 X110.479 Y107.509
G1 F600 X113.273 Y110.303 E49.31634
G0 F12000 X113.272 Y109.808
G1 F600 X110.595 Y107.13 E49.42653
G0 F12000 X111.09 Y107.13
G1 F600 X113.272 Y109.312 E49.51634
G0 F12000 X113.271 Y108.816
G1 F600 X111.585 Y107.13 E49.58573
G0 F12000 X112.08 Y107.13
G1 F600 X113.27 Y108.32 E49.63471
G0 F12000 X113.27 Y107.825
G1 F600 X112.575 Y107.13 E49.66331
G0 F12000 X113.07 Y107.13
G1 F600 X113.269 Y107.329 E49.6715
G0 F12000 X113.562 Y110.693
G0 X113.836 Y111.252
G0 X114.356 Y111.439
G0 X115.693 Y111.438
G0 X116.252 Y111.164
G0 X116.403 Y110.743
G0 X116.729 Y107.325
G1 F600 X118.27 Y108.866 E49.73493
G0 F12000 X118.27 Y108.371
G1 F600 X116.729 Y106.83 E49.79835
G0 F12000 X116.73 Y106.336
G1 F600 X118.27 Y107.876 E49.86173
G0 F12000 X118.269 Y107.38
G1 F600 X116.73 Y105.841 E49.92507
G0 F12000 X116.731 Y105.346
G1 F600 X118.269 Y106.885 E49.98839
G0 F12000 X118.269 Y106.39
G1 F600 X116.732 Y104.852 E50.05167
G0 F12000 X116.732 Y104.357
G1 F600 X118.269 Y105.895 E50.11495
G0 F12000 X118.269 Y105.399
G1 F600 X117.1 Y104.231 E50.16304
G0 F12000 X117.595 Y104.231
G1 F600 X118.269 Y104.904 E50.19076
G0 F12000 X118.269 Y104.409
G1 F600 X118.09 Y104.231 E50.19811
G0 F12000 X116.729 Y107.819
G1 F600 X118.271 Y109.361 E50.26158
G0 F12000 X118.271 Y109.856
G1 F600 X116.728 Y108.313 E50.32508
G0 F12000 X116.728 Y108.808
G1 F600 X118.271 Y110.351 E50.38859
G0 F12000 X118.365 Y110.94
G1 F600 X116.727 Y109.303 E50.45598
G0 F12000 X116.8 Y109.303
;MESH:NONMESH
G0 F600 X116.8 Y109.303 Z0.4
G0 F12000 X116.252 Y111.164
G0 X115.693 Y111.438
G0 X114.356 Y111.439
G0 X113.888 Y111.271
G0 X113.638 Y110.989
G0 X113.99 Y110.818
;TIME_ELAPSED:169.648497
;LAYER:1
M140 S80
M106 S127.5
;TYPE:WALL-INNER
;MESH:Battery Cover.stl
G1 F3600 X113.9 Y110.617 E50.46331
G1 X113.9 Y106.5 E50.60024
G1 X109.85 Y106.5 E50.73494
G1 X109.85 Y133.1 E51.61966
G1 X125.15 Y133.1 E52.12854
G1 X125.15 Y108.525 E52.94591
G1 X125.15 Y106.5 E53.01326
G1 X121.1 Y106.5 E53.14797
G1 X121.1 Y110.618 E53.28493
G1 X121.01 Y110.818 E53.29222
