;FLAVOR:Marlin
;TIME:3691
;Filament used: 2.11849m
;Layer height: 0.2
;MINX:73.067
;MINY:63.057
;MINZ:0.2
;MAXX:161.933
;MAXY:171.943
;MAXZ:3
;Generated with Cura_SteamEngine main
M140 S75
M105
M190 S75
M104 S230
M105
M109 S230
M82 ;absolute extrusion mode
; Ender 3 Custom Start G-code
G92 E0 ; Reset Extruder
G28 ; Home all axes
G29 ; BL-13 Bed Level
G92 E0 ; Reset Extruder
G1 Z2.0 F3000 ; Move Z Axis up little to prevent scratching of Heat Bed
G1 X235 Y0 Z2 F5000.0 ; Move to 235,0,2
G1 E40 F300  ;extrude 40mm for priming

G1 X235 Y0 Z0 F5000.0 ; Move to 235,0,0
G1 X225 Y10 Z0 F5000.0 ; Move to 225,10,0
G91 ;Relative positioning
G1 E-0.8 F1000 ;retract 0.8mm
G90 ;Absolute positioning
G1 X225 Y15 Z3 F5000.0 ; Move to 225,15,3
G1 X115 Y115 Z0 F5000.0 ; Move to 115,115,0
G92 E0
G92 E0
G1 F1800 E-1
;LAYER_COUNT:15
;LAYER:0
M107
G0 F12000 X76.702 Y67.93 Z0.2
G0 X73.07 Y77.544
;TYPE:SKIRT
G1 F1800 E0
G1 F600 X73.089 Y76.617 E0.03855
G1 X73.147 Y75.985 E0.06493
G1 X73.247 Y75.263 E0.09524
G1 X73.323 Y74.813 E0.11421
G1 X73.517 Y73.906 E0.15277
G1 X73.726 Y73.193 E0.18366
G1 X73.912 Y72.65 E0.20753
G1 X74.101 Y72.143 E0.23002
G1 X74.462 Y71.289 E0.26857
G1 X74.99 Y70.31 E0.31481
G1 X75.335 Y69.743 E0.34241
G1 X75.851 Y68.973 E0.38094
G1 X76.193 Y68.531 E0.40418
G1 X76.702 Y67.93 E0.43692
G1 X77.023 Y67.576 E0.45679
G1 X77.675 Y66.917 E0.49533
G1 X78.257 Y66.414 E0.52731
G1 X78.746 Y66.029 E0.55319
G1 X79.075 Y65.782 E0.57029
G1 X79.84 Y65.258 E0.60884
G1 X80.394 Y64.935 E0.6355
G1 X81.062 Y64.586 E0.66684
G1 X81.495 Y64.377 E0.68683
G1 X82.347 Y64.01 E0.7254
G1 X82.962 Y63.797 E0.75246
G1 X83.565 Y63.618 E0.77861
G1 X84.033 Y63.492 E0.79876
G1 X84.938 Y63.289 E0.83732
G1 X85.578 Y63.195 E0.86421
G1 X86.256 Y63.125 E0.89255
G1 X86.742 Y63.089 E0.91281
G1 X87.669 Y63.061 E0.95137
G1 X88.4 Y63.095 E0.98179
G1 X89.082 Y63.159 E1.01027
G1 X89.534 Y63.214 E1.0292
G1 X90.287 Y63.333 E1.0609
G1 X93.293 Y63.917 E1.18821
G1 X95.751 Y64.319 E1.29176
G1 X98.284 Y64.66 E1.39802
G1 X100.807 Y64.927 E1.5035
G1 X103.312 Y65.12 E1.60795
G1 X105.827 Y65.244 E1.71264
G1 X108.996 Y65.299 E1.84441
G1 X125.959 Y65.3 E2.54965
G1 X128.577 Y65.263 E2.6585
G1 X131.087 Y65.156 E2.76295
G1 X133.6 Y64.979 E2.86769
G1 X136.108 Y64.73 E2.97247
G1 X138.636 Y64.406 E3.07844
G1 X141.091 Y64.022 E3.18174
G1 X144.682 Y63.336 E3.33374
G1 X145.375 Y63.227 E3.36291
G1 X146.226 Y63.128 E3.39852
G1 X146.568 Y63.098 E3.4128
G1 X147.494 Y63.057 E3.45133
G1 X148.586 Y63.111 E3.49679
G1 X149.25 Y63.178 E3.52454
G1 X150.168 Y63.311 E3.5631
G1 X150.754 Y63.439 E3.58804
G1 X151.425 Y63.616 E3.61689
G1 X151.891 Y63.754 E3.63709
G1 X152.768 Y64.056 E3.67566
G1 X153.38 Y64.318 E3.70333
G1 X154.023 Y64.63 E3.73305
G1 X154.49 Y64.874 E3.75495
G1 X155.293 Y65.339 E3.79353
G1 X156.203 Y65.988 E3.84
G1 X156.711 Y66.392 E3.86699
G1 X157.411 Y67 E3.90553
G1 X157.827 Y67.416 E3.92999
G1 X158.321 Y67.956 E3.96042
G1 X158.641 Y68.329 E3.98085
G1 X159.214 Y69.058 E4.0194
G1 X159.649 Y69.71 E4.05199
G1 X159.943 Y70.195 E4.07557
G1 X160.18 Y70.611 E4.09548
G1 X160.603 Y71.435 E4.13398
G1 X160.92 Y72.191 E4.16807
G1 X161.116 Y72.726 E4.19175
G1 X161.259 Y73.15 E4.21036
G1 X161.517 Y74.04 E4.24888
G1 X161.673 Y74.779 E4.28028
G1 X161.762 Y75.311 E4.30271
G1 X161.827 Y75.77 E4.32198
G1 X161.917 Y76.692 E4.3605
G1 X161.933 Y77.503 E4.39422
G1 X161.917 Y78.098 E4.41897
G1 X161.89 Y78.585 E4.43925
G1 X161.731 Y79.921 E4.49518
G1 X161.216 Y82.742 E4.6144
G1 X160.83 Y85.268 E4.72064
G1 X160.521 Y87.76 E4.82504
G1 X160.281 Y90.272 E4.92995
G1 X160.113 Y92.784 E5.03462
G1 X160.015 Y95.329 E5.14051
G1 X159.99 Y97.833 E5.24462
G1 X160.035 Y100.37 E5.35011
G1 X160.151 Y102.869 E5.45412
G1 X160.342 Y105.412 E5.56014
G1 X160.597 Y107.889 E5.66367
G1 X160.927 Y110.388 E5.76847
G1 X161.523 Y113.968 E5.91936
G1 X161.746 Y115.162 E5.96986
G1 X161.876 Y116.08 E6.0084
G1 X161.926 Y116.936 E6.04405
G1 X161.933 Y117.597 E6.07153
G1 X161.928 Y117.988 E6.08779
G1 X161.876 Y118.914 E6.12635
G1 X161.761 Y119.742 E6.1611
G1 X161.176 Y123.016 E6.29938
G1 X160.807 Y125.483 E6.40308
G1 X160.495 Y128.05 E6.51059
G1 X160.268 Y130.511 E6.61334
G1 X160.105 Y133.053 E6.71925
G1 X160.014 Y135.565 E6.82375
G1 X159.995 Y138.095 E6.92894
G1 X160.048 Y140.633 E7.03448
G1 X160.172 Y143.142 E7.13892
G1 X160.365 Y145.649 E7.24346
G1 X160.635 Y148.182 E7.34936
G1 X160.966 Y150.644 E7.45264
G1 X161.533 Y154.014 E7.59472
G1 X161.723 Y155.031 E7.63773
G1 X161.877 Y156.217 E7.68746
G1 X161.919 Y156.978 E7.71914
G1 X161.93 Y157.459 E7.73914
G1 X161.911 Y158.386 E7.77769
G1 X161.851 Y159.028 E7.8045
G1 X161.749 Y159.758 E7.83515
G1 X161.662 Y160.267 E7.85661
G1 X161.467 Y161.173 E7.89514
G1 X161.149 Y162.183 E7.93917
G1 X160.925 Y162.789 E7.96603
G1 X160.567 Y163.644 E8.00456
G1 X160.244 Y164.274 E8.034
G1 X159.919 Y164.842 E8.06121
G1 X159.669 Y165.253 E8.08121
G1 X159.154 Y166.023 E8.11972
G1 X158.777 Y166.508 E8.14526
G1 X158.298 Y167.07 E8.17596
G1 X157.977 Y167.424 E8.19583
G1 X157.325 Y168.083 E8.23437
G1 X156.749 Y168.581 E8.26602
G1 X156.276 Y168.954 E8.29107
G1 X155.933 Y169.212 E8.30891
G1 X155.169 Y169.737 E8.34745
G1 X154.59 Y170.074 E8.37531
G1 X153.948 Y170.409 E8.40541
G1 X153.514 Y170.619 E8.42546
G1 X152.663 Y170.986 E8.46399
G1 X152.038 Y171.203 E8.49149
G1 X151.435 Y171.382 E8.51764
G1 X150.967 Y171.508 E8.53779
G1 X150.062 Y171.711 E8.57635
G1 X149.422 Y171.805 E8.60325
G1 X148.744 Y171.875 E8.63159
G1 X148.258 Y171.911 E8.65185
G1 X147.331 Y171.939 E8.6904
G1 X146.6 Y171.905 E8.72083
G1 X145.92 Y171.842 E8.74922
G1 X145.467 Y171.787 E8.76819
G1 X144.711 Y171.667 E8.80002
G1 X141.728 Y171.087 E8.92636
G1 X139.218 Y170.677 E9.0321
G1 X136.684 Y170.335 E9.1384
G1 X134.225 Y170.076 E9.2412
G1 X131.688 Y169.88 E9.34699
G1 X129.174 Y169.756 E9.45164
G1 X126.002 Y169.701 E9.58353
G1 X109.041 Y169.7 E10.28869
G1 X106.422 Y169.737 E10.39759
G1 X103.91 Y169.844 E10.50212
G1 X101.401 Y170.021 E10.60669
G1 X98.889 Y170.271 E10.71164
G1 X96.374 Y170.592 E10.81705
G1 X93.906 Y170.979 E10.92091
G1 X90.319 Y171.664 E11.07274
G1 X89.621 Y171.774 E11.10212
G1 X89.151 Y171.832 E11.12181
G1 X88.431 Y171.902 E11.15188
G1 X87.505 Y171.943 E11.19042
G1 X86.411 Y171.889 E11.23596
G1 X85.748 Y171.822 E11.26366
G1 X84.831 Y171.689 E11.30218
G1 X84.246 Y171.561 E11.32708
G1 X83.546 Y171.375 E11.35719
G1 X83.068 Y171.232 E11.37794
G1 X82.192 Y170.928 E11.41649
G1 X81.584 Y170.665 E11.44403
G1 X80.971 Y170.367 E11.47237
G1 X80.541 Y170.142 E11.49254
G1 X79.739 Y169.677 E11.53108
G1 X79.166 Y169.284 E11.55997
G1 X78.657 Y168.9 E11.58648
G1 X78.278 Y168.598 E11.60663
G1 X77.578 Y167.99 E11.64518
G1 X77.167 Y167.578 E11.66937
G1 X76.677 Y167.041 E11.69959
G1 X76.358 Y166.669 E11.71997
G1 X75.785 Y165.94 E11.75852
G1 X75.351 Y165.29 E11.79101
G1 X75.063 Y164.815 E11.81411
G1 X74.822 Y164.393 E11.83431
G1 X74.397 Y163.569 E11.87286
G1 X74.125 Y162.924 E11.90196
G1 X73.876 Y162.252 E11.93175
G1 X73.736 Y161.836 E11.95
G1 X73.479 Y160.945 E11.98856
G1 X73.364 Y160.416 E12.01106
G1 X73.237 Y159.681 E12.04207
G1 X73.164 Y159.163 E12.06382
G1 X73.075 Y158.24 E12.10237
G1 X73.074 Y157.089 E12.15023
G1 X73.109 Y156.434 E12.1775
G1 X73.269 Y155.076 E12.23435
G1 X73.788 Y152.238 E12.35429
G1 X74.17 Y149.732 E12.45969
G1 X74.479 Y147.24 E12.56408
G1 X74.719 Y144.728 E12.669
G1 X74.887 Y142.216 E12.77367
G1 X74.985 Y139.671 E12.87955
G1 X75.01 Y137.167 E12.98366
G1 X74.965 Y134.63 E13.08916
G1 X74.849 Y132.131 E13.19316
G1 X74.658 Y129.587 E13.29923
G1 X74.403 Y127.111 E13.40271
G1 X74.074 Y124.615 E13.50738
G1 X73.474 Y121.014 E13.65916
G1 X73.254 Y119.836 E13.70898
G1 X73.124 Y118.918 E13.74753
G1 X73.074 Y118.063 E13.78314
G1 X73.067 Y117.403 E13.81058
G1 X73.072 Y117.011 E13.82688
G1 X73.124 Y116.085 E13.86544
G1 X73.239 Y115.257 E13.90019
G1 X73.826 Y111.972 E14.03893
G1 X74.193 Y109.517 E14.14213
G1 X74.505 Y106.95 E14.24964
G1 X74.732 Y104.489 E14.35239
G1 X74.895 Y101.947 E14.45829
G1 X74.986 Y99.435 E14.56279
G1 X75.005 Y96.904 E14.66802
G1 X74.952 Y94.367 E14.77352
G1 X74.828 Y91.855 E14.87809
G1 X74.635 Y89.352 E14.98246
G1 X74.365 Y86.813 E15.08861
G1 X74.035 Y84.364 E15.19135
G1 X73.46 Y80.946 E15.33545
G1 X73.276 Y79.958 E15.37723
G1 X73.124 Y78.794 E15.42604
G1 X73.081 Y78.023 E15.45814
G1 X73.07 Y77.544 E15.47806
G0 F12000 X73.57 Y77.532
G1 F600 X73.589 Y76.627 E15.5157
G1 X73.644 Y76.046 E15.53996
G1 X73.74 Y75.346 E15.56934
G1 X73.816 Y74.896 E15.58831
G1 X74.006 Y74.011 E15.62594
G1 X74.203 Y73.342 E15.65494
G1 X74.381 Y72.825 E15.67767
G1 X74.57 Y72.318 E15.70016
G1 X74.923 Y71.484 E15.73782
G1 X75.418 Y70.57 E15.78103
G1 X75.763 Y70.003 E15.80862
G1 X76.267 Y69.251 E15.84626
G1 X76.727 Y68.668 E15.87714
G1 X77.073 Y68.266 E15.89919
G1 X77.394 Y67.912 E15.91905
G1 X78.031 Y67.269 E15.95668
G1 X78.57 Y66.804 E15.98628
G1 X79.046 Y66.429 E16.01147
G1 X79.375 Y66.182 E16.02858
G1 X80.122 Y65.671 E16.06621
G1 X80.633 Y65.374 E16.09078
G1 X81.279 Y65.036 E16.12109
G1 X81.712 Y64.827 E16.14108
G1 X82.544 Y64.47 E16.17872
G1 X83.111 Y64.275 E16.20365
G1 X83.695 Y64.1 E16.22899
G1 X84.163 Y63.974 E16.24914
G1 X85.047 Y63.778 E16.28679
G1 X85.636 Y63.692 E16.31154
G1 X86.293 Y63.624 E16.339
G1 X86.779 Y63.588 E16.35926
G1 X87.684 Y63.561 E16.3969
G1 X88.36 Y63.593 E16.42504
G1 X89.022 Y63.655 E16.45268
G1 X89.474 Y63.71 E16.47161
G1 X90.192 Y63.823 E16.50183
G1 X93.221 Y64.412 E16.63012
G1 X95.71 Y64.818 E16.73497
G1 X98.235 Y65.159 E16.8409
G1 X100.752 Y65.424 E16.94612
G1 X103.247 Y65.617 E17.05016
G1 X105.826 Y65.744 E17.15751
G1 X108.987 Y65.799 E17.28895
G1 X125.966 Y65.8 E17.99486
G1 X128.57 Y65.763 E18.10313
G1 X131.108 Y65.655 E18.20874
G1 X133.652 Y65.476 E18.31477
G1 X136.185 Y65.224 E18.4206
G1 X138.701 Y64.902 E18.52606
G1 X141.169 Y64.515 E18.62992
G1 X144.775 Y63.827 E18.78254
G1 X145.436 Y63.723 E18.81036
G1 X145.904 Y63.665 E18.82997
G1 X146.611 Y63.596 E18.8595
G1 X147.516 Y63.557 E18.89716
G1 X148.536 Y63.609 E18.93962
G1 X149.2 Y63.676 E18.96737
G1 X150.096 Y63.806 E19.00501
G1 X150.634 Y63.924 E19.02791
G1 X151.283 Y64.096 E19.05583
G1 X151.749 Y64.234 E19.07603
G1 X152.605 Y64.529 E19.11367
G1 X153.169 Y64.771 E19.13919
G1 X153.792 Y65.073 E19.16797
G1 X154.259 Y65.317 E19.18988
G1 X155.042 Y65.772 E19.22753
G1 X155.892 Y66.38 E19.27098
G1 X156.4 Y66.784 E19.29796
G1 X157.083 Y67.378 E19.3356
G1 X157.464 Y67.759 E19.358
G1 X157.941 Y68.282 E19.38743
G1 X158.261 Y68.655 E19.40786
G1 X158.82 Y69.367 E19.44549
G1 X159.229 Y69.98 E19.47613
G1 X159.508 Y70.442 E19.49857
G1 X159.745 Y70.858 E19.51847
G1 X160.158 Y71.664 E19.55613
G1 X160.455 Y72.376 E19.5882
G1 X160.642 Y72.885 E19.61075
G1 X160.785 Y73.309 E19.62935
G1 X161.037 Y74.179 E19.66701
G1 X161.182 Y74.874 E19.69652
G1 X161.267 Y75.381 E19.7179
G1 X161.332 Y75.84 E19.73717
G1 X161.419 Y76.741 E19.7748
G1 X161.433 Y77.503 E19.80649
G1 X161.417 Y78.07 E19.83007
G1 X161.39 Y78.557 E19.85035
G1 X161.239 Y79.831 E19.90369
G1 X160.723 Y82.656 E20.02308
G1 X160.334 Y85.202 E20.13016
G1 X160.026 Y87.69 E20.23439
G1 X159.78 Y90.261 E20.34176
G1 X159.613 Y92.766 E20.44614
G1 X159.515 Y95.305 E20.55178
G1 X159.49 Y97.836 E20.65701
G1 X159.535 Y100.367 E20.76225
G1 X159.654 Y102.929 E20.86889
G1 X159.841 Y105.433 E20.97328
G1 X160.102 Y107.966 E21.07915
G1 X160.43 Y110.449 E21.18327
G1 X161.037 Y114.093 E21.33686
G1 X161.254 Y115.254 E21.38597
G1 X161.381 Y116.15 E21.42359
G1 X161.426 Y116.945 E21.4567
G1 X161.433 Y117.591 E21.48355
G1 X161.428 Y117.982 E21.49981
G1 X161.377 Y118.886 E21.53746
G1 X161.269 Y119.654 E21.5697
G1 X160.685 Y122.925 E21.70784
G1 X160.306 Y125.455 E21.8142
G1 X160.003 Y127.945 E21.91849
G1 X159.767 Y130.504 E22.02533
G1 X159.604 Y133.039 E22.13094
G1 X159.514 Y135.543 E22.23511
G1 X159.495 Y138.102 E22.34151
G1 X159.548 Y140.632 E22.44671
G1 X159.673 Y143.172 E22.55244
G1 X159.869 Y145.705 E22.65807
G1 X160.137 Y148.231 E22.76368
G1 X160.474 Y150.732 E22.86859
G1 X161.046 Y154.134 E23.01202
G1 X161.231 Y155.122 E23.05381
G1 X161.378 Y156.253 E23.10123
G1 X161.419 Y156.99 E23.13191
G1 X161.43 Y157.471 E23.15192
G1 X161.411 Y158.376 E23.18955
G1 X161.355 Y158.966 E23.21419
G1 X161.256 Y159.674 E23.24391
G1 X161.169 Y160.183 E23.26538
G1 X160.978 Y161.068 E23.30302
G1 X160.68 Y162.01 E23.3441
G1 X160.456 Y162.616 E23.37096
G1 X160.105 Y163.45 E23.40858
G1 X159.806 Y164.032 E23.43578
G1 X159.492 Y164.582 E23.46211
G1 X159.242 Y164.993 E23.48211
G1 X158.738 Y165.745 E23.51975
G1 X158.391 Y166.19 E23.54321
G1 X157.927 Y166.734 E23.57294
G1 X157.606 Y167.088 E23.5928
G1 X156.969 Y167.731 E23.63043
G1 X156.436 Y168.191 E23.65971
G1 X155.975 Y168.554 E23.6841
G1 X155.632 Y168.812 E23.70194
G1 X154.886 Y169.324 E23.73956
G1 X154.351 Y169.635 E23.76529
G1 X153.73 Y169.959 E23.79441
G1 X153.296 Y170.169 E23.81445
G1 X152.465 Y170.527 E23.85207
G1 X151.889 Y170.725 E23.8774
G1 X151.305 Y170.9 E23.90274
G1 X150.837 Y171.026 E23.92289
G1 X149.953 Y171.222 E23.96054
G1 X149.364 Y171.308 E23.98528
G1 X148.707 Y171.376 E24.01275
G1 X148.221 Y171.412 E24.03301
G1 X147.316 Y171.439 E24.07065
G1 X146.64 Y171.407 E24.09879
G1 X145.981 Y171.345 E24.1263
G1 X145.528 Y171.29 E24.14528
G1 X144.807 Y171.177 E24.17562
G1 X141.779 Y170.588 E24.30387
G1 X139.29 Y170.182 E24.40872
G1 X136.767 Y169.842 E24.51456
G1 X134.281 Y169.579 E24.61849
G1 X131.718 Y169.381 E24.72536
G1 X129.175 Y169.256 E24.83122
G1 X126.011 Y169.201 E24.96278
G1 X109.034 Y169.2 E25.6686
G1 X106.429 Y169.237 E25.77692
G1 X103.89 Y169.345 E25.88257
G1 X101.353 Y169.524 E25.98831
G1 X98.812 Y169.776 E26.09447
G1 X96.299 Y170.098 E26.1998
G1 X93.832 Y170.485 E26.30362
G1 X90.226 Y171.173 E26.45625
G1 X89.559 Y171.278 E26.48432
G1 X89.089 Y171.336 E26.50401
G1 X88.388 Y171.404 E26.53329
G1 X87.483 Y171.443 E26.57095
G1 X86.461 Y171.391 E26.6135
G1 X85.798 Y171.324 E26.6412
G1 X84.903 Y171.193 E26.67881
G1 X84.366 Y171.076 E26.70166
G1 X83.689 Y170.896 E26.73078
G1 X83.211 Y170.753 E26.75152
G1 X82.356 Y170.455 E26.78917
G1 X81.796 Y170.213 E26.81453
G1 X81.203 Y169.924 E26.84196
G1 X80.773 Y169.699 E26.86213
G1 X79.99 Y169.244 E26.89978
G1 X79.461 Y168.881 E26.92646
G1 X78.968 Y168.509 E26.95213
G1 X78.589 Y168.207 E26.97228
G1 X77.907 Y167.612 E27.00991
G1 X77.531 Y167.235 E27.03205
G1 X77.056 Y166.715 E27.06133
G1 X76.737 Y166.343 E27.0817
G1 X76.179 Y165.631 E27.11931
G1 X75.771 Y165.02 E27.14986
G1 X75.497 Y164.567 E27.17187
G1 X75.256 Y164.145 E27.19207
G1 X74.842 Y163.34 E27.22971
G1 X74.591 Y162.744 E27.25659
G1 X74.35 Y162.092 E27.28549
G1 X74.21 Y161.676 E27.30374
G1 X73.96 Y160.806 E27.34137
G1 X73.856 Y160.323 E27.36192
G1 X73.732 Y159.611 E27.39196
G1 X73.659 Y159.093 E27.41371
G1 X73.573 Y158.192 E27.45134
G1 X73.574 Y157.116 E27.49608
G1 X73.609 Y156.461 E27.52335
G1 X73.761 Y155.166 E27.57756
G1 X74.278 Y152.337 E27.69712
G1 X74.666 Y149.798 E27.8039
G1 X74.974 Y147.31 E27.90813
G1 X75.22 Y144.739 E28.01551
G1 X75.387 Y142.234 E28.11989
G1 X75.485 Y139.695 E28.22553
G1 X75.51 Y137.164 E28.33076
G1 X75.465 Y134.633 E28.436
G1 X75.346 Y132.071 E28.54263
G1 X75.159 Y129.569 E28.64694
G1 X74.897 Y127.026 E28.75323
G1 X74.568 Y124.53 E28.8579
G1 X73.969 Y120.939 E29.00926
G1 X73.746 Y119.744 E29.0598
G1 X73.619 Y118.848 E29.09742
G1 X73.574 Y118.054 E29.13048
G1 X73.567 Y117.409 E29.1573
G1 X73.572 Y117.017 E29.1736
G1 X73.623 Y116.113 E29.21124
G1 X73.731 Y115.345 E29.24349
G1 X74.315 Y112.075 E29.38159
G1 X74.694 Y109.545 E29.48795
G1 X74.997 Y107.055 E29.59223
G1 X75.233 Y104.496 E29.69908
G1 X75.396 Y101.961 E29.80469
G1 X75.486 Y99.457 E29.90886
G1 X75.505 Y96.898 E30.01525
G1 X75.452 Y94.368 E30.12046
G1 X75.327 Y91.828 E30.22619
G1 X75.131 Y89.294 E30.33186
G1 X74.863 Y86.769 E30.43742
G1 X74.527 Y84.272 E30.54217
G1 X73.958 Y80.891 E30.68471
G1 X73.767 Y79.867 E30.72802
G1 X73.623 Y78.757 E30.77456
G1 X73.581 Y78.011 E30.80562
G1 X73.57 Y77.532 E30.82554
G1 F1800 E29.82554
;MESH:Bottom Skidplate.stl
G0 F12000 X103.781 Y88.786
G0 X104.86 Y88.381
G0 X105.282 Y106.85
G1 F1800 E30.82554
G0 F12000 X105.012 Y106.703
;TYPE:WALL-INNER
G1 F600 X104.817 Y107.039 E30.83846
