;FLAVOR:Marlin
;TIME:5186
;Filament used: 3.92909m
;Layer height: 0.2
;MINX:101.579
;MINY:66.225
;MINZ:0.2
;MAXX:133.412
;MAXY:163.933
;MAXZ:49
;Generated with Cura_SteamEngine main
M140 S75
M105
M190 S75
M104 S230
M105
M109 S230
M82 ;absolute extrusion mode
; Ender 3 Custom Start G-code
G92 E0 ; Reset Extruder
G28 ; Home all axes
G29 ; BL-13 Bed Level
G92 E0 ; Reset Extruder
G1 Z2.0 F3000 ; Move Z Axis up little to prevent scratching of Heat Bed
G1 X235 Y0 Z2 F5000.0 ; Move to 235,0,2
G1 E40 F300  ;extrude 40mm for priming

G1 X235 Y0 Z0 F5000.0 ; Move to 235,0,0
G1 X225 Y10 Z0 F5000.0 ; Move to 225,10,0
G91 ;Relative positioning
G1 E-0.8 F1000 ;retract 0.8mm
G90 ;Absolute positioning
G1 X225 Y15 Z3 F5000.0 ; Move to 225,15,3
G1 X115 Y115 Z0 F5000.0 ; Move to 115,115,0
G92 E0
G92 E0
G1 F1800 E-1
;LAYER_COUNT:245
;LAYER:0
M107
G1 F600 Z0.5
G0 F12000 X106.166 Y71.604 Z0.5
G1 F600 Z0.2
G0 F12000 X105.2 Y74.475
;TYPE:SKIRT
G1 F1800 E0
G1 F600 X105.24 Y73.86 E0.02562
G1 X105.359 Y73.256 E0.05122
G1 X105.556 Y72.672 E0.07684
G1 X105.826 Y72.118 E0.10246
G1 X106.166 Y71.604 E0.12809
G1 X106.569 Y71.138 E0.1537
G1 X107.029 Y70.729 E0.17929
G1 X107.539 Y70.382 E0.20494
G1 X108.089 Y70.105 E0.23054
G1 X108.67 Y69.901 E0.25614
G1 X109.273 Y69.773 E0.28177
G1 X109.95 Y69.725 E0.30998
G1 X110.869 Y69.725 E0.34819
G1 X111.056 Y69.172 E0.37246
G1 X111.326 Y68.618 E0.39808
G1 X111.666 Y68.104 E0.42371
G1 X112.069 Y67.638 E0.44932
G1 X112.529 Y67.229 E0.47491
G1 X113.039 Y66.882 E0.50056
G1 X113.589 Y66.605 E0.52616
G1 X114.17 Y66.401 E0.55176
G1 X114.773 Y66.273 E0.57739
G1 X115.45 Y66.225 E0.60561
G1 X119.55 Y66.225 E0.77606
G1 X120.165 Y66.265 E0.80169
G1 X120.769 Y66.384 E0.82728
G1 X121.353 Y66.581 E0.85291
G1 X121.907 Y66.851 E0.87853
G1 X122.421 Y67.191 E0.90415
G1 X122.887 Y67.594 E0.92976
G1 X123.296 Y68.054 E0.95535
G1 X123.643 Y68.564 E0.981
G1 X123.92 Y69.114 E1.0066
G1 X124.13 Y69.725 E1.03346
G1 X125.05 Y69.725 E1.07171
G1 X125.665 Y69.765 E1.09734
G1 X126.269 Y69.884 E1.12293
G1 X126.853 Y70.081 E1.14855
G1 X127.407 Y70.351 E1.17418
G1 X127.921 Y70.691 E1.1998
G1 X128.387 Y71.094 E1.22541
G1 X128.796 Y71.554 E1.251
G1 X129.143 Y72.064 E1.27665
G1 X129.42 Y72.614 E1.30225
G1 X129.624 Y73.195 E1.32785
G1 X129.752 Y73.798 E1.35348
G1 X129.8 Y74.475 E1.3817
G1 X129.8 Y136.394 E3.95599
G1 X130.353 Y136.581 E3.98026
G1 X130.907 Y136.851 E4.00588
G1 X131.421 Y137.191 E4.03151
G1 X131.887 Y137.594 E4.05712
G1 X132.296 Y138.054 E4.08271
G1 X132.643 Y138.564 E4.10836
G1 X132.92 Y139.114 E4.13396
G1 X133.124 Y139.695 E4.15956
G1 X133.252 Y140.298 E4.18519
G1 X133.3 Y140.975 E4.2134
G1 X133.3 Y145.878 E4.41725
G1 X133.412 Y147.664 E4.49165
G1 X133.41 Y148.28 E4.51726
G1 X133.329 Y148.891 E4.54288
G1 X133.17 Y149.486 E4.56849
G1 X132.934 Y150.055 E4.5941
G1 X132.628 Y150.589 E4.61969
G1 X132.254 Y151.079 E4.64531
G1 X131.82 Y151.517 E4.67095
G1 X131.334 Y151.895 E4.69655
G1 X130.802 Y152.206 E4.72217
G1 X130.235 Y152.446 E4.74776
G1 X129.641 Y152.611 E4.7734
G1 X129.031 Y152.697 E4.79901
G1 X128.672 Y152.711 E4.81394
G1 X124.454 Y152.712 E4.98931
G1 X123.839 Y152.672 E5.01493
G1 X123.235 Y152.553 E5.04052
G1 X122.651 Y152.357 E5.06614
G1 X122.097 Y152.087 E5.09176
G1 X121.583 Y151.747 E5.11738
G1 X121.117 Y151.344 E5.14299
G1 X120.708 Y150.883 E5.16862
G1 X120.566 Y150.675 E5.17909
G1 X114.436 Y150.675 E5.43394
G1 X114.323 Y150.844 E5.44239
G1 X113.918 Y151.308 E5.468
G1 X113.457 Y151.716 E5.49359
G1 X112.946 Y152.061 E5.51923
G1 X112.395 Y152.337 E5.54485
G1 X111.813 Y152.539 E5.57046
G1 X111.21 Y152.665 E5.59607
G1 X110.548 Y152.711 E5.62366
G1 X106.329 Y152.711 E5.79907
G1 X105.714 Y152.671 E5.82469
G1 X105.11 Y152.552 E5.85028
G1 X104.526 Y152.355 E5.87591
G1 X103.972 Y152.085 E5.90153
G1 X103.458 Y151.745 E5.92715
G1 X102.992 Y151.342 E5.95277
G1 X102.583 Y150.882 E5.97836
G1 X102.236 Y150.372 E6.004
G1 X101.959 Y149.822 E6.02961
G1 X101.755 Y149.241 E6.05521
G1 X101.627 Y148.638 E6.08084
G1 X101.579 Y148.024 E6.10644
G1 X101.588 Y147.664 E6.12141
G1 X101.7 Y145.878 E6.19581
G1 X101.7 Y140.975 E6.39965
G1 X101.74 Y140.36 E6.42528
G1 X101.859 Y139.756 E6.45087
G1 X102.056 Y139.172 E6.4765
G1 X102.326 Y138.618 E6.50212
G1 X102.666 Y138.104 E6.52774
G1 X103.069 Y137.638 E6.55335
G1 X103.529 Y137.229 E6.57894
G1 X104.039 Y136.882 E6.60459
G1 X104.589 Y136.605 E6.63019
G1 X105.2 Y136.395 E6.65705
G1 X105.2 Y74.475 E9.23139
G0 F12000 X105.7 Y74.475
G1 F600 X105.74 Y73.894 E9.2556
G1 X105.859 Y73.323 E9.27985
G1 X106.055 Y72.774 E9.30409
G1 X106.324 Y72.258 E9.32828
G1 X106.662 Y71.782 E9.35255
G1 X107.061 Y71.358 E9.37676
G1 X107.515 Y70.992 E9.401
G1 X108.014 Y70.692 E9.42521
G1 X108.55 Y70.462 E9.44946
G1 X109.112 Y70.308 E9.47368
G1 X109.95 Y70.225 E9.50869
G1 X111.275 Y70.225 E9.56378
G1 X111.359 Y69.823 E9.58086
G1 X111.555 Y69.274 E9.60509
G1 X111.824 Y68.758 E9.62928
G1 X112.162 Y68.282 E9.65356
G1 X112.561 Y67.858 E9.67776
G1 X113.015 Y67.492 E9.70201
G1 X113.514 Y67.192 E9.72621
G1 X114.05 Y66.962 E9.75046
G1 X114.612 Y66.808 E9.77469
G1 X115.45 Y66.725 E9.8097
G1 X119.55 Y66.725 E9.98016
G1 X120.131 Y66.765 E10.00437
G1 X120.702 Y66.884 E10.02862
G1 X121.251 Y67.08 E10.05286
G1 X121.767 Y67.349 E10.07705
G1 X122.243 Y67.687 E10.10132
G1 X122.667 Y68.086 E10.12553
G1 X123.033 Y68.54 E10.14977
G1 X123.333 Y69.039 E10.17398
G1 X123.563 Y69.575 E10.19823
G1 X123.741 Y70.225 E10.22624
G1 X125.05 Y70.225 E10.28067
G1 X125.631 Y70.265 E10.30488
G1 X126.202 Y70.384 E10.32913
G1 X126.751 Y70.58 E10.35336
G1 X127.267 Y70.849 E10.37756
G1 X127.743 Y71.187 E10.40183
G1 X128.167 Y71.586 E10.42603
G1 X128.533 Y72.04 E10.45028
G1 X128.833 Y72.539 E10.47449
G1 X129.063 Y73.075 E10.49874
G1 X129.217 Y73.637 E10.52296
G1 X129.3 Y74.475 E10.55797
G1 X129.3 Y136.8 E13.14914
G1 X129.702 Y136.884 E13.16622
G1 X130.251 Y137.08 E13.19045
G1 X130.767 Y137.349 E13.21465
G1 X131.243 Y137.687 E13.23892
G1 X131.667 Y138.086 E13.26312
G1 X132.033 Y138.54 E13.28737
G1 X132.333 Y139.039 E13.31158
G1 X132.563 Y139.575 E13.33583
G1 X132.717 Y140.137 E13.36005
G1 X132.8 Y140.975 E13.39506
G1 X132.8 Y145.894 E13.59957
G1 X132.913 Y147.695 E13.6746
G1 X132.909 Y148.278 E13.69883
G1 X132.826 Y148.854 E13.72303
G1 X132.665 Y149.414 E13.74725
G1 X132.428 Y149.947 E13.77151
G1 X132.121 Y150.442 E13.79572
G1 X131.749 Y150.891 E13.81996
G1 X131.32 Y151.285 E13.84418
G1 X130.84 Y151.616 E13.86842
G1 X130.32 Y151.878 E13.89263
G1 X129.768 Y152.067 E13.91689
G1 X129.196 Y152.178 E13.94111
G1 X128.672 Y152.211 E13.96294
G1 X124.454 Y152.212 E14.1383
G1 X123.873 Y152.172 E14.16252
G1 X123.302 Y152.053 E14.18677
G1 X122.753 Y151.857 E14.211
G1 X122.236 Y151.588 E14.23523
G1 X121.761 Y151.251 E14.25944
G1 X121.337 Y150.852 E14.28365
G1 X120.971 Y150.398 E14.3079
G1 X120.836 Y150.175 E14.31873
G1 X114.175 Y150.175 E14.59567
G1 X113.828 Y150.664 E14.62059
G1 X113.427 Y151.087 E14.64483
G1 X112.972 Y151.452 E14.66908
G1 X112.472 Y151.75 E14.69328
G1 X111.936 Y151.978 E14.71749
G1 X111.373 Y152.13 E14.74174
G1 X110.548 Y152.211 E14.7762
G1 X106.329 Y152.211 E14.95161
G1 X105.748 Y152.171 E14.97582
G1 X105.177 Y152.052 E15.00007
G1 X104.628 Y151.856 E15.02431
G1 X104.112 Y151.587 E15.0485
G1 X103.636 Y151.249 E15.07277
G1 X103.212 Y150.85 E15.09698
G1 X102.846 Y150.396 E15.12122
G1 X102.546 Y149.897 E15.14543
G1 X102.316 Y149.361 E15.16968
G1 X102.162 Y148.799 E15.1939
G1 X102.087 Y148.221 E15.21814
G1 X102.087 Y147.695 E15.24
G1 X102.2 Y145.893 E15.31507
G1 X102.2 Y140.975 E15.51954
G1 X102.24 Y140.394 E15.54375
G1 X102.359 Y139.823 E15.568
G1 X102.555 Y139.274 E15.59223
G1 X102.824 Y138.758 E15.61643
G1 X103.162 Y138.282 E15.6407
G1 X103.561 Y137.858 E15.6649
G1 X104.015 Y137.492 E15.68915
G1 X104.514 Y137.192 E15.71336
G1 X105.05 Y136.962 E15.73761
G1 X105.7 Y136.784 E15.76562
G1 X105.7 Y74.475 E18.35613
G0 F12000 X106.2 Y74.475
G1 F600 X106.24 Y73.929 E18.37889
G1 X106.359 Y73.395 E18.40164
G1 X106.554 Y72.884 E18.42438
G1 X106.822 Y72.406 E18.44716
G1 X107.157 Y71.973 E18.46992
G1 X107.551 Y71.593 E18.49268
G1 X107.996 Y71.274 E18.51544
G1 X108.483 Y71.024 E18.5382
G1 X109.001 Y70.847 E18.56096
G1 X109.539 Y70.748 E18.5837
G1 X109.95 Y70.725 E18.60082
G1 X111.718 Y70.725 E18.67432
G1 X111.74 Y70.429 E18.68666
G1 X111.859 Y69.895 E18.70941
G1 X112.054 Y69.384 E18.73215
G1 X112.322 Y68.906 E18.75493
G1 X112.657 Y68.473 E18.77769
G1 X113.051 Y68.093 E18.80045
G1 X113.496 Y67.774 E18.82321
G1 X113.983 Y67.524 E18.84597
G1 X114.501 Y67.347 E18.86873
G1 X115.039 Y67.248 E18.89147
G1 X115.45 Y67.225 E18.90859
G1 X119.55 Y67.225 E19.07905
G1 X120.096 Y67.265 E19.10181
G1 X120.63 Y67.384 E19.12455
G1 X121.141 Y67.579 E19.14729
G1 X121.619 Y67.847 E19.17008
G1 X122.052 Y68.182 E19.19284
G1 X122.432 Y68.576 E19.21559
G1 X122.751 Y69.021 E19.23836
G1 X123.001 Y69.508 E19.26112
G1 X123.178 Y70.026 E19.28387
G1 X123.307 Y70.725 E19.31343
G1 X125.05 Y70.725 E19.38589
G1 X125.596 Y70.765 E19.40865
G1 X126.13 Y70.884 E19.4314
G1 X126.641 Y71.079 E19.45414
G1 X127.119 Y71.347 E19.47692
G1 X127.552 Y71.682 E19.49968
G1 X127.932 Y72.076 E19.52244
G1 X128.251 Y72.521 E19.5452
G1 X128.501 Y73.008 E19.56796
G1 X128.678 Y73.526 E19.59072
G1 X128.777 Y74.064 E19.61346
G1 X128.8 Y74.475 E19.63058
G1 X128.8 Y137.243 E22.24017
G1 X129.096 Y137.265 E22.25251
G1 X129.63 Y137.384 E22.27525
G1 X130.141 Y137.579 E22.29799
G1 X130.619 Y137.847 E22.32078
G1 X131.052 Y138.182 E22.34354
G1 X131.432 Y138.576 E22.3663
G1 X131.751 Y139.021 E22.38906
G1 X132.001 Y139.508 E22.41182
G1 X132.178 Y140.026 E22.43458
G1 X132.277 Y140.564 E22.45732
G1 X132.3 Y140.975 E22.47443
G1 X132.3 Y145.909 E22.67957
G1 X132.414 Y147.726 E22.75526
G1 X132.408 Y148.274 E22.77804
G1 X132.323 Y148.814 E22.80077
G1 X132.16 Y149.337 E22.82354
G1 X131.922 Y149.83 E22.8463
G1 X131.615 Y150.283 E22.86905
G1 X131.246 Y150.687 E22.8918
G1 X130.822 Y151.033 E22.91455
G1 X130.352 Y151.313 E22.9373
G1 X129.846 Y151.522 E22.96006
G1 X129.315 Y151.655 E22.98282
G1 X128.672 Y151.711 E23.00965
G1 X124.454 Y151.712 E23.18502
G1 X123.908 Y151.672 E23.20778
G1 X123.374 Y151.553 E23.23052
G1 X122.862 Y151.358 E23.2533
G1 X122.385 Y151.09 E23.27605
G1 X121.952 Y150.756 E23.29878
G1 X121.572 Y150.362 E23.32154
G1 X121.253 Y149.917 E23.34431
G1 X121.128 Y149.675 E23.35563
G1 X113.876 Y149.675 E23.65713
G1 X113.669 Y150.04 E23.67458
G1 X113.333 Y150.472 E23.69733
G1 X112.938 Y150.851 E23.72009
G1 X112.492 Y151.168 E23.74284
G1 X112.005 Y151.417 E23.76558
G1 X111.486 Y151.592 E23.78835
G1 X110.947 Y151.69 E23.81113
G1 X110.548 Y151.711 E23.82774
G1 X106.329 Y151.711 E24.00314
G1 X105.783 Y151.671 E24.02591
G1 X105.249 Y151.552 E24.04865
G1 X104.738 Y151.357 E24.07139
G1 X104.26 Y151.089 E24.09417
G1 X103.827 Y150.754 E24.11693
G1 X103.447 Y150.36 E24.13969
G1 X103.128 Y149.915 E24.16246
G1 X102.878 Y149.428 E24.18521
G1 X102.701 Y148.91 E24.20797
G1 X102.602 Y148.372 E24.23072
G1 X102.586 Y147.726 E24.25758
G1 X102.7 Y145.908 E24.33331
G1 X102.7 Y140.975 E24.5384
G1 X102.74 Y140.429 E24.56117
G1 X102.859 Y139.895 E24.58391
G1 X103.054 Y139.384 E24.60665
G1 X103.322 Y138.906 E24.62943
G1 X103.657 Y138.473 E24.65219
G1 X104.051 Y138.093 E24.67495
G1 X104.496 Y137.774 E24.69772
G1 X104.983 Y137.524 E24.72048
G1 X105.501 Y137.347 E24.74323
G1 X106.2 Y137.218 E24.77279
G1 X106.2 Y74.475 E27.38134
G0 F12000 X106.7 Y74.475
G1 F600 X106.74 Y73.967 E27.40252
G1 X106.859 Y73.472 E27.42369
G1 X107.054 Y73.001 E27.44488
G1 X107.32 Y72.566 E27.46608
G1 X107.65 Y72.179 E27.48722
G1 X108.037 Y71.847 E27.50842
G1 X108.472 Y71.581 E27.52962
G1 X108.942 Y71.385 E27.55079
G1 X109.437 Y71.266 E27.57196
G1 X109.95 Y71.225 E27.59336
G1 X112.18 Y71.225 E27.68607
G1 X112.24 Y70.467 E27.71768
G1 X112.359 Y69.972 E27.73885
G1 X112.554 Y69.501 E27.76004
G1 X112.82 Y69.066 E27.78124
G1 X113.15 Y68.679 E27.80238
G1 X113.537 Y68.347 E27.82358
G1 X113.972 Y68.081 E27.84478
G1 X114.442 Y67.885 E27.86595
G1 X114.937 Y67.766 E27.88712
G1 X115.45 Y67.725 E27.90852
G1 X119.55 Y67.725 E28.07897
G1 X120.058 Y67.765 E28.10016
G1 X120.553 Y67.884 E28.12133
G1 X121.024 Y68.079 E28.14252
G1 X121.459 Y68.345 E28.16372
G1 X121.846 Y68.675 E28.18486
G1 X122.178 Y69.062 E28.20606
G1 X122.444 Y69.497 E28.22726
G1 X122.64 Y69.967 E28.24843
G1 X122.759 Y70.462 E28.2696
G1 X122.82 Y71.225 E28.30142
G1 X125.05 Y71.225 E28.39413
G1 X125.558 Y71.265 E28.41532
G1 X126.053 Y71.384 E28.43648
G1 X126.524 Y71.579 E28.45768
G1 X126.959 Y71.845 E28.47888
G1 X127.346 Y72.175 E28.50002
G1 X127.678 Y72.562 E28.52122
G1 X127.944 Y72.997 E28.54242
G1 X128.14 Y73.467 E28.56359
G1 X128.259 Y73.962 E28.58476
G1 X128.3 Y74.475 E28.60615
G1 X128.3 Y137.705 E31.23495
G1 X129.058 Y137.765 E31.26656
G1 X129.553 Y137.884 E31.28773
G1 X130.024 Y138.079 E31.30892
G1 X130.459 Y138.345 E31.33012
G1 X130.846 Y138.675 E31.35127
G1 X131.178 Y139.062 E31.37247
G1 X131.444 Y139.497 E31.39366
G1 X131.64 Y139.967 E31.41484
G1 X131.759 Y140.462 E31.436
G1 X131.8 Y140.975 E31.4574
G1 X131.8 Y145.925 E31.66319
G1 X131.915 Y147.758 E31.73955
G1 X131.907 Y148.267 E31.76072
G1 X131.819 Y148.769 E31.7819
G1 X131.654 Y149.251 E31.80309
G1 X131.416 Y149.701 E31.82425
G1 X131.11 Y150.109 E31.84545
G1 X130.744 Y150.464 E31.86665
G1 X130.328 Y150.757 E31.88781
G1 X129.87 Y150.982 E31.90902
G1 X129.384 Y151.132 E31.93017
G1 X128.672 Y151.211 E31.95995
G1 X124.454 Y151.212 E32.13531
G1 X123.946 Y151.172 E32.1565
G1 X123.45 Y151.053 E32.17771
G1 X122.979 Y150.859 E32.19888
G1 X122.545 Y150.593 E32.22005
G1 X122.157 Y150.262 E32.24125
G1 X121.826 Y149.875 E32.26242
G1 X121.559 Y149.441 E32.28361
G1 X121.448 Y149.175 E32.29559
G1 X113.552 Y149.175 E32.62387
G1 X113.44 Y149.444 E32.63598
G1 X113.172 Y149.878 E32.65719
G1 X112.841 Y150.265 E32.67836
G1 X112.452 Y150.595 E32.69957
G1 X112.017 Y150.86 E32.72075
G1 X111.546 Y151.054 E32.74192
G1 X111.051 Y151.172 E32.76308
G1 X110.548 Y151.211 E32.78406
G1 X106.329 Y151.211 E32.95946
G1 X105.821 Y151.171 E32.98065
G1 X105.326 Y151.052 E33.00181
G1 X104.855 Y150.857 E33.02301
G1 X104.42 Y150.591 E33.04421
G1 X104.033 Y150.261 E33.06535
G1 X103.701 Y149.874 E33.08655
G1 X103.435 Y149.439 E33.10775
G1 X103.239 Y148.969 E33.12892
G1 X103.12 Y148.474 E33.15009
G1 X103.085 Y147.758 E33.17989
G1 X103.2 Y145.924 E33.25629
G1 X103.2 Y140.975 E33.46204
G1 X103.24 Y140.467 E33.48323
G1 X103.359 Y139.972 E33.50439
G1 X103.554 Y139.501 E33.52559
G1 X103.82 Y139.066 E33.54679
G1 X104.15 Y138.679 E33.56793
G1 X104.537 Y138.347 E33.58913
G1 X104.972 Y138.081 E33.61033
G1 X105.442 Y137.885 E33.6315
G1 X105.937 Y137.766 E33.65267
G1 X106.7 Y137.705 E33.68449
G1 X106.7 Y74.475 E36.31329
G0 F12000 X107.2 Y74.475
G1 F600 X107.24 Y74.008 E36.33277
G1 X107.359 Y73.555 E36.35225
G1 X107.552 Y73.128 E36.37173
G1 X107.816 Y72.741 E36.39121
G1 X108.141 Y72.403 E36.4107
G1 X108.519 Y72.126 E36.43018
G1 X108.939 Y71.918 E36.44967
G1 X109.388 Y71.783 E36.46916
G1 X109.95 Y71.725 E36.49265
G1 X112.7 Y71.725 E36.60698
G1 X112.7 Y70.975 E36.63816
G1 X112.74 Y70.508 E36.65765
G1 X112.859 Y70.055 E36.67712
G1 X113.052 Y69.628 E36.69661
G1 X113.316 Y69.241 E36.71608
G1 X113.641 Y68.903 E36.73558
G1 X114.019 Y68.626 E36.75506
G1 X114.439 Y68.418 E36.77455
G1 X114.888 Y68.283 E36.79404
G1 X115.45 Y68.225 E36.81753
G1 X119.55 Y68.225 E36.98799
G1 X120.017 Y68.265 E37.00747
G1 X120.47 Y68.384 E37.02695
G1 X120.897 Y68.577 E37.04643
G1 X121.284 Y68.841 E37.0659
G1 X121.622 Y69.166 E37.0854
G1 X121.899 Y69.544 E37.10488
G1 X122.107 Y69.964 E37.12437
G1 X122.242 Y70.413 E37.14386
G1 X122.3 Y70.975 E37.16735
G1 X122.3 Y71.725 E37.19853
G1 X125.05 Y71.725 E37.31286
G1 X125.517 Y71.765 E37.33235
G1 X125.97 Y71.884 E37.35182
G1 X126.397 Y72.077 E37.3713
G1 X126.784 Y72.341 E37.39078
G1 X127.122 Y72.666 E37.41027
G1 X127.399 Y73.044 E37.42976
G1 X127.607 Y73.464 E37.44924
G1 X127.742 Y73.913 E37.46874
G1 X127.8 Y74.475 E37.49223
G1 X127.8 Y138.225 E40.14264
G1 X128.55 Y138.225 E40.17382
G1 X129.017 Y138.265 E40.19331
G1 X129.47 Y138.384 E40.21278
G1 X129.897 Y138.577 E40.23227
G1 X130.284 Y138.841 E40.25174
