;FLAVOR:Marlin
;TIME:2308
;Filament used: 0.737822m
;Layer height: 0.2
;MINX:100.281
;MINY:111.839
;MINZ:0.2
;MAXX:134.718
;MAXY:127.997
;MAXZ:49
;Generated with Cura_SteamEngine main
M140 S75
M105
M190 S75
M104 S230
M105
M109 S230
M82 ;absolute extrusion mode
; Ender 3 Custom Start G-code
G92 E0 ; Reset Extruder
G28 ; Home all axes
G29 ; BL-13 Bed Level
G92 E0 ; Reset Extruder
G1 Z2.0 F3000 ; Move Z Axis up little to prevent scratching of Heat Bed
G1 X235 Y0 Z2 F5000.0 ; Move to 235,0,2
G1 E40 F300  ;extrude 40mm for priming

G1 X235 Y0 Z0 F5000.0 ; Move to 235,0,0
G1 X225 Y10 Z0 F5000.0 ; Move to 225,10,0
G91 ;Relative positioning
G1 E-0.8 F1000 ;retract 0.8mm
G90 ;Absolute positioning
G1 X225 Y15 Z3 F5000.0 ; Move to 225,15,3
G1 X115 Y115 Z0 F5000.0 ; Move to 115,115,0
G92 E0
G92 E0
G1 F1800 E-1
;LAYER_COUNT:245
;LAYER:0
M107
G0 F12000 X112.599 Y115.752 Z0.2
G0 X110.386 Y120.519
;TYPE:SKIRT
G1 F1800 E0
G1 F600 X110.42 Y120.11 E0.01706
G1 X110.566 Y119.276 E0.05226
G1 X110.672 Y118.88 E0.06931
G1 X110.956 Y118.099 E0.10386
G1 X111.131 Y117.724 E0.12106
G1 X111.54 Y117.014 E0.15513
G1 X111.769 Y116.686 E0.17176
G1 X112.305 Y116.046 E0.20647
G1 X112.599 Y115.752 E0.22375
G1 X113.227 Y115.225 E0.25784
G1 X113.56 Y114.991 E0.27476
G1 X114.27 Y114.579 E0.30889
G1 X114.64 Y114.405 E0.32589
G1 X115.433 Y114.115 E0.36099
G1 X115.829 Y114.009 E0.37803
G1 X116.643 Y113.865 E0.4124
G1 X117.054 Y113.829 E0.42955
G1 X117.821 Y113.824 E0.46144
G1 X118.291 Y113.859 E0.48104
G1 X119.158 Y114.005 E0.51759
G1 X119.553 Y114.11 E0.53458
G1 X120.346 Y114.399 E0.56967
G1 X120.72 Y114.574 E0.58684
G1 X121.421 Y114.977 E0.62046
G1 X121.75 Y115.206 E0.63712
G1 X122.395 Y115.746 E0.6721
G1 X122.691 Y116.042 E0.6895
G1 X123.223 Y116.676 E0.72391
G1 X123.452 Y117.003 E0.74051
G1 X123.859 Y117.705 E0.77424
G1 X124.035 Y118.079 E0.79143
G1 X124.325 Y118.872 E0.82653
G1 X124.433 Y119.275 E0.84388
G1 X124.577 Y120.09 E0.87829
G1 X124.612 Y120.489 E0.89494
G1 X124.614 Y121.297 E0.92853
G1 X124.58 Y121.707 E0.94564
G1 X124.437 Y122.531 E0.98041
G1 X124.332 Y122.927 E0.99744
G1 X124.045 Y123.721 E1.03254
G1 X123.867 Y124.102 E1.05002
G1 X123.452 Y124.818 E1.08443
G1 X123.222 Y125.146 E1.10108
G1 X122.692 Y125.778 E1.13538
G1 X122.396 Y126.074 E1.15278
G1 X121.756 Y126.61 E1.18749
G1 X121.428 Y126.839 E1.20412
G1 X120.722 Y127.246 E1.238
G1 X120.348 Y127.421 E1.25517
G1 X119.56 Y127.708 E1.29003
G1 X119.159 Y127.815 E1.30729
G1 X118.283 Y127.963 E1.34422
G1 X117.822 Y127.997 E1.36344
G1 X117.064 Y127.992 E1.39496
G1 X116.647 Y127.956 E1.41236
G1 X115.814 Y127.809 E1.44752
G1 X115.419 Y127.702 E1.46454
G1 X114.638 Y127.415 E1.49913
G1 X114.264 Y127.239 E1.51632
G1 X113.567 Y126.835 E1.54981
G1 X113.242 Y126.608 E1.56629
G1 X112.603 Y126.073 E1.60094
G1 X112.307 Y125.777 E1.61834
G1 X111.775 Y125.142 E1.65278
G1 X111.544 Y124.812 E1.66953
G1 X111.127 Y124.088 E1.70427
G1 X110.952 Y123.711 E1.72155
G1 X110.672 Y122.94 E1.75565
G1 X110.567 Y122.548 E1.77252
G1 X110.423 Y121.727 E1.80718
G1 X110.388 Y121.321 E1.82412
G1 X110.386 Y120.519 E1.85746
G0 F12000 X110.885 Y120.561
G1 F600 X110.919 Y120.152 E1.87453
G1 X111.049 Y119.405 E1.90605
G1 X111.155 Y119.009 E1.92309
G1 X111.409 Y118.311 E1.95397
G1 X111.584 Y117.936 E1.97118
G1 X111.95 Y117.3 E2.00169
G1 X112.179 Y116.972 E2.01832
G1 X112.659 Y116.4 E2.04936
G1 X112.953 Y116.106 E2.06665
G1 X113.514 Y115.634 E2.09713
G1 X113.847 Y115.4 E2.11405
G1 X114.482 Y115.031 E2.14458
G1 X114.852 Y114.857 E2.16158
G1 X115.562 Y114.598 E2.193
G1 X115.958 Y114.492 E2.21005
G1 X116.686 Y114.363 E2.24079
G1 X117.097 Y114.327 E2.25794
G1 X117.784 Y114.323 E2.2865
G1 X118.254 Y114.358 E2.3061
G1 X119.03 Y114.489 E2.33881
G1 X119.425 Y114.594 E2.35581
G1 X120.134 Y114.852 E2.38717
G1 X120.508 Y115.027 E2.40434
G1 X121.135 Y115.388 E2.43442
G1 X121.464 Y115.617 E2.45109
G1 X122.041 Y116.1 E2.48237
G1 X122.337 Y116.396 E2.49977
G1 X122.813 Y116.963 E2.53055
G1 X123.042 Y117.29 E2.54715
G1 X123.406 Y117.918 E2.57733
G1 X123.582 Y118.292 E2.59451
G1 X123.842 Y119.002 E2.62595
G1 X123.95 Y119.405 E2.64329
G1 X124.079 Y120.134 E2.67407
G1 X124.114 Y120.533 E2.69073
G1 X124.115 Y121.255 E2.72074
G1 X124.081 Y121.665 E2.73785
G1 X123.954 Y122.403 E2.76898
G1 X123.849 Y122.799 E2.78601
G1 X123.592 Y123.509 E2.81741
G1 X123.414 Y123.89 E2.83489
G1 X123.043 Y124.531 E2.86568
G1 X122.813 Y124.859 E2.88234
G1 X122.338 Y125.424 E2.91303
G1 X122.042 Y125.72 E2.93043
G1 X121.47 Y126.2 E2.96147
G1 X121.142 Y126.429 E2.9781
G1 X120.51 Y126.793 E3.00843
G1 X120.136 Y126.968 E3.02559
G1 X119.431 Y127.225 E3.05679
G1 X119.03 Y127.332 E3.07405
G1 X118.247 Y127.464 E3.10706
G1 X117.786 Y127.498 E3.12628
G1 X117.107 Y127.494 E3.15451
G1 X116.69 Y127.458 E3.17191
G1 X115.945 Y127.326 E3.20336
G1 X115.55 Y127.219 E3.22038
G1 X114.851 Y126.962 E3.25134
G1 X114.477 Y126.786 E3.26853
G1 X113.853 Y126.425 E3.2985
G1 X113.528 Y126.198 E3.31498
G1 X112.957 Y125.719 E3.34597
G1 X112.661 Y125.423 E3.36337
G1 X112.184 Y124.855 E3.39421
G1 X111.953 Y124.525 E3.41095
G1 X111.58 Y123.877 E3.44204
G1 X111.405 Y123.5 E3.45932
G1 X111.155 Y122.811 E3.48979
G1 X111.05 Y122.419 E3.50666
G1 X110.921 Y121.684 E3.53769
G1 X110.886 Y121.278 E3.55463
G1 X110.885 Y120.561 E3.58444
G0 F12000 X111.383 Y120.602
G1 F600 X111.417 Y120.193 E3.6015
G1 X111.532 Y119.534 E3.62932
G1 X111.638 Y119.138 E3.64636
G1 X111.862 Y118.522 E3.67361
G1 X112.037 Y118.147 E3.69081
G1 X112.36 Y117.586 E3.71773
G1 X112.589 Y117.258 E3.73436
G1 X113.012 Y116.753 E3.76175
G1 X113.306 Y116.459 E3.77903
G1 X113.802 Y116.043 E3.80595
G1 X114.135 Y115.809 E3.82287
G1 X114.695 Y115.484 E3.84979
G1 X115.065 Y115.31 E3.86679
G1 X115.691 Y115.081 E3.8945
G1 X116.087 Y114.975 E3.91154
G1 X116.73 Y114.861 E3.93869
G1 X117.141 Y114.825 E3.95584
G1 X117.746 Y114.821 E3.981
G1 X118.216 Y114.856 E4.00059
G1 X118.901 Y114.972 E4.02948
G1 X119.296 Y115.077 E4.04647
G1 X119.922 Y115.304 E4.07415
G1 X120.296 Y115.479 E4.09132
G1 X120.849 Y115.798 E4.11786
G1 X121.178 Y116.027 E4.13453
G1 X121.688 Y116.453 E4.16216
G1 X121.984 Y116.749 E4.17956
G1 X122.404 Y117.25 E4.20674
G1 X122.633 Y117.577 E4.22334
G1 X122.954 Y118.131 E4.24996
G1 X123.13 Y118.505 E4.26714
G1 X123.359 Y119.131 E4.29485
G1 X123.467 Y119.534 E4.3122
G1 X123.581 Y120.177 E4.33935
G1 X123.616 Y120.576 E4.356
G1 X123.617 Y121.214 E4.38253
G1 X123.583 Y121.624 E4.39963
G1 X123.471 Y122.275 E4.42709
G1 X123.366 Y122.671 E4.44413
G1 X123.139 Y123.297 E4.47181
G1 X122.961 Y123.678 E4.48929
G1 X122.633 Y124.244 E4.51649
G1 X122.403 Y124.572 E4.53315
G1 X121.985 Y125.071 E4.56021
G1 X121.689 Y125.367 E4.57761
G1 X121.184 Y125.79 E4.605
G1 X120.856 Y126.019 E4.62163
G1 X120.298 Y126.341 E4.64842
G1 X119.924 Y126.516 E4.66558
G1 X119.302 Y126.742 E4.6931
G1 X118.901 Y126.849 E4.71035
G1 X118.21 Y126.966 E4.73949
G1 X117.749 Y127 E4.75871
G1 X117.15 Y126.996 E4.78361
G1 X116.733 Y126.96 E4.80101
G1 X116.076 Y126.844 E4.82875
G1 X115.681 Y126.737 E4.84577
G1 X115.064 Y126.51 E4.8731
G1 X114.69 Y126.334 E4.89028
G1 X114.14 Y126.015 E4.91672
G1 X113.815 Y125.788 E4.9332
G1 X113.31 Y125.366 E4.96056
G1 X113.014 Y125.07 E4.97796
G1 X112.594 Y124.568 E5.00518
G1 X112.363 Y124.238 E5.02192
G1 X112.034 Y123.667 E5.04932
G1 X111.859 Y123.29 E5.0666
G1 X111.638 Y122.681 E5.09354
G1 X111.533 Y122.289 E5.11041
G1 X111.419 Y121.641 E5.13776
G1 X111.384 Y121.235 E5.1547
G1 X111.383 Y120.602 E5.18102
G0 F12000 X111.881 Y120.644
G1 F600 X111.915 Y120.235 E5.19808
G1 X112.015 Y119.664 E5.22219
G1 X112.121 Y119.268 E5.23923
G1 X112.315 Y118.734 E5.26285
G1 X112.49 Y118.359 E5.28005
G1 X112.77 Y117.873 E5.30337
G1 X112.999 Y117.545 E5.32
G1 X113.366 Y117.107 E5.34376
G1 X113.66 Y116.813 E5.36105
G1 X114.089 Y116.452 E5.38436
G1 X114.422 Y116.218 E5.40128
G1 X114.908 Y115.936 E5.42464
G1 X115.278 Y115.762 E5.44164
G1 X115.821 Y115.564 E5.46567
G1 X116.217 Y115.458 E5.48271
G1 X116.773 Y115.359 E5.50619
G1 X117.184 Y115.323 E5.52334
G1 X117.709 Y115.32 E5.54517
G1 X118.179 Y115.355 E5.56477
G1 X118.773 Y115.455 E5.58981
G1 X119.168 Y115.56 E5.6068
G1 X119.71 Y115.757 E5.63078
G1 X120.084 Y115.932 E5.64794
G1 X120.564 Y116.209 E5.67098
G1 X120.893 Y116.438 E5.68765
G1 X121.334 Y116.807 E5.71156
G1 X121.63 Y117.103 E5.72896
G1 X121.994 Y117.537 E5.75251
G1 X122.223 Y117.864 E5.76911
G1 X122.502 Y118.344 E5.79219
G1 X122.678 Y118.718 E5.80937
G1 X122.876 Y119.261 E5.8334
G1 X122.984 Y119.664 E5.85075
G1 X123.083 Y120.221 E5.87427
G1 X123.118 Y120.62 E5.89092
G1 X123.119 Y121.173 E5.91391
G1 X123.085 Y121.583 E5.93102
G1 X122.987 Y122.147 E5.95482
G1 X122.882 Y122.543 E5.97185
G1 X122.686 Y123.086 E5.99585
G1 X122.508 Y123.467 E6.01333
G1 X122.224 Y123.957 E6.03688
G1 X121.994 Y124.285 E6.05354
G1 X121.631 Y124.717 E6.077
G1 X121.335 Y125.013 E6.0944
G1 X120.897 Y125.38 E6.11816
G1 X120.569 Y125.609 E6.13479
G1 X120.086 Y125.888 E6.15798
G1 X119.712 Y126.063 E6.17515
G1 X119.173 Y126.259 E6.19899
G1 X118.772 Y126.366 E6.21624
G1 X118.173 Y126.467 E6.2415
G1 X117.712 Y126.501 E6.26072
G1 X117.193 Y126.498 E6.2823
G1 X116.776 Y126.462 E6.2997
G1 X116.206 Y126.361 E6.32376
G1 X115.811 Y126.254 E6.34078
G1 X115.277 Y126.058 E6.36443
G1 X114.903 Y125.882 E6.38161
G1 X114.426 Y125.605 E6.40455
G1 X114.101 Y125.378 E6.42103
G1 X113.664 Y125.012 E6.44473
G1 X113.368 Y124.716 E6.46213
G1 X113.003 Y124.282 E6.48571
G1 X112.772 Y123.952 E6.50245
G1 X112.487 Y123.456 E6.52624
G1 X112.312 Y123.079 E6.54352
G1 X112.121 Y122.552 E6.56682
G1 X112.016 Y122.16 E6.58369
G1 X111.917 Y121.598 E6.60742
G1 X111.882 Y121.192 E6.62436
G1 X111.881 Y120.644 E6.64714
G0 F12000 X112.379 Y120.685
G1 F600 X112.413 Y120.276 E6.66421
G1 X112.498 Y119.793 E6.6846
G1 X112.604 Y119.397 E6.70164
G1 X112.768 Y118.945 E6.72163
G1 X112.943 Y118.57 E6.73883
G1 X113.18 Y118.159 E6.75856
G1 X113.409 Y117.831 E6.77519
G1 X113.719 Y117.46 E6.79529
G1 X114.013 Y117.166 E6.81258
G1 X114.377 Y116.861 E6.83232
G1 X114.71 Y116.627 E6.84924
G1 X115.121 Y116.388 E6.86901
G1 X115.491 Y116.214 E6.88601
G1 X115.95 Y116.047 E6.90631
G1 X116.346 Y115.941 E6.92336
G1 X116.817 Y115.857 E6.94325
G1 X117.228 Y115.821 E6.9604
G1 X117.672 Y115.819 E6.97886
G1 X118.142 Y115.854 E6.99845
G1 X118.644 Y115.938 E7.01962
G1 X119.039 Y116.043 E7.03661
G1 X119.498 Y116.21 E7.05691
G1 X119.872 Y116.385 E7.07408
G1 X120.278 Y116.619 E7.09356
G1 X120.607 Y116.848 E7.11023
G1 X120.981 Y117.16 E7.13048
G1 X121.277 Y117.456 E7.14788
G1 X121.585 Y117.824 E7.16783
G1 X121.814 Y118.151 E7.18443
G1 X122.049 Y118.557 E7.20393
G1 X122.225 Y118.931 E7.22112
G1 X122.393 Y119.39 E7.24144
G1 X122.501 Y119.793 E7.25879
G1 X122.584 Y120.265 E7.27871
G1 X122.619 Y120.664 E7.29536
G1 X122.621 Y121.131 E7.31478
G1 X122.587 Y121.541 E7.33188
G1 X122.504 Y122.019 E7.35205
G1 X122.399 Y122.415 E7.36909
G1 X122.233 Y122.874 E7.38938
G1 X122.055 Y123.255 E7.40686
G1 X121.815 Y123.67 E7.42679
G1 X121.585 Y123.998 E7.44345
G1 X121.278 Y124.364 E7.46331
G1 X120.982 Y124.66 E7.48071
G1 X120.611 Y124.97 E7.50081
G1 X120.283 Y125.199 E7.51744
G1 X119.874 Y125.435 E7.53708
G1 X119.5 Y125.61 E7.55424
G1 X119.044 Y125.776 E7.57442
G1 X118.643 Y125.883 E7.59167
G1 X118.136 Y125.969 E7.61305
G1 X117.675 Y126.003 E7.63227
G1 X117.236 Y126 E7.65052
G1 X116.819 Y125.964 E7.66793
G1 X116.337 Y125.878 E7.68828
G1 X115.942 Y125.771 E7.7053
G1 X115.49 Y125.605 E7.72531
G1 X115.116 Y125.429 E7.7425
G1 X114.712 Y125.196 E7.76189
G1 X114.387 Y124.969 E7.77837
G1 X114.017 Y124.659 E7.79844
G1 X113.721 Y124.363 E7.81584
G1 X113.413 Y123.995 E7.83579
G1 X113.182 Y123.665 E7.85254
G1 X112.941 Y123.246 E7.87264
G1 X112.766 Y122.869 E7.88992
G1 X112.604 Y122.423 E7.90964
G1 X112.499 Y122.031 E7.92652
G1 X112.415 Y121.555 E7.94661
G1 X112.38 Y121.149 E7.96355
G1 X112.379 Y120.685 E7.98285
G0 F12000 X112.878 Y120.727
G1 F600 X112.912 Y120.318 E7.99991
G1 X112.981 Y119.922 E8.01662
G1 X113.087 Y119.526 E8.03366
G1 X113.221 Y119.157 E8.04998
G1 X113.396 Y118.782 E8.06719
G1 X113.59 Y118.445 E8.08336
G1 X113.819 Y118.117 E8.09999
G1 X114.073 Y117.814 E8.11643
G1 X114.367 Y117.52 E8.13371
G1 X114.664 Y117.27 E8.14985
G1 X114.997 Y117.036 E8.16677
G1 X115.333 Y116.841 E8.18292
G1 X115.703 Y116.667 E8.19992
G1 X116.079 Y116.53 E8.21656
G1 X116.475 Y116.424 E8.2336
G1 X116.861 Y116.356 E8.2499
G1 X117.272 Y116.32 E8.26705
G1 X117.635 Y116.317 E8.28214
G1 X118.105 Y116.352 E8.30174
G1 X118.516 Y116.422 E8.31907
G1 X118.911 Y116.527 E8.33606
G1 X119.287 Y116.663 E8.35269
G1 X119.661 Y116.838 E8.36985
G1 X119.992 Y117.029 E8.38574
G1 X120.321 Y117.258 E8.40241
G1 X120.627 Y117.514 E8.419
G1 X120.923 Y117.81 E8.4364
G1 X121.175 Y118.11 E8.45269
G1 X121.404 Y118.437 E8.46929
G1 X121.597 Y118.77 E8.48529
G1 X121.773 Y119.144 E8.50247
G1 X121.91 Y119.52 E8.51911
G1 X122.018 Y119.923 E8.53646
G1 X122.086 Y120.308 E8.55271
G1 X122.121 Y120.707 E8.56936
G1 X122.122 Y121.09 E8.58529
G1 X122.088 Y121.5 E8.60239
G1 X122.021 Y121.891 E8.61888
G1 X121.916 Y122.287 E8.63592
G1 X121.78 Y122.662 E8.6525
G1 X121.602 Y123.043 E8.66998
G1 X121.405 Y123.383 E8.68632
G1 X121.175 Y123.711 E8.70298
G1 X120.924 Y124.01 E8.71921
G1 X120.628 Y124.306 E8.73661
G1 X120.325 Y124.56 E8.75305
G1 X119.997 Y124.789 E8.76968
G1 X119.663 Y124.982 E8.78572
G1 X119.289 Y125.157 E8.80288
G1 X118.915 Y125.293 E8.81943
G1 X118.514 Y125.4 E8.83668
G1 X118.099 Y125.47 E8.85418
G1 X117.638 Y125.504 E8.8734
G1 X117.279 Y125.502 E8.88832
G1 X116.862 Y125.466 E8.90573
G1 X116.468 Y125.396 E8.92236
G1 X116.073 Y125.289 E8.93938
G1 X115.703 Y125.153 E8.95577
G1 X115.329 Y124.977 E8.97295
G1 X114.999 Y124.786 E8.9888
G1 X114.674 Y124.559 E9.00528
G1 X114.371 Y124.305 E9.02172
G1 X114.075 Y124.009 E9.03913
G1 X113.823 Y123.708 E9.05545
G1 X113.592 Y123.378 E9.07219
G1 X113.394 Y123.035 E9.08866
G1 X113.219 Y122.658 E9.10594
G1 X113.087 Y122.293 E9.12208
G1 X112.982 Y121.901 E9.13895
G1 X112.913 Y121.512 E9.15537
G1 X112.878 Y121.106 E9.17232
G1 X112.878 Y120.727 E9.18807
G0 F12000 X113.376 Y120.768
G1 F600 X113.41 Y120.359 E9.20514
G1 X113.464 Y120.051 E9.21814
G1 X113.57 Y119.655 E9.23518
G1 X113.674 Y119.368 E9.24787
G1 X113.849 Y118.993 E9.26508
G1 X114 Y118.731 E9.27765
G1 X114.229 Y118.403 E9.29428
G1 X114.427 Y118.168 E9.30706
G1 X114.721 Y117.874 E9.32434
G1 X114.952 Y117.679 E9.33691
G1 X115.285 Y117.445 E9.35383
G1 X115.546 Y117.293 E9.36639
G1 X115.916 Y117.119 E9.38339
G1 X116.208 Y117.013 E9.3963
G1 X116.604 Y116.907 E9.41335
G1 X116.904 Y116.854 E9.42601
G1 X117.315 Y116.818 E9.44316
G1 X117.598 Y116.816 E9.45493
G1 X118.068 Y116.851 E9.47452
G1 X118.388 Y116.905 E9.48802
G1 X118.783 Y117.01 E9.50501
G1 X119.075 Y117.116 E9.51792
G1 X119.449 Y117.291 E9.53509
G1 X119.707 Y117.44 E9.54748
G1 X120.036 Y117.669 E9.56414
G1 X120.273 Y117.868 E9.57701
G1 X120.569 Y118.164 E9.59441
G1 X120.765 Y118.397 E9.60707
G1 X120.994 Y118.724 E9.62367
G1 X121.144 Y118.983 E9.63611
G1 X121.32 Y119.357 E9.6533
G1 X121.427 Y119.649 E9.66623
G1 X121.535 Y120.052 E9.68357
G1 X121.588 Y120.352 E9.69624
G1 X121.623 Y120.751 E9.71289
G1 X121.624 Y121.049 E9.72528
G1 X121.59 Y121.459 E9.74238
G1 X121.538 Y121.763 E9.75521
G1 X121.433 Y122.159 E9.77224
G1 X121.327 Y122.451 E9.78515
G1 X121.149 Y122.832 E9.80264
G1 X120.996 Y123.096 E9.81532
G1 X120.766 Y123.424 E9.83198
G1 X120.57 Y123.656 E9.84461
G1 X120.274 Y123.952 E9.86201
G1 X120.039 Y124.15 E9.87479
G1 X119.711 Y124.379 E9.89142
G1 X119.451 Y124.529 E9.9039
G1 X119.077 Y124.704 E9.92106
G1 X118.786 Y124.81 E9.93394
G1 X118.385 Y124.917 E9.95119
G1 X118.063 Y124.971 E9.96477
G1 X117.602 Y125.005 E9.98399
G1 X117.322 Y125.004 E9.99563
G1 X116.905 Y124.968 E10.01303
G1 X116.598 Y124.913 E10.026
G1 X116.203 Y124.806 E10.04301
G1 X115.916 Y124.7 E10.05573
G1 X115.542 Y124.524 E10.07291
G1 X115.285 Y124.376 E10.08524
G1 X114.96 Y124.149 E10.10173
G1 X114.725 Y123.951 E10.1145
G1 X114.429 Y123.655 E10.13191
G1 X114.232 Y123.422 E10.14459
G1 X114.001 Y123.092 E10.16134
G1 X113.848 Y122.825 E10.17413
G1 X113.673 Y122.448 E10.19141
G1 X113.57 Y122.164 E10.20397
G1 X113.465 Y121.772 E10.22084
