;FLAVOR:Marlin
;TIME:2505
;Filament used: 1.79674m
;Layer height: 0.2
;MINX:85.35
;MINY:96.869
;MINZ:0.2
;MAXX:149.65
;MAXY:138.183
;MAXZ:17
;Generated with Cura_SteamEngine main
M140 S75
M105
M190 S75
M104 S230
M105
M109 S230
M82 ;absolute extrusion mode
; Ender 3 Custom Start G-code
G92 E0 ; Reset Extruder
G28 ; Home all axes
G29 ; BL-13 Bed Level
G92 E0 ; Reset Extruder
G1 Z2.0 F3000 ; Move Z Axis up little to prevent scratching of Heat Bed
G1 X235 Y0 Z2 F5000.0 ; Move to 235,0,2
G1 E40 F300  ;extrude 40mm for priming

G1 X235 Y0 Z0 F5000.0 ; Move to 235,0,0
G1 X225 Y10 Z0 F5000.0 ; Move to 225,10,0
G91 ;Relative positioning
G1 E-0.8 F1000 ;retract 0.8mm
G90 ;Absolute positioning
G1 X225 Y15 Z3 F5000.0 ; Move to 225,15,3
G1 X115 Y115 Z0 F5000.0 ; Move to 115,115,0
G92 E0
G92 E0
G1 F1800 E-1
;LAYER_COUNT:85
;LAYER:0
M107
G0 F12000 X89.825 Y99.895 Z0.2
G0 X85.351 Y110.09
;TYPE:SKIRT
G1 F1800 E0
G1 F600 X85.361 Y109.376 E0.02969
G1 X85.395 Y108.58 E0.06281
G1 X85.591 Y107.116 E0.12422
G1 X85.84 Y106.089 E0.16816
G1 X86.097 Y105.297 E0.20277
G1 X86.436 Y104.433 E0.24136
G1 X86.721 Y103.839 E0.26875
G1 X86.836 Y103.617 E0.27915
G1 X87.297 Y102.813 E0.31768
G1 X87.702 Y102.219 E0.34757
G1 X87.911 Y101.933 E0.36229
G1 X88.489 Y101.209 E0.40081
G1 X89.073 Y100.586 E0.43631
G1 X89.825 Y99.895 E0.47877
G1 X90.457 Y99.397 E0.51222
G1 X91.217 Y98.865 E0.55079
G1 X92.03 Y98.391 E0.58992
G1 X93.271 Y97.819 E0.64673
G1 X93.661 Y97.667 E0.66413
G1 X94.539 Y97.368 E0.70269
G1 X95.439 Y97.145 E0.74124
G1 X96.637 Y96.973 E0.79156
G1 X96.96 Y96.945 E0.80504
G1 X97.668 Y96.907 E0.83452
G1 X98.792 Y96.884 E0.88126
G1 X103.342 Y96.883 E1.07043
G1 X105.374 Y96.912 E1.15491
G1 X108.496 Y96.904 E1.28471
G1 X110.463 Y96.869 E1.3665
G1 X125.15 Y96.871 E1.97712
G1 X127.585 Y96.91 E2.07837
G1 X131.339 Y96.884 E2.23444
G1 X136.469 Y96.885 E2.44772
G1 X137.25 Y96.898 E2.4802
G1 X138.079 Y96.944 E2.51472
G1 X138.387 Y96.973 E2.52758
G1 X139.305 Y97.1 E2.56611
G1 X140.209 Y97.305 E2.60465
G1 X140.989 Y97.55 E2.63864
G1 X141.421 Y97.704 E2.65771
G1 X142.28 Y98.053 E2.69625
G1 X143.088 Y98.458 E2.73383
G1 X143.975 Y98.994 E2.77692
G1 X144.667 Y99.491 E2.81234
G1 X145.384 Y100.079 E2.85089
G1 X145.93 Y100.598 E2.88221
G1 X146.566 Y101.273 E2.92077
G1 X147.092 Y101.931 E2.95579
G1 X147.624 Y102.691 E2.99436
G1 X147.923 Y103.191 E3.01858
G1 X148.092 Y103.491 E3.0329
G1 X148.512 Y104.317 E3.07142
G1 X148.856 Y105.153 E3.10901
G1 X149.174 Y106.138 E3.15204
G1 X149.362 Y106.922 E3.18556
G1 X149.527 Y107.835 E3.22413
G1 X149.618 Y108.876 E3.26758
G1 X149.649 Y109.887 E3.30963
G1 X149.65 Y124.786 E3.92906
G1 X149.632 Y125.911 E3.97583
G1 X149.577 Y126.836 E4.01436
G1 X149.407 Y127.926 E4.06022
G1 X149.341 Y128.242 E4.07365
G1 X149.112 Y129.14 E4.11217
G1 X148.92 Y129.721 E4.13761
G1 X148.821 Y129.993 E4.14965
G1 X148.466 Y130.849 E4.18818
G1 X148.132 Y131.513 E4.21908
G1 X147.665 Y132.314 E4.25763
G1 X147.322 Y132.817 E4.28294
G1 X147.132 Y133.079 E4.29639
G1 X146.555 Y133.805 E4.33495
G1 X146.093 Y134.306 E4.36328
G1 X145.913 Y134.489 E4.37395
G1 X145.235 Y135.122 E4.41252
G1 X144.728 Y135.529 E4.43955
G1 X144.491 Y135.708 E4.4519
G1 X143.728 Y136.235 E4.49045
G1 X143.001 Y136.659 E4.52544
G1 X141.729 Y137.247 E4.5837
G1 X141.339 Y137.399 E4.6011
G1 X140.461 Y137.698 E4.63966
G1 X139.561 Y137.921 E4.67821
G1 X138.363 Y138.093 E4.72853
G1 X138.04 Y138.121 E4.74201
G1 X137.332 Y138.159 E4.77149
G1 X136.209 Y138.182 E4.81819
G1 X131.657 Y138.183 E5.00744
G1 X129.712 Y138.155 E5.08831
G1 X129.005 Y138.135 E5.11771
G1 X126.084 Y138.143 E5.23915
G1 X124.583 Y138.169 E5.30157
G1 X109.934 Y138.167 E5.9106
G1 X108.11 Y138.141 E5.98644
G1 X105.478 Y138.141 E6.09587
G1 X103.567 Y138.182 E6.17534
G1 X98.531 Y138.181 E6.38471
G1 X97.75 Y138.168 E6.41719
G1 X96.921 Y138.122 E6.4517
G1 X96.613 Y138.093 E6.46457
G1 X95.695 Y137.966 E6.5031
G1 X94.791 Y137.761 E6.54163
G1 X94.011 Y137.516 E6.57562
G1 X93.579 Y137.362 E6.59469
G1 X92.72 Y137.013 E6.63324
G1 X91.968 Y136.633 E6.66827
G1 X91.743 Y136.508 E6.67897
G1 X90.953 Y136.023 E6.71751
G1 X90.293 Y135.545 E6.75139
G1 X89.251 Y134.647 E6.80858
G1 X89.06 Y134.46 E6.81969
G1 X88.427 Y133.784 E6.8582
G1 X88.042 Y133.309 E6.88362
G1 X87.886 Y133.105 E6.89429
G1 X87.355 Y132.345 E6.93284
G1 X87.035 Y131.808 E6.95883
G1 X86.894 Y131.555 E6.97087
G1 X86.478 Y130.727 E7.00939
G1 X86.209 Y130.072 E7.03883
G1 X86.11 Y129.806 E7.05063
G1 X85.825 Y128.924 E7.08917
G1 X85.675 Y128.314 E7.11529
G1 X85.62 Y128.058 E7.12617
G1 X85.464 Y127.144 E7.16472
G1 X85.408 Y126.58 E7.18829
G1 X85.364 Y125.834 E7.21935
G1 X85.35 Y125.177 E7.24668
G1 X85.351 Y110.09 E7.87392
G0 F12000 X85.851 Y110.097
G1 F600 X85.861 Y109.383 E7.90361
G1 X85.894 Y108.615 E7.93557
G1 X86.083 Y107.211 E7.99446
G1 X86.327 Y106.206 E8.03746
G1 X86.57 Y105.459 E8.07012
G1 X86.902 Y104.616 E8.10779
G1 X87.165 Y104.069 E8.13302
G1 X87.28 Y103.847 E8.14342
G1 X87.731 Y103.063 E8.18102
G1 X88.105 Y102.514 E8.20864
G1 X88.314 Y102.228 E8.22336
G1 X88.88 Y101.522 E8.26098
G1 X89.44 Y100.923 E8.29508
G1 X90.514 Y99.983 E8.35441
G1 X90.761 Y99.794 E8.36735
G1 X91.504 Y99.276 E8.405
G1 X92.267 Y98.831 E8.44172
G1 X93.453 Y98.285 E8.49601
G1 X93.843 Y98.133 E8.51341
G1 X94.7 Y97.842 E8.55104
G1 X95.58 Y97.627 E8.5887
G1 X96.68 Y97.471 E8.63489
G1 X97.003 Y97.443 E8.64837
G1 X97.678 Y97.407 E8.67647
G1 X99.012 Y97.382 E8.73194
G1 X103.335 Y97.383 E8.91167
G1 X105.368 Y97.412 E8.9962
G1 X108.506 Y97.404 E9.12667
G1 X110.463 Y97.369 E9.20804
G1 X125.143 Y97.371 E9.81837
G1 X127.575 Y97.41 E9.91949
G1 X131.343 Y97.384 E10.07615
G1 X136.461 Y97.385 E10.28893
G1 X137.242 Y97.398 E10.3214
G1 X138.032 Y97.442 E10.3543
G1 X138.34 Y97.471 E10.36716
G1 X139.237 Y97.596 E10.40482
G1 X140.119 Y97.799 E10.44244
G1 X140.821 Y98.021 E10.47305
G1 X141.253 Y98.175 E10.49212
G1 X142.091 Y98.516 E10.52974
G1 X142.85 Y98.897 E10.56504
G1 X143.716 Y99.422 E10.60715
G1 X144.367 Y99.891 E10.6405
G1 X145.375 Y100.755 E10.6957
G1 X145.581 Y100.956 E10.70767
G1 X146.201 Y101.616 E10.74531
G1 X146.695 Y102.235 E10.77824
G1 X147.213 Y102.978 E10.8159
G1 X147.487 Y103.436 E10.83809
G1 X147.656 Y103.736 E10.8524
G1 X148.066 Y104.544 E10.89007
G1 X148.388 Y105.331 E10.92542
G1 X148.697 Y106.292 E10.96739
G1 X148.875 Y107.032 E10.99903
G1 X149.035 Y107.923 E11.03667
G1 X149.118 Y108.895 E11.07723
G1 X149.149 Y109.887 E11.11849
G1 X149.149 Y124.961 E11.7452
G1 X149.133 Y125.902 E11.78432
G1 X149.077 Y126.806 E11.82198
G1 X148.917 Y127.824 E11.86482
G1 X148.851 Y128.14 E11.87824
G1 X148.627 Y129.017 E11.91588
G1 X148.45 Y129.55 E11.93923
G1 X148.351 Y129.822 E11.95126
G1 X148.004 Y130.658 E11.98889
G1 X147.689 Y131.28 E12.01788
G1 X147.233 Y132.062 E12.05551
G1 X146.917 Y132.523 E12.07875
G1 X146.727 Y132.785 E12.09221
G1 X146.163 Y133.494 E12.12987
G1 X145.736 Y133.956 E12.15603
G1 X145.556 Y134.139 E12.1667
G1 X144.894 Y134.755 E12.20429
G1 X144.427 Y135.13 E12.22919
G1 X144.19 Y135.309 E12.24154
G1 X143.444 Y135.822 E12.27918
G1 X142.762 Y136.219 E12.31199
G1 X141.547 Y136.781 E12.36765
G1 X141.157 Y136.933 E12.38505
G1 X140.3 Y137.224 E12.42268
G1 X139.42 Y137.439 E12.46034
G1 X138.32 Y137.595 E12.50653
G1 X137.997 Y137.623 E12.52001
G1 X137.322 Y137.659 E12.54811
G1 X135.989 Y137.684 E12.60354
G1 X131.664 Y137.683 E12.78335
G1 X129.726 Y137.655 E12.86394
G1 X129.018 Y137.635 E12.89338
G1 X126.074 Y137.643 E13.01578
G1 X124.583 Y137.669 E13.07778
G1 X109.941 Y137.667 E13.68652
G1 X108.117 Y137.641 E13.76236
G1 X105.467 Y137.641 E13.87254
G1 X103.567 Y137.682 E13.95155
G1 X98.539 Y137.681 E14.16059
G1 X97.758 Y137.668 E14.19306
G1 X96.968 Y137.624 E14.22596
G1 X96.66 Y137.595 E14.23882
G1 X95.763 Y137.47 E14.27647
G1 X94.881 Y137.267 E14.3141
G1 X94.179 Y137.045 E14.34471
G1 X93.747 Y136.891 E14.36378
G1 X92.909 Y136.55 E14.40139
G1 X92.211 Y136.196 E14.43393
G1 X91.986 Y136.071 E14.44463
G1 X91.215 Y135.597 E14.48226
G1 X90.595 Y135.146 E14.51413
G1 X89.601 Y134.29 E14.56867
G1 X89.41 Y134.103 E14.57979
G1 X88.792 Y133.442 E14.61741
G1 X88.283 Y132.801 E14.65144
G1 X87.765 Y132.059 E14.68906
G1 X87.472 Y131.565 E14.71294
G1 X87.331 Y131.312 E14.72498
G1 X86.925 Y130.502 E14.76265
G1 X86.678 Y129.897 E14.78982
G1 X86.579 Y129.631 E14.80162
G1 X86.301 Y128.77 E14.83923
G1 X86.164 Y128.209 E14.86324
G1 X86.109 Y127.953 E14.87413
G1 X85.958 Y127.06 E14.91178
G1 X85.907 Y126.543 E14.93338
G1 X85.864 Y125.819 E14.96353
G1 X85.85 Y125.177 E14.99023
G1 X85.851 Y110.097 E15.61719
G1 F1800 E14.61719
;MESH:Silicone Tip Mold 1.stl
G0 F12000 X95.435 Y110.097
G0 X96.57 Y110.097
G0 X98.187 Y122.389
G1 F1800 E15.61719
G0 F12000 X98.276 Y122.566
;TYPE:WALL-INNER
G1 F600 X98.557 Y122.483 E15.62937
G1 X99.132 Y122.43 E15.65337
G1 X99.61 Y122.512 E15.67354
G1 X100.207 Y122.821 E15.70149
G1 X100.379 Y122.951 E15.71045
G1 X100.832 Y123.473 E15.73918
G1 X101.075 Y124.173 E15.76999
G1 X101.1 Y124.691 E15.79155
G1 X100.949 Y125.29 E15.81723
G1 X100.832 Y125.541 E15.82875
G1 X100.544 Y125.946 E15.84941
G1 X100.338 Y126.141 E15.8612
G1 X99.825 Y126.472 E15.88684
G1 X99.394 Y126.64 E15.90795
G1 X99.886 Y126.681 E15.93119
G1 X100.137 Y126.681 E15.9425
G1 X100.388 Y126.681 E15.95373
G1 X100.639 Y126.681 E15.9649
G1 X100.89 Y126.681 E15.976
G1 X101.141 Y126.681 E15.98702
G1 X101.392 Y126.681 E15.99798
G1 X101.643 Y126.681 E16.00887
G1 X101.894 Y126.681 E16.01968
G1 X102.145 Y126.681 E16.03043
G1 X102.396 Y126.681 E16.0411
G1 X102.647 Y126.681 E16.0517
G1 X102.898 Y126.681 E16.06224
G1 X103.149 Y126.681 E16.07269
G1 X103.15 Y122.697 E16.23833
G1 X103.201 Y122.508 E16.24647
G1 X103.373 Y122.224 E16.26027
G1 X103.771 Y122.017 E16.27892
G1 X103.856 Y121.951 E16.28378
G1 X104.105 Y121.861 E16.29842
G1 X105.029 Y121.861 E16.35551
G1 X105.029 Y121.117 E16.40147
G1 X104.704 Y121.117 E16.42098
G1 X104.379 Y121.117 E16.43941
G1 X104.054 Y121.117 E16.45674
G1 X103.697 Y120.961 E16.47488
G1 X103.451 Y120.901 E16.4854
G1 X102.983 Y120.608 E16.50836
G1 X102.595 Y120.045 E16.53679
G1 X102.535 Y119.771 E16.54845
G1 X102.535 Y115.443 E16.72839
G1 X102.643 Y114.989 E16.74779
G1 X102.927 Y114.541 E16.76984
G1 X103.109 Y114.354 E16.78069
G1 X103.553 Y114.141 E16.80116
G1 X103.878 Y113.946 E16.82077
G1 X105.029 Y113.947 E16.89188
G1 X105.029 Y113.203 E16.93784
G1 X104.736 Y113.203 E16.95555
G1 X104.443 Y113.203 E16.97253
G1 X104.15 Y113.203 E16.98878
G1 X103.857 Y113.203 E17.0043
G1 X103.61 Y113.014 E17.01997
G1 X103.364 Y112.824 E17.03486
G1 X103.15 Y112.404 E17.05563
G1 X103.15 Y108.382 E17.22285
G1 X97.886 Y108.382 E17.4417
G1 X97.524 Y108.489 E17.4574
G1 X97.254 Y108.661 E17.47071
G1 X96.984 Y108.971 E17.4878
G1 X96.85 Y109.416 E17.50712
G1 X96.85 Y123.459 E18.09096
G1 X96.907 Y123.95 E18.11278
G1 X97.092 Y123.647 E18.12893
G1 X97.278 Y123.344 E18.14415
G1 X97.589 Y122.986 E18.16387
G1 X97.806 Y122.814 E18.17538
G1 X98.276 Y122.566 E18.19748
G0 F12000 X98.187 Y122.389
G0 X97.268 Y123.914
G0 X97.061 Y125.662
G0 X96.85 Y125.692
G1 F600 X96.944 Y126.012 E18.21059
G1 X97.171 Y126.358 E18.22687
G1 X97.515 Y126.589 E18.24306
G1 X97.673 Y126.648 E18.24961
G1 X98.037 Y126.698 E18.26388
G1 X98.449 Y126.678 E18.28058
G1 X98.755 Y126.646 E18.29442
G1 X98.471 Y126.561 E18.30776
G1 X98.186 Y126.434 E18.3207
G1 X97.901 Y126.306 E18.3332
G1 X97.497 Y125.991 E18.35343
G1 X97.128 Y125.461 E18.37905
G1 X97.045 Y125.217 E18.38955
G1 X96.962 Y124.973 E18.40065
G1 X96.879 Y124.729 E18.41235
G1 X96.858 Y125.022 E18.42549
G1 X96.836 Y125.315 E18.43756
G1 X96.85 Y125.692 E18.4524
G1 F1800 E17.4524
G0 F12000 X97.061 Y125.662
G0 X96.97 Y123.645
G1 F1800 E18.4524
G0 F12000 X97.474 Y124.049
;TYPE:WALL-OUTER
G1 F600 X97.631 Y123.701 E18.46827
G1 X97.999 Y123.277 E18.49161
G1 X98.554 Y122.986 E18.51767
G1 X99.116 Y122.934 E18.54113
G1 X99.451 Y122.993 E18.55527
G1 X99.998 Y123.28 E18.58096
G1 X100.395 Y123.737 E18.60612
G1 X100.58 Y124.271 E18.62962
G1 X100.593 Y124.659 E18.64576
G1 X100.452 Y125.213 E18.66953
G1 X100.108 Y125.695 E18.69415
G1 X99.623 Y126.007 E18.71812
G1 X99.301 Y126.104 E18.7321
G1 X98.703 Y126.111 E18.75697
G1 X98.171 Y125.898 E18.78079
G1 X98.131 Y125.873 E18.78275
G1 X97.876 Y125.669 E18.79633
G1 X97.544 Y125.202 E18.82015
G1 X97.393 Y124.606 E18.84571
G1 X97.474 Y124.049 E18.86911
G0 F12000 X96.913 Y123.998
;TYPE:WALL-INNER
G1 F600 X96.894 Y124.296 E18.88416
G1 X96.874 Y124.595 E18.89829
G1 X96.879 Y124.729 E18.90447
G1 F1800 E17.90447
G0 F12000 X97.006 Y125.572
G0 X97.268 Y123.914
G0 X97.084 Y123.268
G0 X97.498 Y122.792
G0 X102.385 Y119.997
G1 F1800 E18.90447
G0 F12000 X103.034 Y119.8
;TYPE:WALL-OUTER
G1 F600 X103.039 Y115.482 E19.08399
G1 X103.098 Y115.214 E19.0954
G1 X103.36 Y114.787 E19.11622
G1 X103.832 Y114.568 E19.13786
G1 X105.489 Y114.567 E19.20675
G1 X105.559 Y114.46 E19.21206
G1 X105.65 Y114.141 E19.22585
G1 X105.65 Y112.683 E19.28647
G1 X105.602 Y112.582 E19.29112
G1 X103.893 Y112.582 E19.36217
G1 X103.742 Y112.474 E19.36989
G1 X103.653 Y112.276 E19.37892
G1 X103.65 Y107.882 E19.5616
G1 X98.017 Y107.882 E19.79579
G1 X97.767 Y107.9 E19.80621
G1 X97.317 Y108.032 E19.82571
G1 X96.926 Y108.282 E19.845
G1 X96.615 Y108.638 E19.86466
G1 X96.38 Y109.153 E19.88819
G1 X96.35 Y109.545 E19.90454
G1 X96.352 Y125.688 E20.57568
G1 X96.418 Y125.992 E20.58862
G1 X96.611 Y126.419 E20.6081
G1 X96.751 Y126.606 E20.61781
G1 X97.177 Y126.978 E20.64132
G1 X97.637 Y127.151 E20.66176
G1 X98.012 Y127.181 E20.6774
G1 X103.65 Y127.182 E20.9118
G1 X103.652 Y122.743 E21.09635
G1 X103.712 Y122.615 E21.10223
G1 X103.944 Y122.483 E21.11332
G1 X105.549 Y122.482 E21.18005
G1 X105.65 Y122.433 E21.18472
G1 X105.65 Y120.991 E21.24467
G1 X105.65 Y120.923 E21.2475
G1 X105.558 Y120.6 E21.26146
G1 X105.49 Y120.497 E21.26659
G1 X103.964 Y120.495 E21.32991
G1 X103.672 Y120.443 E21.34222
G1 X103.319 Y120.225 E21.35946
G1 X103.034 Y119.8 E21.38074
G0 F12000 X102.385 Y119.997
G0 X100.996 Y125.549
G0 X100.518 Y126.157
G0 X99.899 Y126.563
G0 X99.394 Y126.64
;TYPE:WALL-INNER
G1 F600 X99.074 Y126.643 E21.39628
G1 X98.754 Y126.646 E21.41163
G0 F12000 X98.169 Y126.564
G0 X97.3 Y125.23
G0 X97.16 Y124.55
G0 X97.257 Y123.978
G0 X98.117 Y122.197
;TYPE:SKIN
G1 F600 X98.519 Y122.08 E21.42382
G1 X99 Y122.036 E21.43787
G1 X99.298 Y122.048 E21.44655
G1 X99.737 Y122.125 E21.45952
G1 X100.569 Y122.557 E21.48681
G1 X101.119 Y123.185 E21.5111
G1 X101.26 Y123.474 E21.52046
G1 X101.42 Y123.932 E21.53458
G1 X101.481 Y124.238 E21.54366
G1 X101.504 Y124.744 E21.5584
G1 X101.332 Y125.414 E21.57853
G1 X101.162 Y125.779 E21.59025
G1 X100.805 Y126.276 E21.60806
G1 X102.746 Y126.278 E21.66455
G1 X102.746 Y122.651 E21.7701
G1 X102.853 Y122.245 E21.78232
G1 X103.229 Y121.814 E21.79897
G1 X103.602 Y121.651 E21.81081
G1 X103.777 Y121.486 E21.81781
G1 X103.586 Y121.353 E21.82459
G1 X103.277 Y121.27 E21.8339
G1 X102.806 Y120.975 E21.85007
G1 X102.607 Y120.784 E21.8581
G1 X102.221 Y120.213 E21.87816
G1 X102.132 Y119.812 E21.89011
G1 X102.131 Y115.415 E22.01808
G1 X102.27 Y114.828 E22.03563
G1 X102.621 Y114.273 E22.05474
G1 X102.88 Y114.015 E22.06538
G1 X103.355 Y113.788 E22.0807
G1 X103.609 Y113.57 E22.09044
G1 X103.16 Y113.177 E22.10781
G1 X102.956 Y112.937 E22.11698
G1 X102.796 Y112.573 E22.12855
G1 X102.747 Y112.258 E22.13783
G1 X102.746 Y108.786 E22.23887
G1 X97.94 Y108.786 E22.37874
G1 X97.693 Y108.859 E22.38623
G1 X97.52 Y108.97 E22.39222
G1 X97.345 Y109.17 E22.39995
G1 X97.254 Y109.47 E22.40907
G1 X97.256 Y122.742 E22.79532
G1 X97.62 Y122.454 E22.80883
G1 X98.117 Y122.197 E22.82511
G0 F12000 X97.545 Y122.294
G1 F600 X97.43 Y122.179 E22.82985
G0 F12000 X97.869 Y122.123
G1 F600 X97.43 Y121.684 E22.84792
G0 F12000 X97.43 Y121.189
G1 F600 X98.222 Y121.98 E22.88049
G0 F12000 X98.629 Y121.893
G1 F600 X97.43 Y120.694 E22.92984
G0 F12000 X97.43 Y120.199
G1 F600 X99.096 Y121.865 E22.99841
G0 F12000 X99.658 Y121.932
G1 F600 X97.43 Y119.704 E23.09011
G0 F12000 X97.43 Y119.209
G1 F600 X100.582 Y122.361 E23.21983
G0 F12000 X100.959 Y122.738
G1 F600 X102.571 Y124.35 E23.28618
G0 F12000 X102.571 Y124.845
G1 F600 X101.577 Y123.851 E23.32709
G0 F12000 X101.665 Y124.434
G1 F600 X102.571 Y125.34 E23.36438
