;FLAVOR:Marlin
;TIME:5685
;Filament used: 3.6519m
;Layer height: 0.2
;MINX:75.149
;MINY:51.101
;MINZ:0.2
;MAXX:159.851
;MAXY:183.899
;MAXZ:11
;Generated with Cura_SteamEngine main
M140 S75
M105
M190 S75
M104 S230
M105
M109 S230
M82 ;absolute extrusion mode
; Ender 3 Custom Start G-code
G92 E0 ; Reset Extruder
G28 ; Home all axes
G29 ; BL-13 Bed Level
G92 E0 ; Reset Extruder
G1 Z2.0 F3000 ; Move Z Axis up little to prevent scratching of Heat Bed
G1 X235 Y0 Z2 F5000.0 ; Move to 235,0,2
G1 E40 F300  ;extrude 40mm for priming

G1 X235 Y0 Z0 F5000.0 ; Move to 235,0,0
G1 X225 Y10 Z0 F5000.0 ; Move to 225,10,0
G91 ;Relative positioning
G1 E-0.8 F1000 ;retract 0.8mm
G90 ;Absolute positioning
G1 X225 Y15 Z3 F5000.0 ; Move to 225,15,3
G1 X115 Y115 Z0 F5000.0 ; Move to 115,115,0
G92 E0
G92 E0
G1 F1800 E-1
;LAYER_COUNT:55
;LAYER:0
M107
G0 F12000 X77.475 Y56.581 Z0.2
G0 X75.169 Y64.112
;TYPE:SKIRT
G1 F1800 E0
G1 F600 X75.18 Y63.185 E0.03854
G1 X75.23 Y62.586 E0.06353
G1 X75.277 Y62.165 E0.08114
G1 X75.42 Y61.249 E0.11969
G1 X75.641 Y60.349 E0.15822
G1 X75.974 Y59.379 E0.20086
G1 X76.123 Y59.005 E0.21759
G1 X76.503 Y58.16 E0.25611
G1 X76.955 Y57.35 E0.29468
G1 X77.475 Y56.581 E0.33327
G1 X77.736 Y56.229 E0.35149
G1 X78.32 Y55.509 E0.39003
G1 X78.963 Y54.842 E0.42855
G1 X79.781 Y54.139 E0.47339
G1 X80.089 Y53.9 E0.4896
G1 X80.845 Y53.364 E0.52813
G1 X81.645 Y52.895 E0.56669
G1 X82.365 Y52.547 E0.59993
G1 X82.753 Y52.377 E0.61754
G1 X83.617 Y52.042 E0.65607
G1 X84.507 Y51.782 E0.69462
G1 X85.533 Y51.583 E0.73807
G1 X85.977 Y51.519 E0.75672
G1 X87.16 Y51.415 E0.80609
G1 X88.332 Y51.377 E0.85485
G1 X89.644 Y51.346 E0.90941
G1 X92.166 Y51.215 E1.0144
G1 X93.309 Y51.135 E1.06204
G1 X94.054 Y51.105 E1.09304
G1 X94.525 Y51.101 E1.11262
G1 X95.21 Y51.111 E1.1411
G1 X95.812 Y51.137 E1.16615
G1 X96.261 Y51.169 E1.18487
G1 X98.84 Y51.315 E1.29226
G1 X102.798 Y51.399 E1.45685
G1 X132.203 Y51.4 E2.67937
G1 X134.822 Y51.363 E2.78827
G1 X137.327 Y51.257 E2.89251
G1 X138.335 Y51.185 E2.93452
G1 X139.341 Y51.127 E2.97642
G1 X139.954 Y51.105 E3.00192
G1 X140.425 Y51.101 E3.0215
G1 X141.11 Y51.111 E3.04998
G1 X141.716 Y51.137 E3.0752
G1 X142.433 Y51.188 E3.10508
G1 X145.057 Y51.338 E3.21436
G1 X147.791 Y51.414 E3.32807
G1 X148.844 Y51.496 E3.37198
G1 X149.238 Y51.546 E3.38849
G1 X150.152 Y51.702 E3.42704
G1 X151.049 Y51.936 E3.46558
G1 X151.823 Y52.207 E3.49967
G1 X152.204 Y52.357 E3.5167
G1 X153.051 Y52.734 E3.55524
G1 X153.863 Y53.182 E3.5938
G1 X154.669 Y53.725 E3.6342
G1 X155.021 Y53.986 E3.65242
G1 X155.741 Y54.57 E3.69096
G1 X156.408 Y55.213 E3.72948
G1 X157.108 Y56.027 E3.77412
G1 X157.348 Y56.336 E3.79038
G1 X157.885 Y57.092 E3.82894
G1 X158.354 Y57.891 E3.86746
G1 X158.711 Y58.631 E3.90161
G1 X158.879 Y59.016 E3.91908
G1 X159.213 Y59.881 E3.95763
G1 X159.471 Y60.771 E3.99615
G1 X159.662 Y61.751 E4.03766
G1 X159.722 Y62.159 E4.05481
G1 X159.817 Y63.081 E4.09334
G1 X159.832 Y64.008 E4.13189
G1 X159.767 Y64.939 E4.17069
G1 X159.596 Y66.431 E4.23313
G1 X159.507 Y67.107 E4.26147
G1 X159.247 Y69.64 E4.36734
G1 X159.063 Y72.111 E4.47035
G1 X158.945 Y74.68 E4.57727
G1 X158.901 Y77.184 E4.68139
G1 X158.927 Y79.693 E4.78571
G1 X159.025 Y82.218 E4.89077
G1 X159.195 Y84.75 E4.99627
G1 X159.433 Y87.229 E5.09981
G1 X159.592 Y88.463 E5.15154
G1 X159.61 Y88.673 E5.1603
G1 X159.766 Y89.989 E5.2154
G1 X159.839 Y91.054 E5.25978
G1 X159.851 Y91.804 E5.29097
G1 X159.843 Y97.867 E5.54304
G1 X159.85 Y98.866 E5.58457
G1 X159.85 Y103.23 E5.766
G1 X159.841 Y103.874 E5.79278
G1 X159.798 Y104.697 E5.82704
G1 X159.742 Y105.257 E5.85044
G1 X159.656 Y105.968 E5.88022
G1 X159.542 Y106.818 E5.91587
G1 X159.273 Y109.354 E6.0219
G1 X159.079 Y111.864 E6.12656
G1 X158.955 Y114.374 E6.23105
G1 X158.902 Y116.91 E6.3365
G1 X158.921 Y119.441 E6.44173
G1 X159.012 Y121.952 E6.5462
G1 X159.172 Y124.458 E6.6506
G1 X159.408 Y127.013 E6.75727
G1 X159.764 Y129.971 E6.88114
G1 X159.839 Y131.054 E6.92627
G1 X159.851 Y131.804 E6.95746
G1 X159.843 Y137.867 E7.20953
G1 X159.85 Y138.866 E7.25106
G1 X159.85 Y143.211 E7.43171
G1 X159.841 Y143.871 E7.45915
G1 X159.798 Y144.697 E7.49354
G1 X159.744 Y145.242 E7.51631
G1 X159.643 Y146.081 E7.55144
G1 X159.507 Y147.115 E7.5948
G1 X159.246 Y149.651 E7.70079
G1 X159.062 Y152.13 E7.80414
G1 X158.945 Y154.686 E7.91052
G1 X158.901 Y157.197 E8.01493
G1 X158.927 Y159.699 E8.11895
G1 X159.026 Y162.235 E8.22447
G1 X159.197 Y164.779 E8.33048
G1 X159.431 Y167.23 E8.43284
G1 X159.591 Y168.456 E8.48424
G1 X159.609 Y168.666 E8.49301
G1 X159.762 Y169.963 E8.5473
G1 X159.831 Y170.888 E8.58587
G1 X159.82 Y171.815 E8.62441
G1 X159.769 Y172.417 E8.64953
G1 X159.722 Y172.837 E8.6671
G1 X159.58 Y173.753 E8.70564
G1 X159.358 Y174.653 E8.74417
G1 X159.035 Y175.597 E8.78566
G1 X158.887 Y175.971 E8.80238
G1 X158.509 Y176.817 E8.8409
G1 X158.059 Y177.628 E8.87946
G1 X157.523 Y178.422 E8.91929
G1 X157.261 Y178.775 E8.93757
G1 X156.677 Y179.495 E8.97611
G1 X156.033 Y180.162 E9.01466
G1 X155.219 Y180.861 E9.05926
G1 X154.911 Y181.1 E9.07547
G1 X154.155 Y181.636 E9.114
G1 X153.355 Y182.105 E9.15256
G1 X152.635 Y182.453 E9.1858
G1 X152.247 Y182.623 E9.20341
G1 X151.383 Y182.958 E9.24194
G1 X150.493 Y183.218 E9.28049
G1 X149.467 Y183.417 E9.32394
G1 X149.023 Y183.481 E9.34259
G1 X147.84 Y183.585 E9.39196
G1 X146.668 Y183.623 E9.44072
G1 X145.356 Y183.654 E9.49528
G1 X142.834 Y183.785 E9.60027
G1 X141.691 Y183.865 E9.64791
G1 X140.946 Y183.895 E9.67891
G1 X140.475 Y183.899 E9.69849
G1 X139.79 Y183.889 E9.72697
G1 X139.188 Y183.863 E9.75202
G1 X138.739 Y183.831 E9.77074
G1 X136.16 Y183.685 E9.87813
G1 X132.202 Y183.601 E10.04272
G1 X102.797 Y183.6 E11.26524
G1 X100.178 Y183.637 E11.37414
G1 X97.673 Y183.743 E11.47838
G1 X96.665 Y183.815 E11.52039
G1 X95.659 Y183.873 E11.56228
G1 X95.046 Y183.895 E11.58779
G1 X94.575 Y183.899 E11.60737
G1 X93.892 Y183.889 E11.63577
G1 X93.288 Y183.863 E11.6609
G1 X92.579 Y183.813 E11.69045
G1 X89.944 Y183.662 E11.80018
G1 X87.211 Y183.586 E11.91385
G1 X86.169 Y183.506 E11.9573
G1 X85.772 Y183.456 E11.97394
G1 X84.858 Y183.3 E12.01249
G1 X83.96 Y183.067 E12.05106
G1 X83.177 Y182.793 E12.08555
G1 X82.796 Y182.643 E12.10257
G1 X81.949 Y182.266 E12.14111
G1 X81.137 Y181.818 E12.17967
G1 X80.331 Y181.275 E12.22008
G1 X79.979 Y181.014 E12.23829
G1 X79.259 Y180.43 E12.27684
G1 X78.592 Y179.787 E12.31535
G1 X77.892 Y178.973 E12.35999
G1 X77.652 Y178.664 E12.37626
G1 X77.115 Y177.908 E12.41481
G1 X76.646 Y177.109 E12.45333
G1 X76.285 Y176.36 E12.4879
G1 X76.117 Y175.974 E12.5054
G1 X75.784 Y175.109 E12.54393
G1 X75.527 Y174.218 E12.58249
G1 X75.34 Y173.259 E12.62311
G1 X75.28 Y172.854 E12.64013
G1 X75.184 Y171.932 E12.67867
G1 X75.167 Y171.005 E12.71722
G1 X75.233 Y170.065 E12.75639
G1 X75.404 Y168.569 E12.81899
G1 X75.493 Y167.893 E12.84734
G1 X75.753 Y165.36 E12.9532
G1 X75.937 Y162.889 E13.05622
G1 X76.055 Y160.32 E13.16314
G1 X76.099 Y157.816 E13.26726
G1 X76.073 Y155.307 E13.37158
G1 X75.975 Y152.782 E13.47664
G1 X75.805 Y150.249 E13.58218
G1 X75.568 Y147.777 E13.68543
G1 X75.408 Y146.539 E13.73733
G1 X75.391 Y146.34 E13.74563
G1 X75.233 Y145.001 E13.80168
G1 X75.161 Y143.943 E13.84577
G1 X75.149 Y143.196 E13.87683
G1 X75.157 Y137.133 E14.1289
G1 X75.15 Y136.134 E14.17044
G1 X75.15 Y131.746 E14.35287
G1 X75.161 Y131.066 E14.38114
G1 X75.231 Y130.006 E14.42531
G1 X75.337 Y129.089 E14.46369
G1 X75.458 Y128.182 E14.50173
G1 X75.727 Y125.646 E14.60776
G1 X75.921 Y123.136 E14.71242
G1 X76.045 Y120.626 E14.8169
G1 X76.098 Y118.09 E14.92236
G1 X76.079 Y115.559 E15.02759
G1 X75.988 Y113.048 E15.13205
G1 X75.825 Y110.505 E15.238
G1 X75.595 Y108.013 E15.34204
G1 X75.236 Y105.022 E15.46729
G1 X75.161 Y103.943 E15.51225
G1 X75.149 Y103.196 E15.54332
G1 X75.157 Y97.133 E15.79539
G1 X75.15 Y96.134 E15.83692
G1 X75.15 Y91.746 E16.01935
G1 X75.161 Y91.066 E16.04763
G1 X75.23 Y90.017 E16.09133
G1 X75.357 Y88.919 E16.13729
G1 X75.493 Y87.885 E16.18065
G1 X75.754 Y85.349 E16.28664
G1 X75.938 Y82.87 E16.38999
G1 X76.055 Y80.314 E16.49636
G1 X76.099 Y77.803 E16.60077
G1 X76.073 Y75.301 E16.7048
G1 X75.974 Y72.765 E16.81032
G1 X75.803 Y70.22 E16.91636
G1 X75.569 Y67.77 E17.01869
G1 X75.409 Y66.544 E17.07009
G1 X75.391 Y66.334 E17.07885
G1 X75.238 Y65.037 E17.13315
G1 X75.169 Y64.112 E17.17171
G0 F12000 X75.668 Y64.075
G1 F600 X75.682 Y63.17 E17.20934
G1 X75.727 Y62.642 E17.23137
G1 X75.774 Y62.221 E17.24899
G1 X75.914 Y61.326 E17.28665
G1 X76.133 Y60.448 E17.32427
G1 X76.439 Y59.564 E17.36316
G1 X76.588 Y59.19 E17.3799
G1 X76.96 Y58.365 E17.41753
G1 X77.403 Y57.576 E17.45514
G1 X77.876 Y56.879 E17.49017
G1 X78.137 Y56.527 E17.50838
G1 X78.708 Y55.824 E17.54604
G1 X79.339 Y55.175 E17.58367
G1 X80.087 Y54.534 E17.62463
G1 X80.395 Y54.295 E17.64083
G1 X81.134 Y53.772 E17.67847
G1 X81.917 Y53.317 E17.71612
G1 X82.566 Y53.005 E17.74606
G1 X82.954 Y52.835 E17.76367
G1 X83.798 Y52.508 E17.80131
G1 X84.668 Y52.258 E17.83894
G1 X85.605 Y52.078 E17.87861
G1 X86.049 Y52.014 E17.89726
G1 X87.177 Y51.914 E17.94434
G1 X89.648 Y51.846 E18.04711
G1 X92.227 Y51.712 E18.15448
G1 X93.344 Y51.634 E18.20103
G1 X94.069 Y51.604 E18.2312
G1 X94.518 Y51.601 E18.24986
G1 X95.203 Y51.611 E18.27835
G1 X95.777 Y51.636 E18.30223
G1 X96.198 Y51.666 E18.31978
G1 X98.83 Y51.815 E18.42938
G1 X102.788 Y51.899 E18.59397
G1 X132.21 Y51.9 E19.8172
G1 X134.815 Y51.863 E19.92551
G1 X137.348 Y51.756 E20.03092
G1 X138.219 Y51.693 E20.06722
G1 X139.37 Y51.626 E20.11516
G1 X139.969 Y51.604 E20.14008
G1 X140.418 Y51.601 E20.15874
G1 X141.103 Y51.611 E20.18723
G1 X141.681 Y51.636 E20.21128
G1 X142.444 Y51.69 E20.24308
G1 X145.013 Y51.837 E20.35006
G1 X147.777 Y51.914 E20.46502
G1 X148.781 Y51.992 E20.50689
G1 X149.175 Y52.042 E20.5234
G1 X150.068 Y52.195 E20.56107
G1 X150.943 Y52.427 E20.5987
G1 X151.64 Y52.673 E20.62943
G1 X152.021 Y52.823 E20.64646
G1 X152.848 Y53.191 E20.68409
G1 X153.639 Y53.631 E20.72172
G1 X154.371 Y54.126 E20.75846
G1 X154.723 Y54.387 E20.77668
G1 X155.426 Y54.958 E20.81433
G1 X156.075 Y55.589 E20.85196
G1 X156.713 Y56.334 E20.89274
G1 X156.953 Y56.643 E20.90901
G1 X157.476 Y57.381 E20.94662
G1 X157.932 Y58.163 E20.98425
G1 X158.253 Y58.831 E21.01506
G1 X158.421 Y59.216 E21.03253
G1 X158.746 Y60.061 E21.07017
G1 X158.995 Y60.931 E21.10779
G1 X159.167 Y61.824 E21.1456
G1 X159.227 Y62.232 E21.16274
G1 X159.319 Y63.132 E21.20036
G1 X159.331 Y64.038 E21.23803
G1 X159.27 Y64.882 E21.27321
G1 X159.1 Y66.366 E21.33531
G1 X159.009 Y67.062 E21.36449
G1 X158.753 Y69.552 E21.46856
G1 X158.562 Y72.121 E21.57566
G1 X158.445 Y74.648 E21.68083
G1 X158.401 Y77.18 E21.78612
G1 X158.427 Y79.717 E21.8916
G1 X158.525 Y82.235 E21.99637
G1 X158.697 Y84.795 E22.10304
G1 X158.935 Y87.278 E22.20674
G1 X159.096 Y88.526 E22.25906
G1 X159.112 Y88.713 E22.26686
G1 X159.27 Y90.048 E22.32275
G1 X159.339 Y91.063 E22.36505
G1 X159.351 Y91.803 E22.39582
G1 X159.343 Y97.871 E22.6481
G1 X159.35 Y98.867 E22.68951
G1 X159.35 Y103.223 E22.87061
G1 X159.341 Y103.867 E22.89738
G1 X159.3 Y104.652 E22.93006
G1 X159.246 Y105.197 E22.95283
G1 X159.045 Y106.769 E23.01872
G1 X158.772 Y109.332 E23.12588
G1 X158.582 Y111.799 E23.22875
G1 X158.455 Y114.375 E23.33598
G1 X158.402 Y116.903 E23.4411
G1 X158.421 Y119.463 E23.54754
G1 X158.511 Y121.966 E23.65167
G1 X158.674 Y124.501 E23.75728
G1 X158.909 Y127.048 E23.86362
G1 X159.268 Y130.031 E23.98854
G1 X159.339 Y131.063 E24.03154
G1 X159.351 Y131.803 E24.06231
G1 X159.343 Y137.871 E24.31459
G1 X159.35 Y138.867 E24.356
G1 X159.35 Y143.204 E24.53631
G1 X159.341 Y143.864 E24.56375
G1 X159.3 Y144.652 E24.59656
G1 X159.248 Y145.183 E24.61874
G1 X159.163 Y145.894 E24.64851
G1 X159.009 Y147.065 E24.69762
G1 X158.752 Y149.563 E24.80202
G1 X158.56 Y152.138 E24.90937
G1 X158.445 Y154.656 E25.01417
G1 X158.401 Y157.193 E25.11966
G1 X158.427 Y159.724 E25.22489
G1 X158.526 Y162.252 E25.33008
G1 X158.697 Y164.792 E25.43592
G1 X158.938 Y167.313 E25.5412
G1 X159.095 Y168.521 E25.59185
G1 X159.11 Y168.701 E25.59936
G1 X159.266 Y170.022 E25.65466
G1 X159.332 Y170.925 E25.6923
G1 X159.318 Y171.83 E25.72993
G1 X159.272 Y172.361 E25.75209
G1 X159.225 Y172.781 E25.76966
G1 X159.085 Y173.675 E25.80728
G1 X158.866 Y174.554 E25.84495
G1 X158.57 Y175.413 E25.88272
G1 X158.422 Y175.787 E25.89944
G1 X158.052 Y176.613 E25.93707
G1 X157.61 Y177.403 E25.97471
G1 X157.122 Y178.124 E26.0109
G1 X156.86 Y178.477 E26.02918
G1 X156.289 Y179.179 E26.0668
G1 X155.658 Y179.829 E26.10446
G1 X154.913 Y180.466 E26.14522
G1 X154.605 Y180.705 E26.16142
G1 X153.866 Y181.228 E26.19906
G1 X153.083 Y181.683 E26.23672
G1 X152.434 Y181.995 E26.26665
G1 X152.046 Y182.165 E26.28426
G1 X151.202 Y182.492 E26.3219
G1 X150.332 Y182.742 E26.35953
G1 X149.395 Y182.922 E26.3992
G1 X148.951 Y182.986 E26.41785
G1 X147.823 Y183.086 E26.46493
G1 X145.352 Y183.154 E26.5677
G1 X142.773 Y183.288 E26.67507
G1 X141.656 Y183.366 E26.72162
G1 X140.931 Y183.396 E26.75179
G1 X140.482 Y183.399 E26.77046
G1 X139.797 Y183.389 E26.79894
G1 X139.223 Y183.364 E26.82282
G1 X138.802 Y183.334 E26.84037
G1 X136.17 Y183.185 E26.94997
G1 X132.212 Y183.101 E27.11456
G1 X102.79 Y183.1 E28.33779
G1 X100.185 Y183.137 E28.4461
G1 X97.652 Y183.244 E28.55151
G1 X96.781 Y183.307 E28.58781
G1 X95.63 Y183.374 E28.63575
G1 X95.031 Y183.396 E28.66067
G1 X94.582 Y183.399 E28.67934
G1 X93.899 Y183.389 E28.70773
G1 X93.323 Y183.364 E28.7317
G1 X92.567 Y183.31 E28.76322
G1 X89.988 Y183.163 E28.87061
G1 X87.225 Y183.086 E28.98553
G1 X86.231 Y183.01 E29.02697
G1 X85.834 Y182.96 E29.04361
G1 X84.942 Y182.807 E29.08124
G1 X84.066 Y182.576 E29.1189
G1 X83.36 Y182.327 E29.15003
G1 X82.979 Y182.177 E29.16705
G1 X82.152 Y181.809 E29.20468
G1 X81.361 Y181.369 E29.24231
G1 X80.629 Y180.874 E29.27905
G1 X80.277 Y180.613 E29.29727
G1 X79.574 Y180.042 E29.33492
G1 X78.925 Y179.411 E29.37256
G1 X78.287 Y178.666 E29.41334
G1 X78.047 Y178.357 E29.4296
G1 X77.524 Y177.619 E29.46721
G1 X77.068 Y176.837 E29.50484
G1 X76.744 Y176.161 E29.53601
G1 X76.576 Y175.775 E29.55351
G1 X76.251 Y174.929 E29.59119
G1 X76.003 Y174.059 E29.6288
G1 X75.835 Y173.186 E29.66576
G1 X75.775 Y172.781 E29.68279
G1 X75.682 Y171.881 E29.7204
G1 X75.668 Y170.975 E29.75807
G1 X75.73 Y170.122 E29.79363
G1 X75.9 Y168.634 E29.8559
G1 X75.991 Y167.938 E29.88508
G1 X76.247 Y165.448 E29.98915
G1 X76.438 Y162.879 E30.09625
G1 X76.555 Y160.352 E30.20142
G1 X76.599 Y157.82 E30.30671
G1 X76.573 Y155.283 E30.41219
G1 X76.475 Y152.765 E30.51695
G1 X76.303 Y150.201 E30.62379
G1 X76.066 Y147.727 E30.72712
G1 X75.904 Y146.475 E30.77961
G1 X75.887 Y146.269 E30.7882
G1 X75.73 Y144.943 E30.84371
G1 X75.661 Y143.933 E30.8858
G1 X75.649 Y143.197 E30.91641
G1 X75.657 Y137.129 E31.16868
G1 X75.65 Y136.133 E31.21009
G1 X75.65 Y131.754 E31.39215
G1 X75.661 Y131.074 E31.42043
G1 X75.728 Y130.063 E31.46255
G1 X75.858 Y128.952 E31.50906
G1 X75.955 Y128.231 E31.5393
G1 X76.228 Y125.668 E31.64646
G1 X76.418 Y123.201 E31.74933
G1 X76.545 Y120.625 E31.85656
G1 X76.598 Y118.097 E31.96168
G1 X76.579 Y115.537 E32.06812
G1 X76.489 Y113.034 E32.17225
G1 X76.326 Y110.498 E32.2779
G1 X76.09 Y107.947 E32.38441
G1 X75.732 Y104.963 E32.50936
G1 X75.661 Y103.933 E32.55229
G1 X75.649 Y103.197 E32.58289
G1 X75.657 Y97.129 E32.83517
G1 X75.65 Y96.133 E32.87658
G1 X75.65 Y91.754 E33.05864
G1 X75.661 Y91.074 E33.08691
G1 X75.727 Y90.074 E33.12858
G1 X75.853 Y88.985 E33.17415
G1 X75.991 Y87.935 E33.21818
G1 X76.248 Y85.437 E33.32259
G1 X76.44 Y82.862 E33.42994
G1 X76.555 Y80.344 E33.53474
G1 X76.599 Y77.807 E33.64023
G1 X76.573 Y75.276 E33.74546
G1 X76.474 Y72.748 E33.85064
G1 X76.303 Y70.21 E33.9564
G1 X76.062 Y67.684 E34.06189
G1 X75.905 Y66.479 E34.11242
G1 X75.89 Y66.299 E34.11993
G1 X75.734 Y64.978 E34.17523
G1 X75.668 Y64.075 E34.21287
G1 F1800 E33.21287
;MESH:Top Chassis.stl
G0 F12000 X99.378 Y110.335
;TYPE:WALL-OUTER
G1 F1800 E34.21287
G1 F600 X99.5 Y110.35 E34.21813
G1 X100.458 Y110.35 E34.25796
G1 X101.416 Y110.35 E34.29779
G1 X102.374 Y110.35 E34.3377
G1 X103.332 Y110.35 E34.37761
G1 X104.29 Y110.35 E34.4176
G1 X105.248 Y110.35 E34.45759
G1 X106.206 Y110.35 E34.49765
G1 X107.164 Y110.35 E34.53772
G1 X108.122 Y110.35 E34.57787
G1 X109.08 Y110.35 E34.61802
